BaekYang/LfD_Ufactory_obs_kin/RhinoTransfer/test15two.csv
timestamp,x,y,z,r,p,y,joint1,joint2,joint3,joint4,joint5,joint6,gripper
114.0,286.449799,200.130859,197.931763,43.193054,-56.510369,146.230403,47.351300704205144,51.16279214788238,47.31241643726026,37.19973397478776,-115.85999345692771,-19.478772314696535,0
117.33333333333333,286.449799,200.130859,197.931763,43.193054,-56.510369,146.230403,47.351300704205144,51.16279214788238,47.31241643726026,37.19973397478776,-115.85999345692771,-19.478772314696535,0
120.66666666666666,286.449799,200.130859,197.931763,43.193054,-56.510369,146.230403,47.351300704205144,51.16279214788238,47.31241643726026,37.19973397478776,-115.85999345692771,-19.478772314696535,0
123.99999999999999,286.449799,200.130859,197.931763,43.193054,-56.510369,146.230403,47.351300704205144,51.16279214788238,47.31241643726026,37.19973397478776,-115.85999345692771,-19.478772314696535,0
127.33333333333331,286.449799,200.130859,197.931763,43.193054,-56.510369,146.230403,47.351300704205144,51.16279214788238,47.31241643726026,37.19973397478776,-115.85999345692771,-19.478772314696535,0
130.66666666666663,286.449799,200.130859,197.931763,43.193054,-56.510369,146.230403,47.351300704205144,51.16279214788238,47.31241643726026,37.19973397478776,-115.85999345692771,-19.478772314696535,0
133.99999999999997,286.449799,200.130859,197.931763,43.193054,-56.510369,146.230403,47.351300704205144,51.16279214788238,47.31241643726026,37.19973397478776,-115.85999345692771,-19.478772314696535,0
137.33333333333331,286.449799,200.130859,197.931763,43.193054,-56.510369,146.230403,47.351300704205144,51.16279214788238,47.31241643726026,37.19973397478776,-115.85999345692771,-19.478772314696535,0
140.66666666666663,286.449799,200.130859,197.931763,43.193054,-56.510369,146.230403,47.351300704205144,51.16279214788238,47.31241643726026,37.19973397478776,-115.85999345692771,-19.478772314696535,0
143.99999999999994,286.449799,200.130859,197.931763,43.193054,-56.510369,146.230403,47.351300704205144,51.16279214788238,47.31241643726026,37.19973397478776,-115.85999345692771,-19.478772314696535,0
147.3333333333333,286.449799,200.130859,197.931763,43.193054,-56.510369,146.230403,47.351300704205144,51.16279214788238,47.31241643726026,37.19973397478776,-115.85999345692771,-19.478772314696535,0
150.66666666666663,286.449799,200.130859,197.931763,43.193054,-56.510369,146.230403,47.351300704205144,51.16279214788238,47.31241643726026,37.19973397478776,-115.85999345692771,-19.478772314696535,0
153.99999999999994,286.449799,200.130859,197.931763,43.193054,-56.510369,146.230403,47.351300704205144,51.16279214788238,47.31241643726026,37.19973397478776,-115.85999345692771,-19.478772314696535,0
157.33333333333326,286.449799,200.130859,197.931763,43.193054,-56.510369,146.230403,47.351300704205144,51.16279214788238,47.31241643726026,37.19973397478776,-115.85999345692771,-19.478772314696535,0
160.6666666666666,286.449799,200.130859,197.931763,43.193054,-56.510369,146.230403,47.351300704205144,51.16279214788238,47.31241643726026,37.19973397478776,-115.85999345692771,-19.478772314696535,0
163.99999999999994,286.449799,200.130859,197.931763,43.193054,-56.510369,146.230403,47.351300704205144,51.16279214788238,47.31241643726026,37.19973397478776,-115.85999345692771,-19.478772314696535,0
167.33333333333326,286.449799,200.130859,197.931763,43.193054,-56.510369,146.230403,47.351300704205144,51.16279214788238,47.31241643726026,37.19973397478776,-115.85999345692771,-19.478772314696535,0
170.66666666666657,286.449799,200.130859,197.931763,43.193054,-56.510369,146.230403,47.351300704205144,51.16279214788238,47.31241643726026,37.19973397478776,-115.85999345692771,-19.478772314696535,0
173.99999999999991,286.449799,200.130859,197.931763,43.193054,-56.510369,146.230403,47.351300704205144,51.16279214788238,47.31241643726026,37.19973397478776,-115.85999345692771,-19.478772314696535,0
177.33333333333326,286.449799,200.130859,197.931763,43.193054,-56.510369,146.230403,47.351300704205144,51.16279214788238,47.31241643726026,37.19973397478776,-115.85999345692771,-19.478772314696535,0
180.66666666666657,286.449799,200.130859,197.931763,43.193054,-56.510369,146.230403,47.351300704205144,51.16279214788238,47.31241643726026,37.19973397478776,-115.85999345692771,-19.478772314696535,0
183.9999999999999,286.449799,200.130859,197.931763,43.193054,-56.510369,146.230403,47.351300704205144,51.16279214788238,47.31241643726026,37.19973397478776,-115.85999345692771,-19.478772314696535,0
187.33333333333323,286.449799,200.130859,197.931763,43.193054,-56.510369,146.230403,47.351300704205144,51.16279214788238,47.31241643726026,37.19973397478776,-115.85999345692771,-19.478772314696535,0
190.66666666666657,286.449799,200.130859,197.931763,43.193054,-56.510369,146.230403,47.351300704205144,51.16279214788238,47.31241643726026,37.19973397478776,-115.85999345692771,-19.478772314696535,0
193.9999999999999,286.449799,200.130859,197.931763,43.193054,-56.510369,146.230403,47.351300704205144,51.16279214788238,47.31241643726026,37.19973397478776,-115.85999345692771,-19.478772314696535,0
197.3333333333332,286.449799,200.130859,197.931763,43.193054,-56.510369,146.230403,47.351300704205144,51.16279214788238,47.31241643726026,37.19973397478776,-115.85999345692771,-19.478772314696535,0
200.66666666666654,286.449799,200.130859,197.931763,43.193054,-56.510369,146.230403,47.351300704205144,51.16279214788238,47.31241643726026,37.19973397478776,-115.85999345692771,-19.478772314696535,0
203.9999999999999,286.449799,200.130859,197.931763,43.193054,-56.510369,146.230403,47.351300704205144,51.16279214788238,47.31241643726026,37.19973397478776,-115.85999345692771,-19.478772314696535,0
207.3333333333332,286.449799,200.130859,197.931763,43.193054,-56.510369,146.230403,47.351300704205144,51.16279214788238,47.31241643726026,37.19973397478776,-115.85999345692771,-19.478772314696535,0
210.66666666666652,286.449799,200.130859,197.931763,43.193054,-56.510369,146.230403,47.351300704205144,51.16279214788238,47.31241643726026,37.19973397478776,-115.85999345692771,-19.478772314696535,0
213.99999999999986,286.449799,200.130859,197.931763,43.193054,-56.510369,146.230403,47.351300704205144,51.16279214788238,47.31241643726026,37.19973397478776,-115.85999345692771,-19.478772314696535,0
217.3333333333332,286.449799,200.130859,197.931763,43.193054,-56.510369,146.230403,47.351300704205144,51.16279214788238,47.31241643726026,37.19973397478776,-115.85999345692771,-19.478772314696535,0
220.66666666666652,286.449799,200.130859,197.931763,43.193054,-56.510369,146.230403,47.351300704205144,51.16279214788238,47.31241643726026,37.19973397478776,-115.85999345692771,-19.478772314696535,0
223.99999999999983,286.449799,200.130859,197.931763,43.193054,-56.510369,146.230403,47.351300704205144,51.16279214788238,47.31241643726026,37.19973397478776,-115.85999345692771,-19.478772314696535,0
227.33333333333317,286.449799,200.130859,197.931763,43.193054,-56.510369,146.230403,47.351300704205144,51.16279214788238,47.31241643726026,37.19973397478776,-115.85999345692771,-19.478772314696535,0
230.66666666666652,286.449799,200.130859,197.931763,43.193054,-56.510369,146.230403,47.351300704205144,51.16279214788238,47.31241643726026,37.19973397478776,-115.85999345692771,-19.478772314696535,0
233.99999999999983,286.449799,200.130859,197.931763,43.193054,-56.510369,146.230403,47.351300704205144,51.16279214788238,47.31241643726026,37.19973397478776,-115.85999345692771,-19.478772314696535,0
237.33333333333314,286.449799,200.130859,197.931763,43.193054,-56.510369,146.230403,47.351300704205144,51.16279214788238,47.31241643726026,37.19973397478776,-115.85999345692771,-19.478772314696535,0
240.6666666666665,286.449799,200.130859,197.931763,43.193054,-56.510369,146.230403,47.351300704205144,51.16279214788238,47.31241643726026,37.19973397478776,-115.85999345692771,-19.478772314696535,0
243.99999999999983,286.449799,200.130859,197.931763,43.193054,-56.510369,146.230403,47.351300704205144,51.16279214788238,47.31241643726026,37.19973397478776,-115.85999345692771,-19.478772314696535,0
247.33333333333314,286.449799,200.130859,197.931763,43.193054,-56.510369,146.230403,47.351300704205144,51.16279214788238,47.31241643726026,37.19973397478776,-115.85999345692771,-19.478772314696535,0
250.66666666666646,286.449799,200.130859,197.931763,43.193054,-56.510369,146.230403,47.351300704205144,51.16279214788238,47.31241643726026,37.19973397478776,-115.85999345692771,-19.478772314696535,0
253.9999999999998,286.449799,200.130859,197.931763,43.193054,-56.510369,146.230403,47.351300704205144,51.16279214788238,47.31241643726026,37.19973397478776,-115.85999345692771,-19.478772314696535,0
257.33333333333314,286.449799,200.130859,197.931763,43.193054,-56.510369,146.230403,47.351300704205144,51.16279214788238,47.31241643726026,37.19973397478776,-115.85999345692771,-19.478772314696535,0
260.66666666666646,286.449799,200.130859,197.931763,43.193054,-56.510369,146.230403,47.351300704205144,51.16279214788238,47.31241643726026,37.19973397478776,-115.85999345692771,-19.478772314696535,0
263.9999999999998,286.449799,200.130859,197.931763,43.193054,-56.510369,146.230403,47.351300704205144,51.16279214788238,47.31241643726026,37.19973397478776,-115.85999345692771,-19.478772314696535,0
267.33333333333314,286.449799,200.130859,197.931763,43.193054,-56.510369,146.230403,47.351300704205144,51.16279214788238,47.31241643726026,37.19973397478776,-115.85999345692771,-19.478772314696535,0
270.66666666666646,286.449799,200.130859,197.931763,43.193054,-56.510369,146.230403,47.351300704205144,51.16279214788238,47.31241643726026,37.19973397478776,-115.85999345692771,-19.478772314696535,0
273.9999999999998,286.449799,200.130859,197.931763,43.193054,-56.510369,146.230403,47.351300704205144,51.16279214788238,47.31241643726026,37.19973397478776,-115.85999345692771,-19.478772314696535,0
277.3333333333331,286.449799,200.130859,197.931763,43.193054,-56.510369,146.230403,47.351300704205144,51.16279214788238,47.31241643726026,37.19973397478776,-115.85999345692771,-19.478772314696535,0
280.6666666666664,286.449799,200.130859,197.931763,43.193054,-56.510369,146.230403,47.351300704205144,51.16279214788238,47.31241643726026,37.19973397478776,-115.85999345692771,-19.478772314696535,0
283.9999999999998,286.449799,200.130859,197.931763,43.193054,-56.510369,146.230403,47.351300704205144,51.16279214788238,47.31241643726026,37.19973397478776,-115.85999345692771,-19.478772314696535,0
287.3333333333331,286.449799,200.130859,197.931763,43.193054,-56.510369,146.230403,47.351300704205144,51.16279214788238,47.31241643726026,37.19973397478776,-115.85999345692771,-19.478772314696535,0
290.6666666666664,286.449799,200.130859,197.931763,43.193054,-56.510369,146.230403,47.351300704205144,51.16279214788238,47.31241643726026,37.19973397478776,-115.85999345692771,-19.478772314696535,0
293.9999999999998,286.449799,200.130859,197.931763,43.193054,-56.510369,146.230403,47.351300704205144,51.16279214788238,47.31241643726026,37.19973397478776,-115.85999345692771,-19.478772314696535,0
297.3333333333331,286.449799,200.130859,197.931763,43.193054,-56.510369,146.230403,47.351300704205144,51.16279214788238,47.31241643726026,37.19973397478776,-115.85999345692771,-19.478772314696535,0
300.6666666666664,286.449799,200.130859,197.931763,43.193054,-56.510369,146.230403,47.351300704205144,51.16279214788238,47.31241643726026,37.19973397478776,-115.85999345692771,-19.478772314696535,0
303.9999999999997,286.449799,200.130859,197.931763,43.193054,-56.510369,146.230403,47.351300704205144,51.16279214788238,47.31241643726026,37.19973397478776,-115.85999345692771,-19.478772314696535,0
307.33333333333303,286.449799,200.130859,197.931763,43.193054,-56.510369,146.230403,47.351300704205144,51.16279214788238,47.31241643726026,37.19973397478776,-115.85999345692771,-19.478772314696535,0
310.6666666666664,286.449799,200.130859,197.931763,43.193054,-56.510369,146.230403,47.351300704205144,51.16279214788238,47.31241643726026,37.19973397478776,-115.85999345692771,-19.478772314696535,0
313.9999999999997,286.449799,200.130859,197.931763,43.193054,-56.510369,146.230403,47.351300704205144,51.16279214788238,47.31241643726026,37.19973397478776,-115.85999345692771,-19.478772314696535,0
317.33333333333303,286.449799,200.130859,197.931763,43.193054,-56.510369,146.230403,47.351300704205144,51.16279214788238,47.31241643726026,37.19973397478776,-115.85999345692771,-19.478772314696535,0
320.6666666666664,286.449799,200.130859,197.931763,43.193054,-56.510369,146.230403,47.351300704205144,51.16279214788238,47.31241643726026,37.19973397478776,-115.85999345692771,-19.478772314696535,0
323.9999999999997,286.449799,200.130859,197.931763,43.193054,-56.510369,146.230403,47.351300704205144,51.16279214788238,47.31241643726026,37.19973397478776,-115.85999345692771,-19.478772314696535,0
327.33333333333303,286.449799,200.130859,197.931763,43.193054,-56.510369,146.230403,47.351300704205144,51.16279214788238,47.31241643726026,37.19973397478776,-115.85999345692771,-19.478772314696535,0
330.66666666666634,286.449799,200.130859,197.931763,43.193054,-56.510369,146.230403,47.351300704205144,51.16279214788238,47.31241643726026,37.19973397478776,-115.85999345692771,-19.478772314696535,0
333.99999999999966,286.449799,200.130859,197.931763,43.193054,-56.510369,146.230403,47.351300704205144,51.16279214788238,47.31241643726026,37.19973397478776,-115.85999345692771,-19.478772314696535,0
337.33333333333303,286.449799,200.130859,197.931763,43.193054,-56.510369,146.230403,47.351300704205144,51.16279214788238,47.31241643726026,37.19973397478776,-115.85999345692771,-19.478772314696535,0
340.66666666666634,286.449799,200.130859,197.931763,43.193054,-56.510369,146.230403,47.351300704205144,51.16279214788238,47.31241643726026,37.19973397478776,-115.85999345692771,-19.478772314696535,0
343.99999999999966,286.449799,200.130859,197.931763,43.193054,-56.510369,146.230403,47.351300704205144,51.16279214788238,47.31241643726026,37.19973397478776,-115.85999345692771,-19.478772314696535,0
347.33333333333303,286.449799,200.130859,197.931763,43.193054,-56.510369,146.230403,47.351300704205144,51.16279214788238,47.31241643726026,37.19973397478776,-115.85999345692771,-19.478772314696535,0
350.66666666666634,286.449799,200.130859,197.931763,43.193054,-56.510369,146.230403,47.351300704205144,51.16279214788238,47.31241643726026,37.19973397478776,-115.85999345692771,-19.478772314696535,0
353.99999999999966,286.449799,200.130859,197.931763,43.193054,-56.510369,146.230403,47.351300704205144,51.16279214788238,47.31241643726026,37.19973397478776,-115.85999345692771,-19.478772314696535,0
357.333333333333,286.449799,200.130859,197.931763,43.193054,-56.510369,146.230403,47.351300704205144,51.16279214788238,47.31241643726026,37.19973397478776,-115.85999345692771,-19.478772314696535,0
360.6666666666663,286.449799,200.130859,197.931763,43.193054,-56.510369,146.230403,47.351300704205144,51.16279214788238,47.31241643726026,37.19973397478776,-115.85999345692771,-19.478772314696535,0
363.99999999999966,286.449799,200.130859,197.931763,43.193054,-56.510369,146.230403,47.351300704205144,51.16279214788238,47.31241643726026,37.19973397478776,-115.85999345692771,-19.478772314696535,0
367.333333333333,286.449799,200.130859,197.931763,43.193054,-56.510369,146.230403,47.351300704205144,51.16279214788238,47.31241643726026,37.19973397478776,-115.85999345692771,-19.478772314696535,0
370.6666666666663,286.449799,200.130859,197.931763,43.193054,-56.510369,146.230403,47.351300704205144,51.16279214788238,47.31241643726026,37.19973397478776,-115.85999345692771,-19.478772314696535,0
373.99999999999966,286.449799,200.130859,197.931763,43.193054,-56.510369,146.230403,47.351300704205144,51.16279214788238,47.31241643726026,37.19973397478776,-115.85999345692771,-19.478772314696535,0
377.333333333333,286.449799,200.130859,197.931763,43.193054,-56.510369,146.230403,47.351300704205144,51.16279214788238,47.31241643726026,37.19973397478776,-115.85999345692771,-19.478772314696535,0
380.6666666666663,286.449799,200.130859,197.931763,43.193054,-56.510369,146.230403,47.351300704205144,51.16279214788238,47.31241643726026,37.19973397478776,-115.85999345692771,-19.478772314696535,0
383.9999999999996,286.449799,200.130859,197.931763,43.193054,-56.510369,146.230403,47.351300704205144,51.16279214788238,47.31241643726026,37.19973397478776,-115.85999345692771,-19.478772314696535,0
387.3333333333329,286.449799,200.130859,197.931763,43.193054,-56.510369,146.230403,47.351300704205144,51.16279214788238,47.31241643726026,37.19973397478776,-115.85999345692771,-19.478772314696535,0
390.6666666666663,286.449799,200.130859,197.931763,43.193054,-56.510369,146.230403,47.351300704205144,51.16279214788238,47.31241643726026,37.19973397478776,-115.85999345692771,-19.478772314696535,0
393.9999999999996,286.449799,200.130859,197.931763,43.193054,-56.510369,146.230403,47.351300704205144,51.16279214788238,47.31241643726026,37.19973397478776,-115.85999345692771,-19.478772314696535,0
397.3333333333329,286.449799,200.130859,197.931763,43.193054,-56.510369,146.230403,47.351300704205144,51.16279214788238,47.31241643726026,37.19973397478776,-115.85999345692771,-19.478772314696535,0
400.6666666666663,286.449799,200.130859,197.931763,43.193054,-56.510369,146.230403,47.351300704205144,51.16279214788238,47.31241643726026,37.19973397478776,-115.85999345692771,-19.478772314696535,0
403.9999999999996,286.449799,200.130859,197.931763,43.193054,-56.510369,146.230403,47.351300704205144,51.16279214788238,47.31241643726026,37.19973397478776,-115.85999345692771,-19.478772314696535,0
407.3333333333329,286.449799,200.130859,197.931763,43.193054,-56.510369,146.230403,47.351300704205144,51.16279214788238,47.31241643726026,37.19973397478776,-115.85999345692771,-19.478772314696535,0
410.66666666666623,286.449799,200.130859,197.931763,43.193054,-56.510369,146.230403,47.351300704205144,51.16279214788238,47.31241643726026,37.19973397478776,-115.85999345692771,-19.478772314696535,0
413.99999999999955,286.449799,200.130859,197.931763,43.193054,-56.510369,146.230403,47.351300704205144,51.16279214788238,47.31241643726026,37.19973397478776,-115.85999345692771,-19.478772314696535,0
417.3333333333329,286.449799,200.130859,197.931763,43.193054,-56.510369,146.230403,47.351300704205144,51.16279214788238,47.31241643726026,37.19973397478776,-115.85999345692771,-19.478772314696535,0
420.66666666666623,286.449799,200.130859,197.931763,43.193054,-56.510369,146.230403,47.351300704205144,51.16279214788238,47.31241643726026,37.19973397478776,-115.85999345692771,-19.478772314696535,0
423.99999999999955,286.449799,200.130859,197.931763,43.193054,-56.510369,146.230403,47.351300704205144,51.16279214788238,47.31241643726026,37.19973397478776,-115.85999345692771,-19.478772314696535,0
427.3333333333329,286.449799,200.130859,197.931763,43.193054,-56.510369,146.230403,47.351300704205144,51.16279214788238,47.31241643726026,37.19973397478776,-115.85999345692771,-19.478772314696535,0
430.66666666666623,286.449799,200.130859,197.931763,43.193054,-56.510369,146.230403,47.351300704205144,51.16279214788238,47.31241643726026,37.19973397478776,-115.85999345692771,-19.478772314696535,0
433.99999999999955,286.449799,200.130859,197.931763,43.193054,-56.510369,146.230403,47.351300704205144,51.16279214788238,47.31241643726026,37.19973397478776,-115.85999345692771,-19.478772314696535,0
437.33333333333286,286.449799,200.130859,197.931763,43.193054,-56.510369,146.230403,47.351300704205144,51.16279214788238,47.31241643726026,37.19973397478776,-115.85999345692771,-19.478772314696535,0
440.6666666666662,286.449799,200.130859,197.931763,43.193054,-56.510369,146.230403,47.351300704205144,51.16279214788238,47.31241643726026,37.19973397478776,-115.85999345692771,-19.478772314696535,0
443.99999999999955,286.449799,200.130859,197.931763,43.193054,-56.510369,146.230403,47.351300704205144,51.16279214788238,47.31241643726026,37.19973397478776,-115.85999345692771,-19.478772314696535,0
447.33333333333286,286.449799,200.130859,197.931763,43.193054,-56.510369,146.230403,47.351300704205144,51.16279214788238,47.31241643726026,37.19973397478776,-115.85999345692771,-19.478772314696535,0
450.6666666666662,286.449799,200.130859,197.931763,43.193054,-56.510369,146.230403,47.351300704205144,51.16279214788238,47.31241643726026,37.19973397478776,-115.85999345692771,-19.478772314696535,0
453.99999999999955,286.449799,200.130859,197.931763,43.193054,-56.510369,146.230403,47.351300704205144,51.16279214788238,47.31241643726026,37.19973397478776,-115.85999345692771,-19.478772314696535,0
457.33333333333286,286.449799,200.130859,197.931763,43.193054,-56.510369,146.230403,47.351300704205144,51.16279214788238,47.31241643726026,37.19973397478776,-115.85999345692771,-19.478772314696535,0
460.6666666666662,286.449799,200.130859,197.931763,43.193054,-56.510369,146.230403,47.351300704205144,51.16279214788238,47.31241643726026,37.19973397478776,-115.85999345692771,-19.478772314696535,0
463.9999999999995,286.449799,200.130859,197.931763,43.193054,-56.510369,146.230403,47.351300704205144,51.16279214788238,47.31241643726026,37.19973397478776,-115.85999345692771,-19.478772314696535,0
467.3333333333328,286.449799,200.130859,197.931763,43.193054,-56.510369,146.230403,47.351300704205144,51.16279214788238,47.31241643726026,37.19973397478776,-115.85999345692771,-19.478772314696535,0
470.6666666666662,286.449799,200.130859,197.931763,43.193054,-56.510369,146.230403,47.351300704205144,51.16279214788238,47.31241643726026,37.19973397478776,-115.85999345692771,-19.478772314696535,0
473.9999999999995,286.449799,200.130859,197.931763,43.193054,-56.510369,146.230403,47.351300704205144,51.16279214788238,47.31241643726026,37.19973397478776,-115.85999345692771,-19.478772314696535,0
477.3333333333328,286.449799,200.130859,197.931763,43.193054,-56.510369,146.230403,47.351300704205144,51.16279214788238,47.31241643726026,37.19973397478776,-115.85999345692771,-19.478772314696535,0
480.6666666666662,286.449799,200.130859,197.931763,43.193054,-56.510369,146.230403,47.351300704205144,51.16279214788238,47.31241643726026,37.19973397478776,-115.85999345692771,-19.478772314696535,0
483.9999999999995,286.449799,200.130859,197.931763,43.193054,-56.510369,146.230403,47.351300704205144,51.16279214788238,47.31241643726026,37.19973397478776,-115.85999345692771,-19.478772314696535,0
487.3333333333328,286.449799,200.130859,197.931763,43.193054,-56.510369,146.230403,47.351300704205144,51.16279214788238,47.31241643726026,37.19973397478776,-115.85999345692771,-19.478772314696535,0
490.6666666666661,286.449799,200.130859,197.931763,43.193054,-56.510369,146.230403,47.351300704205144,51.16279214788238,47.31241643726026,37.19973397478776,-115.85999345692771,-19.478772314696535,0
493.99999999999943,286.449799,200.130859,197.931763,43.193054,-56.510369,146.230403,47.351300704205144,51.16279214788238,47.31241643726026,37.19973397478776,-115.85999345692771,-19.478772314696535,0
497.3333333333328,286.449799,200.130859,197.931763,43.193054,-56.510369,146.230403,47.351300704205144,51.16279214788238,47.31241643726026,37.19973397478776,-115.85999345692771,-19.478772314696535,0
500.6666666666661,286.449799,200.130859,197.931763,43.193054,-56.510369,146.230403,47.351300704205144,51.16279214788238,47.31241643726026,37.19973397478776,-115.85999345692771,-19.478772314696535,0
503.99999999999943,286.449799,200.130859,197.931763,43.193054,-56.510369,146.230403,47.351300704205144,51.16279214788238,47.31241643726026,37.19973397478776,-115.85999345692771,-19.478772314696535,0
507.3333333333328,286.449799,200.130859,197.931763,43.193054,-56.510369,146.230403,47.351300704205144,51.16279214788238,47.31241643726026,37.19973397478776,-115.85999345692771,-19.478772314696535,0
510.6666666666661,286.449799,200.130859,197.931763,43.193054,-56.510369,146.230403,47.351300704205144,51.16279214788238,47.31241643726026,37.19973397478776,-115.85999345692771,-19.478772314696535,0
513.9999999999994,286.449799,200.130859,197.931763,43.193054,-56.510369,146.230403,47.351300704205144,51.16279214788238,47.31241643726026,37.19973397478776,-115.85999345692771,-19.478772314696535,0
517.3333333333328,286.449799,200.130859,197.931763,43.193054,-56.510369,146.230403,47.351300704205144,51.16279214788238,47.31241643726026,37.19973397478776,-115.85999345692771,-19.478772314696535,0
520.6666666666661,286.449799,200.130859,197.931763,43.193054,-56.510369,146.230403,47.351300704205144,51.16279214788238,47.31241643726026,37.19973397478776,-115.85999345692771,-19.478772314696535,0
523.9999999999994,286.449799,200.130859,197.931763,43.193054,-56.510369,146.230403,47.351300704205144,51.16279214788238,47.31241643726026,37.19973397478776,-115.85999345692771,-19.478772314696535,0
527.3333333333328,286.449799,200.130859,197.931763,43.193054,-56.510369,146.230403,47.351300704205144,51.16279214788238,47.31241643726026,37.19973397478776,-115.85999345692771,-19.478772314696535,0
530.6666666666661,286.449799,200.130859,197.931763,43.193054,-56.510369,146.230403,47.351300704205144,51.16279214788238,47.31241643726026,37.19973397478776,-115.85999345692771,-19.478772314696535,0
533.9999999999994,286.449799,200.130859,197.931763,43.193054,-56.510369,146.230403,47.351300704205144,51.16279214788238,47.31241643726026,37.19973397478776,-115.85999345692771,-19.478772314696535,0
537.3333333333328,286.449799,200.130859,197.931763,43.193054,-56.510369,146.230403,47.351300704205144,51.16279214788238,47.31241643726026,37.19973397478776,-115.85999345692771,-19.478772314696535,0
540.6666666666661,286.449799,200.130859,197.931763,43.193054,-56.510369,146.230403,47.351300704205144,51.16279214788238,47.31241643726026,37.19973397478776,-115.85999345692771,-19.478772314696535,0
543.9999999999993,286.449799,200.130859,197.931763,43.193054,-56.510369,146.230403,47.351300704205144,51.16279214788238,47.31241643726026,37.19973397478776,-115.85999345692771,-19.478772314696535,0
547.3333333333327,286.449799,200.130859,197.931763,43.193054,-56.510369,146.230403,47.351300704205144,51.16279214788238,47.31241643726026,37.19973397478776,-115.85999345692771,-19.478772314696535,0
550.6666666666661,286.449799,200.130859,197.931763,43.193054,-56.510369,146.230403,47.351300704205144,51.16279214788238,47.31241643726026,37.19973397478776,-115.85999345692771,-19.478772314696535,0
553.9999999999993,286.449799,200.130859,197.931763,43.193054,-56.510369,146.230403,47.351300704205144,51.16279214788238,47.31241643726026,37.19973397478776,-115.85999345692771,-19.478772314696535,0
557.3333333333327,286.449799,200.130859,197.931763,43.193054,-56.510369,146.230403,47.351300704205144,51.16279214788238,47.31241643726026,37.19973397478776,-115.85999345692771,-19.478772314696535,0
560.6666666666661,286.449799,200.130859,197.931763,43.193054,-56.510369,146.230403,47.351300704205144,51.16279214788238,47.31241643726026,37.19973397478776,-115.85999345692771,-19.478772314696535,0
563.9999999999993,286.449799,200.130859,197.931763,43.193054,-56.510369,146.230403,47.351300704205144,51.16279214788238,47.31241643726026,37.19973397478776,-115.85999345692771,-19.478772314696535,0
567.3333333333327,286.449799,200.130859,197.931763,43.193054,-56.510369,146.230403,47.351300704205144,51.16279214788238,47.31241643726026,37.19973397478776,-115.85999345692771,-19.478772314696535,0
570.6666666666661,286.449799,200.130859,197.931763,43.193054,-56.510369,146.230403,47.351300704205144,51.16279214788238,47.31241643726026,37.19973397478776,-115.85999345692771,-19.478772314696535,0
573.9999999999993,286.449799,200.130859,197.931763,43.193054,-56.510369,146.230403,47.351300704205144,51.16279214788238,47.31241643726026,37.19973397478776,-115.85999345692771,-19.478772314696535,0
577.3333333333327,286.449799,200.130859,197.931763,43.193054,-56.510369,146.230403,47.351300704205144,51.16279214788238,47.31241643726026,37.19973397478776,-115.85999345692771,-19.478772314696535,0
580.6666666666661,286.449799,200.130859,197.931763,43.193054,-56.510369,146.230403,47.351300704205144,51.16279214788238,47.31241643726026,37.19973397478776,-115.85999345692771,-19.478772314696535,0
583.9999999999993,286.449799,200.130859,197.931763,43.193054,-56.510369,146.230403,47.351300704205144,51.16279214788238,47.31241643726026,37.19973397478776,-115.85999345692771,-19.478772314696535,0
587.3333333333327,286.449799,200.130859,197.931763,43.193054,-56.510369,146.230403,47.351300704205144,51.16279214788238,47.31241643726026,37.19973397478776,-115.85999345692771,-19.478772314696535,0
590.6666666666661,286.449799,200.130859,197.931763,43.193054,-56.510369,146.230403,47.351300704205144,51.16279214788238,47.31241643726026,37.19973397478776,-115.85999345692771,-19.478772314696535,0
593.9999999999993,286.449799,200.130859,197.931763,43.193054,-56.510369,146.230403,47.351300704205144,51.16279214788238,47.31241643726026,37.19973397478776,-115.85999345692771,-19.478772314696535,0
597.3333333333326,286.449799,200.130859,197.931763,43.193054,-56.510369,146.230403,47.351300704205144,51.16279214788238,47.31241643726026,37.19973397478776,-115.85999345692771,-19.478772314696535,0
600.666666666666,286.449799,200.130859,197.931763,43.193054,-56.510369,146.230403,47.351300704205144,51.16279214788238,47.31241643726026,37.19973397478776,-115.85999345692771,-19.478772314696535,0
603.9999999999993,286.449799,200.130859,197.931763,43.193054,-56.510369,146.230403,47.351300704205144,51.16279214788238,47.31241643726026,37.19973397478776,-115.85999345692771,-19.478772314696535,0
607.3333333333326,286.449799,200.130859,197.931763,43.193054,-56.510369,146.230403,47.351300704205144,51.16279214788238,47.31241643726026,37.19973397478776,-115.85999345692771,-19.478772314696535,0
610.666666666666,286.449799,200.130859,197.931763,43.193054,-56.510369,146.230403,47.351300704205144,51.16279214788238,47.31241643726026,37.19973397478776,-115.85999345692771,-19.478772314696535,0
613.9999999999993,286.449799,200.130859,197.931763,43.193054,-56.510369,146.230403,47.351300704205144,51.16279214788238,47.31241643726026,37.19973397478776,-115.85999345692771,-19.478772314696535,0
617.3333333333326,286.449799,200.130859,197.931763,43.193054,-56.510369,146.230403,47.351300704205144,51.16279214788238,47.31241643726026,37.19973397478776,-115.85999345692771,-19.478772314696535,0
620.666666666666,286.449799,200.130859,197.931763,43.193054,-56.510369,146.230403,47.351300704205144,51.16279214788238,47.31241643726026,37.19973397478776,-115.85999345692771,-19.478772314696535,0
623.9999999999993,286.449799,200.130859,197.931763,43.193054,-56.510369,146.230403,47.351300704205144,51.16279214788238,47.31241643726026,37.19973397478776,-115.85999345692771,-19.478772314696535,0
627.3333333333326,286.449799,200.130859,197.931763,43.193054,-56.510369,146.230403,47.351300704205144,51.16279214788238,47.31241643726026,37.19973397478776,-115.85999345692771,-19.478772314696535,0
630.666666666666,286.449799,200.130859,197.931763,43.193054,-56.510369,146.230403,47.351300704205144,51.16279214788238,47.31241643726026,37.19973397478776,-115.85999345692771,-19.478772314696535,0
633.9999999999993,286.449799,200.130859,197.931763,43.193054,-56.510369,146.230403,47.351300704205144,51.16279214788238,47.31241643726026,37.19973397478776,-115.85999345692771,-19.478772314696535,0
637.3333333333326,286.449799,200.130859,197.931763,43.193054,-56.510369,146.230403,47.351300704205144,51.16279214788238,47.31241643726026,37.19973397478776,-115.85999345692771,-19.478772314696535,0
640.666666666666,286.449799,200.130859,197.931763,43.193054,-56.510369,146.230403,47.351300704205144,51.16279214788238,47.31241643726026,37.19973397478776,-115.85999345692771,-19.478772314696535,0
643.9999999999992,286.449799,200.130859,197.931763,43.193054,-56.510369,146.230403,47.351300704205144,51.16279214788238,47.31241643726026,37.19973397478776,-115.85999345692771,-19.478772314696535,0
647.3333333333326,286.449799,200.130859,197.931763,43.193054,-56.510369,146.230403,47.351300704205144,51.16279214788238,47.31241643726026,37.19973397478776,-115.85999345692771,-19.478772314696535,0
650.666666666666,286.449799,200.130859,197.931763,43.193054,-56.510369,146.230403,47.351300704205144,51.16279214788238,47.31241643726026,37.19973397478776,-115.85999345692771,-19.478772314696535,0
653.9999999999992,286.449799,200.130859,197.931763,43.193054,-56.510369,146.230403,47.351300704205144,51.16279214788238,47.31241643726026,37.19973397478776,-115.85999345692771,-19.478772314696535,0
657.3333333333326,286.449799,200.130859,197.931763,43.193054,-56.510369,146.230403,47.351300704205144,51.16279214788238,47.31241643726026,37.19973397478776,-115.85999345692771,-19.478772314696535,0
660.6666666666658,286.449799,200.130859,197.931763,43.193054,-56.510369,146.230403,47.351300704205144,51.16279214788238,47.31241643726026,37.19973397478776,-115.85999345692771,-19.478772314696535,0
663.9999999999992,286.449799,200.130859,197.931763,43.193054,-56.510369,146.230403,47.351300704205144,51.16279214788238,47.31241643726026,37.19973397478776,-115.85999345692771,-19.478772314696535,0
667.3333333333326,286.449799,200.130859,197.931763,43.193054,-56.510369,146.230403,47.351300704205144,51.16279214788238,47.31241643726026,37.19973397478776,-115.85999345692771,-19.478772314696535,0
670.6666666666658,286.449799,200.130859,197.931763,43.193054,-56.510369,146.230403,47.351300704205144,51.16279214788238,47.31241643726026,37.19973397478776,-115.85999345692771,-19.478772314696535,0
673.9999999999992,286.449799,200.130859,197.931763,43.193054,-56.510369,146.230403,47.351300704205144,51.16279214788238,47.31241643726026,37.19973397478776,-115.85999345692771,-19.478772314696535,0
677.3333333333326,286.449799,200.130859,197.931763,43.193054,-56.510369,146.230403,47.351300704205144,51.16279214788238,47.31241643726026,37.19973397478776,-115.85999345692771,-19.478772314696535,0
680.6666666666658,286.449799,200.130859,197.931763,43.193054,-56.510369,146.230403,47.351300704205144,51.16279214788238,47.31241643726026,37.19973397478776,-115.85999345692771,-19.478772314696535,0
683.9999999999992,286.449799,200.130859,197.931763,43.193054,-56.510369,146.230403,47.351300704205144,51.16279214788238,47.31241643726026,37.19973397478776,-115.85999345692771,-19.478772314696535,0
687.3333333333326,286.449799,200.130859,197.931763,43.193054,-56.510369,146.230403,47.351300704205144,51.16279214788238,47.31241643726026,37.19973397478776,-115.85999345692771,-19.478772314696535,0
690.6666666666658,286.449799,200.130859,197.931763,43.193054,-56.510369,146.230403,47.351300704205144,51.16279214788238,47.31241643726026,37.19973397478776,-115.85999345692771,-19.478772314696535,0
693.9999999999992,286.449799,200.130859,197.931763,43.193054,-56.510369,146.230403,47.351300704205144,51.16279214788238,47.31241643726026,37.19973397478776,-115.85999345692771,-19.478772314696535,0
697.3333333333325,286.449799,200.130859,197.931763,43.193054,-56.510369,146.230403,47.351300704205144,51.16279214788238,47.31241643726026,37.19973397478776,-115.85999345692771,-19.478772314696535,0
700.6666666666658,286.449799,200.130859,197.931763,43.193054,-56.510369,146.230403,47.351300704205144,51.16279214788238,47.31241643726026,37.19973397478776,-115.85999345692771,-19.478772314696535,0
703.9999999999992,286.449799,200.130859,197.931763,43.193054,-56.510369,146.230403,47.351300704205144,51.16279214788238,47.31241643726026,37.19973397478776,-115.85999345692771,-19.478772314696535,0
707.3333333333325,286.449799,200.130859,197.931763,43.193054,-56.510369,146.230403,47.351300704205144,51.16279214788238,47.31241643726026,37.19973397478776,-115.85999345692771,-19.478772314696535,0
710.6666666666658,286.449799,200.130859,197.931763,43.193054,-56.510369,146.230403,47.351300704205144,51.16279214788238,47.31241643726026,37.19973397478776,-115.85999345692771,-19.478772314696535,0
713.9999999999991,286.449799,200.130859,197.931763,43.193054,-56.510369,146.230403,47.351300704205144,51.16279214788238,47.31241643726026,37.19973397478776,-115.85999345692771,-19.478772314696535,0
717.3333333333325,286.449799,200.130859,197.931763,43.193054,-56.510369,146.230403,47.351300704205144,51.16279214788238,47.31241643726026,37.19973397478776,-115.85999345692771,-19.478772314696535,0
720.6666666666658,286.449799,200.130859,197.931763,43.193054,-56.510369,146.230403,47.351300704205144,51.16279214788238,47.31241643726026,37.19973397478776,-115.85999345692771,-19.478772314696535,0
723.9999999999991,286.449799,200.130859,197.931763,43.193054,-56.510369,146.230403,47.351300704205144,51.16279214788238,47.31241643726026,37.19973397478776,-115.85999345692771,-19.478772314696535,0
727.3333333333325,286.449799,200.130859,197.931763,43.193054,-56.510369,146.230403,47.351300704205144,51.16279214788238,47.31241643726026,37.19973397478776,-115.85999345692771,-19.478772314696535,0
730.6666666666658,286.449799,200.130859,197.931763,43.193054,-56.510369,146.230403,47.351300704205144,51.16279214788238,47.31241643726026,37.19973397478776,-115.85999345692771,-19.478772314696535,0
733.9999999999991,286.449799,200.130859,197.931763,43.193054,-56.510369,146.230403,47.351300704205144,51.16279214788238,47.31241643726026,37.19973397478776,-115.85999345692771,-19.478772314696535,0
737.3333333333325,286.449799,200.130859,197.931763,43.193054,-56.510369,146.230403,47.351300704205144,51.16279214788238,47.31241643726026,37.19973397478776,-115.85999345692771,-19.478772314696535,0
740.6666666666658,286.449799,200.130859,197.931763,43.193054,-56.510369,146.230403,47.351300704205144,51.16279214788238,47.31241643726026,37.19973397478776,-115.85999345692771,-19.478772314696535,0
743.9999999999991,286.449799,200.130859,197.931763,43.193054,-56.510369,146.230403,47.351300704205144,51.16279214788238,47.31241643726026,37.19973397478776,-115.85999345692771,-19.478772314696535,0
747.3333333333325,286.449799,200.130859,197.931763,43.193054,-56.510369,146.230403,47.351300704205144,51.16279214788238,47.31241643726026,37.19973397478776,-115.85999345692771,-19.478772314696535,0
750.6666666666657,286.449799,200.130859,197.931763,43.193054,-56.510369,146.230403,47.351300704205144,51.16279214788238,47.31241643726026,37.19973397478776,-115.85999345692771,-19.478772314696535,0
753.9999999999991,286.449799,200.130859,197.931763,43.193054,-56.510369,146.230403,47.351300704205144,51.16279214788238,47.31241643726026,37.19973397478776,-115.85999345692771,-19.478772314696535,0
757.3333333333325,286.449799,200.130859,197.931763,43.193054,-56.510369,146.230403,47.351300704205144,51.16279214788238,47.31241643726026,37.19973397478776,-115.85999345692771,-19.478772314696535,0
760.6666666666657,286.449799,200.130859,197.931763,43.193054,-56.510369,146.230403,47.351300704205144,51.16279214788238,47.31241643726026,37.19973397478776,-115.85999345692771,-19.478772314696535,0
763.9999999999991,286.449799,200.130859,197.931763,43.193054,-56.510369,146.230403,47.351300704205144,51.16279214788238,47.31241643726026,37.19973397478776,-115.85999345692771,-19.478772314696535,0
767.3333333333323,286.449799,200.130859,197.931763,43.193054,-56.510369,146.230403,47.351300704205144,51.16279214788238,47.31241643726026,37.19973397478776,-115.85999345692771,-19.478772314696535,0
770.6666666666657,286.449799,200.130859,197.931763,43.193054,-56.510369,146.230403,47.351300704205144,51.16279214788238,47.31241643726026,37.19973397478776,-115.85999345692771,-19.478772314696535,0
773.9999999999991,286.449799,200.130859,197.931763,43.193054,-56.510369,146.230403,47.351300704205144,51.16279214788238,47.31241643726026,37.19973397478776,-115.85999345692771,-19.478772314696535,0
777.3333333333323,286.449799,200.130859,197.931763,43.193054,-56.510369,146.230403,47.351300704205144,51.16279214788238,47.31241643726026,37.19973397478776,-115.85999345692771,-19.478772314696535,0
780.6666666666657,286.449799,200.130859,197.931763,43.193054,-56.510369,146.230403,47.351300704205144,51.16279214788238,47.31241643726026,37.19973397478776,-115.85999345692771,-19.478772314696535,0
783.9999999999991,286.449799,200.130859,197.931763,43.193054,-56.510369,146.230403,47.351300704205144,51.16279214788238,47.31241643726026,37.19973397478776,-115.85999345692771,-19.478772314696535,0
787.3333333333323,286.449799,200.130859,197.931763,43.193054,-56.510369,146.230403,47.351300704205144,51.16279214788238,47.31241643726026,37.19973397478776,-115.85999345692771,-19.478772314696535,0
790.6666666666657,286.449799,200.130859,197.931763,43.193054,-56.510369,146.230403,47.351300704205144,51.16279214788238,47.31241643726026,37.19973397478776,-115.85999345692771,-19.478772314696535,0
793.9999999999991,286.449799,200.130859,197.931763,43.193054,-56.510369,146.230403,47.351300704205144,51.16279214788238,47.31241643726026,37.19973397478776,-115.85999345692771,-19.478772314696535,0
797.3333333333323,286.449799,200.130859,197.931763,43.193054,-56.510369,146.230403,47.351300704205144,51.16279214788238,47.31241643726026,37.19973397478776,-115.85999345692771,-19.478772314696535,0
800.6666666666657,286.449799,200.130859,197.931763,43.193054,-56.510369,146.230403,47.351300704205144,51.16279214788238,47.31241643726026,37.19973397478776,-115.85999345692771,-19.478772314696535,0
803.999999999999,286.449799,200.130859,197.931763,43.193054,-56.510369,146.230403,47.351300704205144,51.16279214788238,47.31241643726026,37.19973397478776,-115.85999345692771,-19.478772314696535,0
807.3333333333323,286.449799,200.130859,197.931763,43.193054,-56.510369,146.230403,47.351300704205144,51.16279214788238,47.31241643726026,37.19973397478776,-115.85999345692771,-19.478772314696535,0
810.6666666666657,286.449799,200.130859,197.931763,43.193054,-56.510369,146.230403,47.351300704205144,51.16279214788238,47.31241643726026,37.19973397478776,-115.85999345692771,-19.478772314696535,0
813.999999999999,286.449799,200.130859,197.931763,43.193054,-56.510369,146.230403,47.351300704205144,51.16279214788238,47.31241643726026,37.19973397478776,-115.85999345692771,-19.478772314696535,0
817.3333333333323,286.449799,200.130859,197.931763,43.193054,-56.510369,146.230403,47.351300704205144,51.16279214788238,47.31241643726026,37.19973397478776,-115.85999345692771,-19.478772314696535,0
820.6666666666656,286.449799,200.130859,197.931763,43.193054,-56.510369,146.230403,47.351300704205144,51.16279214788238,47.31241643726026,37.19973397478776,-115.85999345692771,-19.478772314696535,0
823.999999999999,286.449799,200.130859,197.931763,43.193054,-56.510369,146.230403,47.351300704205144,51.16279214788238,47.31241643726026,37.19973397478776,-115.85999345692771,-19.478772314696535,0
827.3333333333323,286.449799,200.130859,197.931763,43.193054,-56.510369,146.230403,47.351300704205144,51.16279214788238,47.31241643726026,37.19973397478776,-115.85999345692771,-19.478772314696535,0
830.6666666666656,286.449799,200.130859,197.931763,43.193054,-56.510369,146.230403,47.351300704205144,51.16279214788238,47.31241643726026,37.19973397478776,-115.85999345692771,-19.478772314696535,0
833.999999999999,286.449799,200.130859,197.931763,43.193054,-56.510369,146.230403,47.351300704205144,51.16279214788238,47.31241643726026,37.19973397478776,-115.85999345692771,-19.478772314696535,0
837.3333333333323,286.449799,200.130859,197.931763,43.193054,-56.510369,146.230403,47.351300704205144,51.16279214788238,47.31241643726026,37.19973397478776,-115.85999345692771,-19.478772314696535,0
840.6666666666656,286.449799,200.130859,197.931763,43.193054,-56.510369,146.230403,47.351300704205144,51.16279214788238,47.31241643726026,37.19973397478776,-115.85999345692771,-19.478772314696535,0
843.999999999999,286.449799,200.130859,197.931763,43.193054,-56.510369,146.230403,47.351300704205144,51.16279214788238,47.31241643726026,37.19973397478776,-115.85999345692771,-19.478772314696535,0
847.3333333333323,286.449799,200.130859,197.931763,43.193054,-56.510369,146.230403,47.351300704205144,51.16279214788238,47.31241643726026,37.19973397478776,-115.85999345692771,-19.478772314696535,0
850.6666666666656,286.449799,200.130859,197.931763,43.193054,-56.510369,146.230403,47.351300704205144,51.16279214788238,47.31241643726026,37.19973397478776,-115.85999345692771,-19.478772314696535,0
853.999999999999,286.449799,200.130859,197.931763,43.193054,-56.510369,146.230403,47.351300704205144,51.16279214788238,47.31241643726026,37.19973397478776,-115.85999345692771,-19.478772314696535,0
857.3333333333322,286.449799,200.130859,197.931763,43.193054,-56.510369,146.230403,47.351300704205144,51.16279214788238,47.31241643726026,37.19973397478776,-115.85999345692771,-19.478772314696535,0
860.6666666666656,286.449799,200.130859,197.931763,43.193054,-56.510369,146.230403,47.351300704205144,51.16279214788238,47.31241643726026,37.19973397478776,-115.85999345692771,-19.478772314696535,0
863.999999999999,286.449799,200.130859,197.931763,43.193054,-56.510369,146.230403,47.351300704205144,51.16279214788238,47.31241643726026,37.19973397478776,-115.85999345692771,-19.478772314696535,0
867.3333333333322,286.449799,200.130859,197.931763,43.193054,-56.510369,146.230403,47.351300704205144,51.16279214788238,47.31241643726026,37.19973397478776,-115.85999345692771,-19.478772314696535,0
870.6666666666656,286.449799,200.130859,197.931763,43.193054,-56.510369,146.230403,47.351300704205144,51.16279214788238,47.31241643726026,37.19973397478776,-115.85999345692771,-19.478772314696535,0
873.9999999999989,286.449799,200.130859,197.931763,43.193054,-56.510369,146.230403,47.351300704205144,51.16279214788238,47.31241643726026,37.19973397478776,-115.85999345692771,-19.478772314696535,0
877.3333333333322,286.449799,200.130859,197.931763,43.193054,-56.510369,146.230403,47.351300704205144,51.16279214788238,47.31241643726026,37.19973397478776,-115.85999345692771,-19.478772314696535,0
880.6666666666656,286.449799,200.130859,197.931763,43.193054,-56.510369,146.230403,47.351300704205144,51.16279214788238,47.31241643726026,37.19973397478776,-115.85999345692771,-19.478772314696535,0
883.9999999999989,286.449799,200.130859,197.931763,43.193054,-56.510369,146.230403,47.351300704205144,51.16279214788238,47.31241643726026,37.19973397478776,-115.85999345692771,-19.478772314696535,0
887.3333333333322,286.449799,200.130859,197.931763,43.193054,-56.510369,146.230403,47.351300704205144,51.16279214788238,47.31241643726026,37.19973397478776,-115.85999345692771,-19.478772314696535,0
890.6666666666656,286.449799,200.130859,197.931763,43.193054,-56.510369,146.230403,47.351300704205144,51.16279214788238,47.31241643726026,37.19973397478776,-115.85999345692771,-19.478772314696535,0
893.9999999999989,286.449799,200.130859,197.931763,43.193054,-56.510369,146.230403,47.351300704205144,51.16279214788238,47.31241643726026,37.19973397478776,-115.85999345692771,-19.478772314696535,0
897.3333333333322,286.449799,200.130859,197.931763,43.193054,-56.510369,146.230403,47.351300704205144,51.16279214788238,47.31241643726026,37.19973397478776,-115.85999345692771,-19.478772314696535,0
900.6666666666656,286.449799,200.130859,197.931763,43.193054,-56.510369,146.230403,47.351300704205144,51.16279214788238,47.31241643726026,37.19973397478776,-115.85999345692771,-19.478772314696535,0
903.9999999999989,286.449799,200.130859,197.931763,43.193054,-56.510369,146.230403,47.351300704205144,51.16279214788238,47.31241643726026,37.19973397478776,-115.85999345692771,-19.478772314696535,0
907.3333333333322,286.449799,200.130859,197.931763,43.193054,-56.510369,146.230403,47.351300704205144,51.16279214788238,47.31241643726026,37.19973397478776,-115.85999345692771,-19.478772314696535,0
910.6666666666655,286.449799,200.130859,197.931763,43.193054,-56.510369,146.230403,47.351300704205144,51.16279214788238,47.31241643726026,37.19973397478776,-115.85999345692771,-19.478772314696535,0
913.9999999999989,286.449799,200.130859,197.931763,43.193054,-56.510369,146.230403,47.351300704205144,51.16279214788238,47.31241643726026,37.19973397478776,-115.85999345692771,-19.478772314696535,0
917.3333333333322,286.449799,200.130859,197.931763,43.193054,-56.510369,146.230403,47.351300704205144,51.16279214788238,47.31241643726026,37.19973397478776,-115.85999345692771,-19.478772314696535,0
920.6666666666655,286.449799,200.130859,197.931763,43.193054,-56.510369,146.230403,47.351300704205144,51.16279214788238,47.31241643726026,37.19973397478776,-115.85999345692771,-19.478772314696535,0
923.9999999999989,286.449799,200.130859,197.931763,43.193054,-56.510369,146.230403,47.351300704205144,51.16279214788238,47.31241643726026,37.19973397478776,-115.85999345692771,-19.478772314696535,0
927.3333333333321,286.449799,200.130859,197.931763,43.193054,-56.510369,146.230403,47.351300704205144,51.16279214788238,47.31241643726026,37.19973397478776,-115.85999345692771,-19.478772314696535,0
930.6666666666655,286.449799,200.130859,197.931763,43.193054,-56.510369,146.230403,47.351300704205144,51.16279214788238,47.31241643726026,37.19973397478776,-115.85999345692771,-19.478772314696535,0
933.9999999999989,286.449799,200.130859,197.931763,43.193054,-56.510369,146.230403,47.351300704205144,51.16279214788238,47.31241643726026,37.19973397478776,-115.85999345692771,-19.478772314696535,0
937.3333333333321,286.449799,200.130859,197.931763,43.193054,-56.510369,146.230403,47.351300704205144,51.16279214788238,47.31241643726026,37.19973397478776,-115.85999345692771,-19.478772314696535,0
940.6666666666655,286.449799,200.130859,197.931763,43.193054,-56.510369,146.230403,47.351300704205144,51.16279214788238,47.31241643726026,37.19973397478776,-115.85999345692771,-19.478772314696535,0
943.9999999999989,286.449799,200.130859,197.931763,43.193054,-56.510369,146.230403,47.351300704205144,51.16279214788238,47.31241643726026,37.19973397478776,-115.85999345692771,-19.478772314696535,0
947.3333333333321,286.449799,200.130859,197.931763,43.193054,-56.510369,146.230403,47.351300704205144,51.16279214788238,47.31241643726026,37.19973397478776,-115.85999345692771,-19.478772314696535,0
950.6666666666655,286.449799,200.130859,197.931763,43.193054,-56.510369,146.230403,47.351300704205144,51.16279214788238,47.31241643726026,37.19973397478776,-115.85999345692771,-19.478772314696535,0
953.9999999999989,286.449799,200.130859,197.931763,43.193054,-56.510369,146.230403,47.351300704205144,51.16279214788238,47.31241643726026,37.19973397478776,-115.85999345692771,-19.478772314696535,0
957.3333333333321,286.449799,200.130859,197.931763,43.193054,-56.510369,146.230403,47.351300704205144,51.16279214788238,47.31241643726026,37.19973397478776,-115.85999345692771,-19.478772314696535,0
960.6666666666655,286.449799,200.130859,197.931763,43.193054,-56.510369,146.230403,47.351300704205144,51.16279214788238,47.31241643726026,37.19973397478776,-115.85999345692771,-19.478772314696535,0
963.9999999999987,286.449799,200.130859,197.931763,43.193054,-56.510369,146.230403,47.351300704205144,51.16279214788238,47.31241643726026,37.19973397478776,-115.85999345692771,-19.478772314696535,0
967.3333333333321,286.449799,200.130859,197.931763,43.193054,-56.510369,146.230403,47.351300704205144,51.16279214788238,47.31241643726026,37.19973397478776,-115.85999345692771,-19.478772314696535,0
970.6666666666655,286.449799,200.130859,197.931763,43.193054,-56.510369,146.230403,47.351300704205144,51.16279214788238,47.31241643726026,37.19973397478776,-115.85999345692771,-19.478772314696535,0
973.9999999999987,286.449799,200.130859,197.931763,43.193054,-56.510369,146.230403,47.351300704205144,51.16279214788238,47.31241643726026,37.19973397478776,-115.85999345692771,-19.478772314696535,0
977.3333333333321,286.449799,200.130859,197.931763,43.193054,-56.510369,146.230403,47.351300704205144,51.16279214788238,47.31241643726026,37.19973397478776,-115.85999345692771,-19.478772314696535,0
980.6666666666654,286.449799,200.130859,197.931763,43.193054,-56.510369,146.230403,47.351300704205144,51.16279214788238,47.31241643726026,37.19973397478776,-115.85999345692771,-19.478772314696535,0
983.9999999999987,286.449799,200.130859,197.931763,43.193054,-56.510369,146.230403,47.351300704205144,51.16279214788238,47.31241643726026,37.19973397478776,-115.85999345692771,-19.478772314696535,0
987.3333333333321,286.449799,200.130859,197.931763,43.193054,-56.510369,146.230403,47.351300704205144,51.16279214788238,47.31241643726026,37.19973397478776,-115.85999345692771,-19.478772314696535,0
990.6666666666654,286.449799,200.130859,197.931763,43.193054,-56.510369,146.230403,47.351300704205144,51.16279214788238,47.31241643726026,37.19973397478776,-115.85999345692771,-19.478772314696535,0
993.9999999999987,286.449799,200.130859,197.931763,43.193054,-56.510369,146.230403,47.351300704205144,51.16279214788238,47.31241643726026,37.19973397478776,-115.85999345692771,-19.478772314696535,0
997.3333333333321,286.449799,200.130859,197.931763,43.193054,-56.510369,146.230403,47.351300704205144,51.16279214788238,47.31241643726026,37.19973397478776,-115.85999345692771,-19.478772314696535,0
1000.6666666666654,286.449799,200.130859,197.931763,43.193054,-56.510369,146.230403,47.351300704205144,51.16279214788238,47.31241643726026,37.19973397478776,-115.85999345692771,-19.478772314696535,0
1003.9999999999987,286.449799,200.130859,197.931763,43.193054,-56.510369,146.230403,47.351300704205144,51.16279214788238,47.31241643726026,37.19973397478776,-115.85999345692771,-19.478772314696535,0
1007.3333333333321,286.449799,200.130859,197.931763,43.193054,-56.510369,146.230403,47.351300704205144,51.16279214788238,47.31241643726026,37.19973397478776,-115.85999345692771,-19.478772314696535,0
1010.6666666666654,286.449799,200.130859,197.931763,43.193054,-56.510369,146.230403,47.351300704205144,51.16279214788238,47.31241643726026,37.19973397478776,-115.85999345692771,-19.478772314696535,0
1013.9999999999987,286.449799,200.130859,197.931763,43.193054,-56.510369,146.230403,47.351300704205144,51.16279214788238,47.31241643726026,37.19973397478776,-115.85999345692771,-19.478772314696535,0
1017.333333333332,286.449799,200.130859,197.931763,43.193054,-56.510369,146.230403,47.351300704205144,51.16279214788238,47.31241643726026,37.19973397478776,-115.85999345692771,-19.478772314696535,0
1020.6666666666654,286.449799,200.130859,197.931763,43.193054,-56.510369,146.230403,47.351300704205144,51.16279214788238,47.31241643726026,37.19973397478776,-115.85999345692771,-19.478772314696535,0
1023.9999999999987,286.449799,200.130859,197.931763,43.193054,-56.510369,146.230403,47.351300704205144,51.16279214788238,47.31241643726026,37.19973397478776,-115.85999345692771,-19.478772314696535,0
1027.3333333333321,286.449799,200.130859,197.931763,43.193054,-56.510369,146.230403,47.351300704205144,51.16279214788238,47.31241643726026,37.19973397478776,-115.85999345692771,-19.478772314696535,0
1030.6666666666654,286.449799,200.130859,197.931763,43.193054,-56.510369,146.230403,47.351300704205144,51.16279214788238,47.31241643726026,37.19973397478776,-115.85999345692771,-19.478772314696535,0
1033.9999999999986,286.449799,200.130859,197.931763,43.193054,-56.510369,146.230403,47.351300704205144,51.16279214788238,47.31241643726026,37.19973397478776,-115.85999345692771,-19.478772314696535,0
1037.3333333333321,286.449799,200.130859,197.931763,43.193054,-56.510369,146.230403,47.351300704205144,51.16279214788238,47.31241643726026,37.19973397478776,-115.85999345692771,-19.478772314696535,0
1040.6666666666654,286.449799,200.130859,197.931763,43.193054,-56.510369,146.230403,47.351300704205144,51.16279214788238,47.31241643726026,37.19973397478776,-115.85999345692771,-19.478772314696535,0
1043.9999999999986,286.449799,200.130859,197.931763,43.193054,-56.510369,146.230403,47.351300704205144,51.16279214788238,47.31241643726026,37.19973397478776,-115.85999345692771,-19.478772314696535,0
1047.3333333333321,286.449799,200.130859,197.931763,43.193054,-56.510369,146.230403,47.351300704205144,51.16279214788238,47.31241643726026,37.19973397478776,-115.85999345692771,-19.478772314696535,0
1050.6666666666654,286.449799,200.130859,197.931763,43.193054,-56.510369,146.230403,47.351300704205144,51.16279214788238,47.31241643726026,37.19973397478776,-115.85999345692771,-19.478772314696535,0
1053.9999999999986,286.449799,200.130859,197.931763,43.193054,-56.510369,146.230403,47.351300704205144,51.16279214788238,47.31241643726026,37.19973397478776,-115.85999345692771,-19.478772314696535,0
1057.3333333333321,286.449799,200.130859,197.931763,43.193054,-56.510369,146.230403,47.351300704205144,51.16279214788238,47.31241643726026,37.19973397478776,-115.85999345692771,-19.478772314696535,0
1060.6666666666654,286.449799,200.130859,197.931763,43.193054,-56.510369,146.230403,47.351300704205144,51.16279214788238,47.31241643726026,37.19973397478776,-115.85999345692771,-19.478772314696535,0
1063.9999999999986,286.449799,200.130859,197.931763,43.193054,-56.510369,146.230403,47.351300704205144,51.16279214788238,47.31241643726026,37.19973397478776,-115.85999345692771,-19.478772314696535,0
1067.3333333333321,286.449799,200.130859,197.931763,43.193054,-56.510369,146.230403,47.351300704205144,51.16279214788238,47.31241643726026,37.19973397478776,-115.85999345692771,-19.478772314696535,0
1070.6666666666652,286.449799,200.130859,197.931763,43.193054,-56.510369,146.230403,47.351300704205144,51.16279214788238,47.31241643726026,37.19973397478776,-115.85999345692771,-19.478772314696535,0
1073.9999999999986,286.449799,200.130859,197.931763,43.193054,-56.510369,146.230403,47.351300704205144,51.16279214788238,47.31241643726026,37.19973397478776,-115.85999345692771,-19.478772314696535,0
1077.3333333333321,286.449799,200.130859,197.931763,43.193054,-56.510369,146.230403,47.351300704205144,51.16279214788238,47.31241643726026,37.19973397478776,-115.85999345692771,-19.478772314696535,0
1080.6666666666652,286.449799,200.130859,197.931763,43.193054,-56.510369,146.230403,47.351300704205144,51.16279214788238,47.31241643726026,37.19973397478776,-115.85999345692771,-19.478772314696535,0
1083.9999999999986,286.449799,200.130859,197.931763,43.193054,-56.510369,146.230403,47.351300704205144,51.16279214788238,47.31241643726026,37.19973397478776,-115.85999345692771,-19.478772314696535,0
1087.333333333332,286.449799,200.130859,197.931763,43.193054,-56.510369,146.230403,47.351300704205144,51.16279214788238,47.31241643726026,37.19973397478776,-115.85999345692771,-19.478772314696535,0
1090.6666666666652,286.449799,200.130859,197.931763,43.193054,-56.510369,146.230403,47.351300704205144,51.16279214788238,47.31241643726026,37.19973397478776,-115.85999345692771,-19.478772314696535,0
1093.9999999999986,286.449799,200.130859,197.931763,43.193054,-56.510369,146.230403,47.351300704205144,51.16279214788238,47.31241643726026,37.19973397478776,-115.85999345692771,-19.478772314696535,0
1097.333333333332,286.449799,200.130859,197.931763,43.193054,-56.510369,146.230403,47.351300704205144,51.16279214788238,47.31241643726026,37.19973397478776,-115.85999345692771,-19.478772314696535,0
1100.6666666666652,286.449799,200.130859,197.931763,43.193054,-56.510369,146.230403,47.351300704205144,51.16279214788238,47.31241643726026,37.19973397478776,-115.85999345692771,-19.478772314696535,0
1103.9999999999986,286.449799,200.130859,197.931763,43.193054,-56.510369,146.230403,47.351300704205144,51.16279214788238,47.31241643726026,37.19973397478776,-115.85999345692771,-19.478772314696535,0
1107.333333333332,286.449799,200.130859,197.931763,43.193054,-56.510369,146.230403,47.351300704205144,51.16279214788238,47.31241643726026,37.19973397478776,-115.85999345692771,-19.478772314696535,0
1110.6666666666652,286.449799,200.130859,197.931763,43.193054,-56.510369,146.230403,47.351300704205144,51.16279214788238,47.31241643726026,37.19973397478776,-115.85999345692771,-19.478772314696535,0
1113.9999999999986,286.449799,200.130859,197.931763,43.193054,-56.510369,146.230403,47.351300704205144,51.16279214788238,47.31241643726026,37.19973397478776,-115.85999345692771,-19.478772314696535,0
1117.333333333332,286.449799,200.130859,197.931763,43.193054,-56.510369,146.230403,47.351300704205144,51.16279214788238,47.31241643726026,37.19973397478776,-115.85999345692771,-19.478772314696535,0
1120.6666666666652,286.449799,200.130859,197.931763,43.193054,-56.510369,146.230403,47.351300704205144,51.16279214788238,47.31241643726026,37.19973397478776,-115.85999345692771,-19.478772314696535,0
1123.9999999999986,286.449799,200.130859,197.931763,43.193054,-56.510369,146.230403,47.351300704205144,51.16279214788238,47.31241643726026,37.19973397478776,-115.85999345692771,-19.478772314696535,0
1127.333333333332,286.449799,200.130859,197.931763,43.193054,-56.510369,146.230403,47.351300704205144,51.16279214788238,47.31241643726026,37.19973397478776,-115.85999345692771,-19.478772314696535,0
1130.6666666666652,286.449799,200.130859,197.931763,43.193054,-56.510369,146.230403,47.351300704205144,51.16279214788238,47.31241643726026,37.19973397478776,-115.85999345692771,-19.478772314696535,0
1133.9999999999986,286.449799,200.130859,197.931763,43.193054,-56.510369,146.230403,47.351300704205144,51.16279214788238,47.31241643726026,37.19973397478776,-115.85999345692771,-19.478772314696535,0
1137.333333333332,286.449799,200.130859,197.931763,43.193054,-56.510369,146.230403,47.351300704205144,51.16279214788238,47.31241643726026,37.19973397478776,-115.85999345692771,-19.478772314696535,0
1140.6666666666652,286.449799,200.130859,197.931763,43.193054,-56.510369,146.230403,47.351300704205144,51.16279214788238,47.31241643726026,37.19973397478776,-115.85999345692771,-19.478772314696535,0
1143.9999999999986,286.449799,200.130859,197.931763,43.193054,-56.510369,146.230403,47.351300704205144,51.16279214788238,47.31241643726026,37.19973397478776,-115.85999345692771,-19.478772314696535,0
1147.333333333332,286.449799,200.130859,197.931763,43.193054,-56.510369,146.230403,47.351300704205144,51.16279214788238,47.31241643726026,37.19973397478776,-115.85999345692771,-19.478772314696535,0
1150.6666666666652,286.449799,200.130859,197.931763,43.193054,-56.510369,146.230403,47.351300704205144,51.16279214788238,47.31241643726026,37.19973397478776,-115.85999345692771,-19.478772314696535,0
1153.9999999999986,286.449799,200.130859,197.931763,43.193054,-56.510369,146.230403,47.351300704205144,51.16279214788238,47.31241643726026,37.19973397478776,-115.85999345692771,-19.478772314696535,0
1157.333333333332,286.449799,200.130859,197.931763,43.193054,-56.510369,146.230403,47.351300704205144,51.16279214788238,47.31241643726026,37.19973397478776,-115.85999345692771,-19.478772314696535,0
1160.6666666666652,286.449799,200.130859,197.931763,43.193054,-56.510369,146.230403,47.351300704205144,51.16279214788238,47.31241643726026,37.19973397478776,-115.85999345692771,-19.478772314696535,0
1163.9999999999984,286.449799,200.130859,197.931763,43.193054,-56.510369,146.230403,47.351300704205144,51.16279214788238,47.31241643726026,37.19973397478776,-115.85999345692771,-19.478772314696535,0
1167.333333333332,286.449799,200.130859,197.931763,43.193054,-56.510369,146.230403,47.351300704205144,51.16279214788238,47.31241643726026,37.19973397478776,-115.85999345692771,-19.478772314696535,0
1170.6666666666652,286.449799,200.130859,197.931763,43.193054,-56.510369,146.230403,47.351300704205144,51.16279214788238,47.31241643726026,37.19973397478776,-115.85999345692771,-19.478772314696535,0
1173.9999999999984,286.449799,200.130859,197.931763,43.193054,-56.510369,146.230403,47.351300704205144,51.16279214788238,47.31241643726026,37.19973397478776,-115.85999345692771,-19.478772314696535,0
1177.333333333332,286.449799,200.130859,197.931763,43.193054,-56.510369,146.230403,47.351300704205144,51.16279214788238,47.31241643726026,37.19973397478776,-115.85999345692771,-19.478772314696535,0
1180.6666666666652,286.449799,200.130859,197.931763,43.193054,-56.510369,146.230403,47.351300704205144,51.16279214788238,47.31241643726026,37.19973397478776,-115.85999345692771,-19.478772314696535,0
1183.9999999999984,286.449799,200.130859,197.931763,43.193054,-56.510369,146.230403,47.351300704205144,51.16279214788238,47.31241643726026,37.19973397478776,-115.85999345692771,-19.478772314696535,0
1187.333333333332,286.449799,200.130859,197.931763,43.193054,-56.510369,146.230403,47.351300704205144,51.16279214788238,47.31241643726026,37.19973397478776,-115.85999345692771,-19.478772314696535,0
1190.6666666666652,286.449799,200.130859,197.931763,43.193054,-56.510369,146.230403,47.351300704205144,51.16279214788238,47.31241643726026,37.19973397478776,-115.85999345692771,-19.478772314696535,0
1193.9999999999984,286.449799,200.130859,197.931763,43.193054,-56.510369,146.230403,47.351300704205144,51.16279214788238,47.31241643726026,37.19973397478776,-115.85999345692771,-19.478772314696535,0
1197.333333333332,286.449799,200.130859,197.931763,43.193054,-56.510369,146.230403,47.351300704205144,51.16279214788238,47.31241643726026,37.19973397478776,-115.85999345692771,-19.478772314696535,0
1200.6666666666652,286.449799,200.130859,197.931763,43.193054,-56.510369,146.230403,47.351300704205144,51.16279214788238,47.31241643726026,37.19973397478776,-115.85999345692771,-19.478772314696535,0
1203.9999999999984,286.449799,200.130859,197.931763,43.193054,-56.510369,146.230403,47.351300704205144,51.16279214788238,47.31241643726026,37.19973397478776,-115.85999345692771,-19.478772314696535,0
1207.3333333333317,286.449799,200.130859,197.931763,43.193054,-56.510369,146.230403,47.351300704205144,51.16279214788238,47.31241643726026,37.19973397478776,-115.85999345692771,-19.478772314696535,0
1210.6666666666652,286.449799,200.130859,197.931763,43.193054,-56.510369,146.230403,47.351300704205144,51.16279214788238,47.31241643726026,37.19973397478776,-115.85999345692771,-19.478772314696535,0
1213.9999999999984,286.449799,200.130859,197.931763,43.193054,-56.510369,146.230403,47.351300704205144,51.16279214788238,47.31241643726026,37.19973397478776,-115.85999345692771,-19.478772314696535,0
1217.3333333333317,286.449799,200.130859,197.931763,43.193054,-56.510369,146.230403,47.351300704205144,51.16279214788238,47.31241643726026,37.19973397478776,-115.85999345692771,-19.478772314696535,0
1220.6666666666652,286.449799,200.130859,197.931763,43.193054,-56.510369,146.230403,47.351300704205144,51.16279214788238,47.31241643726026,37.19973397478776,-115.85999345692771,-19.478772314696535,0
1223.9999999999984,286.450497,200.12778824999998,197.93197275,43.193003874999995,-56.510268749999994,146.229078,47.351300704205144,51.16279214788238,47.31241643726026,37.20110342771635,-115.85999345692771,-19.478772314696535,0
1227.3333333333317,286.45166033333334,200.12267033333333,197.93232233333333,43.19292033333333,-56.510101666666664,146.22686966666666,47.351300704205144,51.162785317693206,47.31240960707109,37.2033915410883,-115.85999345692771,-19.47877402224383,0
1230.6666666666652,286.45282366666663,200.11755241666665,197.93267191666666,43.192836791666664,-56.50993458333333,146.22466133333333,47.351297289110555,51.162781902598624,47.31240619197651,37.20566599408192,-115.85999345692771,-19.47877402224383,0
1233.9999999999984,286.453987,200.1124345,197.9330215,43.19275325,-56.509767499999995,146.222453,47.351297289110555,51.162785317693206,47.31240619197651,37.20795410745387,-115.85997979654937,-19.47877402224383,0
1237.3333333333317,286.45515033333334,200.10731658333333,197.93337108333333,43.192669708333334,-56.509600416666665,146.22024466666667,47.351297289110555,51.162781902598624,47.31240277688192,37.21024563592041,-115.85997979654937,-19.47877402224383,0
1240.6666666666652,286.455383,200.106293,197.933441,43.192653,-56.509567,146.219803,47.35129387401597,51.16277848750404,47.312399361787335,37.21068618312188,-115.85997979654937,-19.478777437338415,0
1243.9999999999984,286.455383,200.106293,197.933441,43.192653,-56.509567,146.219803,47.35129387401597,51.16277848750404,47.312399361787335,37.21068618312188,-115.85997979654937,-19.478777437338415,0
1247.3333333333317,286.455383,200.106293,197.933441,43.192653,-56.509567,146.219803,47.35129387401597,51.16277848750404,47.312399361787335,37.21068618312188,-115.85997979654937,-19.478777437338415,0
1250.6666666666652,286.455383,200.106293,197.933441,43.192653,-56.509567,146.219803,47.35129387401597,51.16277848750404,47.312399361787335,37.21068618312188,-115.85997979654937,-19.478777437338415,0
1253.9999999999984,286.455383,200.106293,197.933441,43.192653,-56.509567,146.219803,47.35129387401597,51.16277848750404,47.312399361787335,37.21068618312188,-115.85997979654937,-19.478777437338415,0
1257.3333333333317,286.455383,200.106293,197.933441,43.192653,-56.509567,146.219803,47.35129387401597,51.16277848750404,47.312399361787335,37.21068618312188,-115.85997979654937,-19.478777437338415,0
1260.6666666666652,286.455383,200.106293,197.933441,43.192653,-56.509567,146.219803,47.35129387401597,51.16277848750404,47.312399361787335,37.21068618312188,-115.85997979654937,-19.478777437338415,0
1263.9999999999984,286.455383,200.106293,197.933441,43.192653,-56.509567,146.219803,47.35129387401597,51.16277848750404,47.312399361787335,37.21068618312188,-115.85997979654937,-19.478777437338415,0
1267.3333333333317,286.455383,200.106293,197.933441,43.192653,-56.509567,146.219803,47.35129387401597,51.16277848750404,47.312399361787335,37.21068618312188,-115.85997979654937,-19.478777437338415,0
1270.666666666665,286.455383,200.106293,197.933441,43.192653,-56.509567,146.219803,47.35129387401597,51.16277848750404,47.312399361787335,37.21068618312188,-115.85997979654937,-19.478777437338415,0
1273.9999999999984,286.455383,200.106293,197.933441,43.192653,-56.509567,146.219803,47.35129387401597,51.16277848750404,47.312399361787335,37.21068618312188,-115.85997979654937,-19.478777437338415,0
1277.3333333333317,286.455383,200.106293,197.933441,43.192653,-56.509567,146.219803,47.35129387401597,51.16277848750404,47.312399361787335,37.21068618312188,-115.85997979654937,-19.478777437338415,0
1280.666666666665,286.455383,200.106293,197.933441,43.192653,-56.509567,146.219803,47.35129387401597,51.16277848750404,47.312399361787335,37.21068618312188,-115.85997979654937,-19.478777437338415,0
1283.9999999999984,286.455383,200.106293,197.933441,43.192653,-56.509567,146.219803,47.35129387401597,51.16277848750404,47.312399361787335,37.21068618312188,-115.85997979654937,-19.478777437338415,0
1287.3333333333317,286.455383,200.106293,197.933441,43.192653,-56.509567,146.219803,47.35129387401597,51.16277848750404,47.312399361787335,37.21068618312188,-115.85997979654937,-19.478777437338415,0
1290.666666666665,286.455383,200.106293,197.933441,43.192653,-56.509567,146.219803,47.35129387401597,51.16277848750404,47.312399361787335,37.21068618312188,-115.85997979654937,-19.478777437338415,0
1293.9999999999984,286.455383,200.106293,197.933441,43.192653,-56.509567,146.219803,47.35129387401597,51.16277848750404,47.312399361787335,37.21068618312188,-115.85997979654937,-19.478777437338415,0
1297.3333333333317,286.455383,200.106293,197.933441,43.192653,-56.509567,146.219803,47.35129387401597,51.16277848750404,47.312399361787335,37.21068618312188,-115.85997979654937,-19.478777437338415,0
1300.666666666665,286.455383,200.106293,197.933441,43.192653,-56.509567,146.219803,47.35129387401597,51.16277848750404,47.312399361787335,37.21068618312188,-115.85997979654937,-19.478777437338415,0
1303.9999999999984,286.455383,200.106293,197.933441,43.192653,-56.509567,146.219803,47.35129387401597,51.16277848750404,47.312399361787335,37.21068618312188,-115.85997979654937,-19.478777437338415,0
1307.3333333333317,286.455383,200.106293,197.933441,43.192653,-56.509567,146.219803,47.35129387401597,51.16277848750404,47.312399361787335,37.21068618312188,-115.85997979654937,-19.478777437338415,0
1310.666666666665,286.455383,200.106293,197.933441,43.192653,-56.509567,146.219803,47.35129387401597,51.16277848750404,47.312399361787335,37.21068618312188,-115.85997979654937,-19.478777437338415,0
1313.9999999999982,286.455383,200.106293,197.933441,43.192653,-56.509567,146.219803,47.35129387401597,51.16277848750404,47.312399361787335,37.21068618312188,-115.85997979654937,-19.478777437338415,0
1317.3333333333317,286.455383,200.106293,197.933441,43.192653,-56.509567,146.219803,47.35129387401597,51.16277848750404,47.312399361787335,37.21068618312188,-115.85997979654937,-19.478777437338415,0
1320.666666666665,286.455383,200.106293,197.933441,43.192653,-56.509567,146.219803,47.35129387401597,51.16277848750404,47.312399361787335,37.21068618312188,-115.85997979654937,-19.478777437338415,0
1323.9999999999982,286.455383,200.106293,197.933441,43.192653,-56.509567,146.219803,47.35129387401597,51.16277848750404,47.312399361787335,37.21068618312188,-115.85997979654937,-19.478777437338415,0
1327.3333333333317,286.455383,200.106293,197.933441,43.192653,-56.509567,146.219803,47.35129387401597,51.16277848750404,47.312399361787335,37.21068618312188,-115.85997979654937,-19.478777437338415,0
1330.666666666665,286.455383,200.106293,197.933441,43.192653,-56.509567,146.219803,47.35129387401597,51.16277848750404,47.312399361787335,37.21068618312188,-115.85997979654937,-19.478777437338415,0
1333.9999999999982,286.455383,200.106293,197.933441,43.192653,-56.509567,146.219803,47.35129387401597,51.16277848750404,47.312399361787335,37.21068618312188,-115.85997979654937,-19.478777437338415,0
1337.3333333333317,286.455383,200.106293,197.933441,43.192653,-56.509567,146.219803,47.35129387401597,51.16277848750404,47.312399361787335,37.21068618312188,-115.85997979654937,-19.478777437338415,0
1340.666666666665,286.455383,200.106293,197.933441,43.192653,-56.509567,146.219803,47.35129387401597,51.16277848750404,47.312399361787335,37.21068618312188,-115.85997979654937,-19.478777437338415,0
1343.9999999999982,286.455383,200.106293,197.933441,43.192653,-56.509567,146.219803,47.35129387401597,51.16277848750404,47.312399361787335,37.21068618312188,-115.85997979654937,-19.478777437338415,0
1347.3333333333317,286.455383,200.106293,197.933441,43.192653,-56.509567,146.219803,47.35129387401597,51.16277848750404,47.312399361787335,37.21068618312188,-115.85997979654937,-19.478777437338415,0
1350.666666666665,286.455383,200.106293,197.933441,43.192653,-56.509567,146.219803,47.35129387401597,51.16277848750404,47.312399361787335,37.21068618312188,-115.85997979654937,-19.478777437338415,0
1353.9999999999982,286.455383,200.106293,197.933441,43.192653,-56.509567,146.219803,47.35129387401597,51.16277848750404,47.312399361787335,37.21068618312188,-115.85997979654937,-19.478777437338415,0
1357.3333333333317,286.455383,200.106293,197.933441,43.192653,-56.509567,146.219803,47.35129387401597,51.16277848750404,47.312399361787335,37.21068618312188,-115.85997979654937,-19.478777437338415,0
1360.666666666665,286.455383,200.106293,197.933441,43.192653,-56.509567,146.219803,47.35129387401597,51.16277848750404,47.312399361787335,37.21068618312188,-115.85997979654937,-19.478777437338415,0
1363.9999999999982,286.455383,200.106293,197.933441,43.192653,-56.509567,146.219803,47.35129387401597,51.16277848750404,47.312399361787335,37.21068618312188,-115.85997979654937,-19.478777437338415,0
1367.3333333333317,286.455383,200.106293,197.933441,43.192653,-56.509567,146.219803,47.35129387401597,51.16277848750404,47.312399361787335,37.21068618312188,-115.85997979654937,-19.478777437338415,0
1370.666666666665,286.455383,200.106293,197.933441,43.192653,-56.509567,146.219803,47.35129387401597,51.16277848750404,47.312399361787335,37.21068618312188,-115.85997979654937,-19.478777437338415,0
1373.9999999999982,286.455383,200.106293,197.933441,43.192653,-56.509567,146.219803,47.35129387401597,51.16277848750404,47.312399361787335,37.21068618312188,-115.85997979654937,-19.478777437338415,0
1377.3333333333314,286.455383,200.106293,197.933441,43.192653,-56.509567,146.219803,47.35129387401597,51.16277848750404,47.312399361787335,37.21068618312188,-115.85997979654937,-19.478777437338415,0
1380.666666666665,286.455383,200.106293,197.933441,43.192653,-56.509567,146.219803,47.35129387401597,51.16277848750404,47.312399361787335,37.21068618312188,-115.85997979654937,-19.478777437338415,0
1383.9999999999982,286.455383,200.106293,197.933441,43.192653,-56.509567,146.219803,47.35129387401597,51.16277848750404,47.312399361787335,37.21068618312188,-115.85997979654937,-19.478777437338415,0
1387.3333333333314,286.455383,200.106293,197.933441,43.192653,-56.509567,146.219803,47.35129387401597,51.16277848750404,47.312399361787335,37.21068618312188,-115.85997979654937,-19.478777437338415,0
1390.666666666665,286.455383,200.106293,197.933441,43.192653,-56.509567,146.219803,47.35129387401597,51.16277848750404,47.312399361787335,37.21068618312188,-115.85997979654937,-19.478777437338415,0
1393.9999999999982,286.455383,200.106293,197.933441,43.192653,-56.509567,146.219803,47.35129387401597,51.16277848750404,47.312399361787335,37.21068618312188,-115.85997979654937,-19.478777437338415,0
1397.3333333333314,286.455383,200.106293,197.933441,43.192653,-56.509567,146.219803,47.35129387401597,51.16277848750404,47.312399361787335,37.21068618312188,-115.85997979654937,-19.478777437338415,0
1400.666666666665,286.455383,200.106293,197.933441,43.192653,-56.509567,146.219803,47.35129387401597,51.16277848750404,47.312399361787335,37.21068618312188,-115.85997979654937,-19.478777437338415,0
1403.9999999999982,286.455383,200.106293,197.933441,43.192653,-56.509567,146.219803,47.35129387401597,51.16277848750404,47.312399361787335,37.21068618312188,-115.85997979654937,-19.478777437338415,0
1407.3333333333314,286.455383,200.106293,197.933441,43.192653,-56.509567,146.219803,47.35129387401597,51.16277848750404,47.312399361787335,37.21068618312188,-115.85997979654937,-19.478777437338415,0
1410.666666666665,286.455383,200.106293,197.933441,43.192653,-56.509567,146.219803,47.35129387401597,51.16277848750404,47.312399361787335,37.21068618312188,-115.85997979654937,-19.478777437338415,0
1413.9999999999982,286.455383,200.106293,197.933441,43.192653,-56.509567,146.219803,47.35129387401597,51.16277848750404,47.312399361787335,37.21068618312188,-115.85997979654937,-19.478777437338415,0
1417.3333333333314,286.455383,200.106293,197.933441,43.192653,-56.509567,146.219803,47.35129387401597,51.16277848750404,47.312399361787335,37.21068618312188,-115.85997979654937,-19.478777437338415,0
1420.6666666666647,286.455383,200.106293,197.933441,43.192653,-56.509567,146.219803,47.35129387401597,51.16277848750404,47.312399361787335,37.21068618312188,-115.85997979654937,-19.478777437338415,0
1423.9999999999982,286.455383,200.106293,197.933441,43.192653,-56.509567,146.219803,47.35129387401597,51.16277848750404,47.312399361787335,37.21068618312188,-115.85997979654937,-19.478777437338415,0
1427.3333333333314,286.455383,200.106293,197.933441,43.192653,-56.509567,146.219803,47.35129387401597,51.16277848750404,47.312399361787335,37.21068618312188,-115.85997979654937,-19.478777437338415,0
1430.6666666666647,286.455383,200.106293,197.933441,43.192653,-56.509567,146.219803,47.35129387401597,51.16277848750404,47.312399361787335,37.21068618312188,-115.85997979654937,-19.478777437338415,0
1433.9999999999982,286.455383,200.106293,197.933441,43.192653,-56.509567,146.219803,47.35129387401597,51.16277848750404,47.312399361787335,37.21068618312188,-115.85997979654937,-19.478777437338415,0
1437.3333333333314,286.455383,200.106293,197.933441,43.192653,-56.509567,146.219803,47.35129387401597,51.16277848750404,47.312399361787335,37.21068618312188,-115.85997979654937,-19.478777437338415,0
1440.6666666666647,286.455383,200.106293,197.933441,43.192653,-56.509567,146.219803,47.35129387401597,51.16277848750404,47.312399361787335,37.21068618312188,-115.85997979654937,-19.478777437338415,0
1443.9999999999982,286.455383,200.106293,197.933441,43.192653,-56.509567,146.219803,47.35129387401597,51.16277848750404,47.312399361787335,37.21068618312188,-115.85997979654937,-19.478777437338415,0
1447.3333333333314,286.455383,200.106293,197.933441,43.192653,-56.509567,146.219803,47.35129387401597,51.16277848750404,47.312399361787335,37.21068618312188,-115.85997979654937,-19.478777437338415,0
1450.6666666666647,286.455383,200.106293,197.933441,43.192653,-56.509567,146.219803,47.35129387401597,51.16277848750404,47.312399361787335,37.21068618312188,-115.85997979654937,-19.478777437338415,0
1453.9999999999982,286.455383,200.106293,197.933441,43.192653,-56.509567,146.219803,47.35129387401597,51.16277848750404,47.312399361787335,37.21068618312188,-115.85997979654937,-19.478777437338415,0
1457.3333333333314,286.455383,200.106293,197.933441,43.192653,-56.509567,146.219803,47.35129387401597,51.16277848750404,47.312399361787335,37.21068618312188,-115.85997979654937,-19.478777437338415,0
1460.6666666666647,286.455383,200.106293,197.933441,43.192653,-56.509567,146.219803,47.35129387401597,51.16277848750404,47.312399361787335,37.21068618312188,-115.85997979654937,-19.478777437338415,0
1463.9999999999982,286.455383,200.106293,197.933441,43.192653,-56.509567,146.219803,47.35129387401597,51.16277848750404,47.312399361787335,37.21068618312188,-115.85997979654937,-19.478777437338415,0
1467.3333333333314,286.455383,200.106293,197.933441,43.192653,-56.509567,146.219803,47.35129387401597,51.16277848750404,47.312399361787335,37.21068618312188,-115.85997979654937,-19.478777437338415,0
1470.6666666666647,286.455383,200.106293,197.933441,43.192653,-56.509567,146.219803,47.35129387401597,51.16277848750404,47.312399361787335,37.21068618312188,-115.85997979654937,-19.478777437338415,0
1473.9999999999982,286.455383,200.106293,197.933441,43.192653,-56.509567,146.219803,47.35129387401597,51.16277848750404,47.312399361787335,37.21068618312188,-115.85997979654937,-19.478777437338415,0
1477.3333333333314,286.455383,200.106293,197.933441,43.192653,-56.509567,146.219803,47.35129387401597,51.16277848750404,47.312399361787335,37.21068618312188,-115.85997979654937,-19.478777437338415,0
1480.6666666666647,286.455383,200.106293,197.933441,43.192653,-56.509567,146.219803,47.35129387401597,51.16277848750404,47.312399361787335,37.21068618312188,-115.85997979654937,-19.478777437338415,0
1483.999999999998,286.455383,200.106293,197.933441,43.192653,-56.509567,146.219803,47.35129387401597,51.16277848750404,47.312399361787335,37.21068618312188,-115.85997979654937,-19.478777437338415,0
1487.3333333333314,286.455383,200.106293,197.933441,43.192653,-56.509567,146.219803,47.35129387401597,51.16277848750404,47.312399361787335,37.21068618312188,-115.85997979654937,-19.478777437338415,0
1490.6666666666647,286.455383,200.106293,197.933441,43.192653,-56.509567,146.219803,47.35129387401597,51.16277848750404,47.312399361787335,37.21068618312188,-115.85997979654937,-19.478777437338415,0
1493.999999999998,286.455383,200.106293,197.933441,43.192653,-56.509567,146.219803,47.35129387401597,51.16277848750404,47.312399361787335,37.21068618312188,-115.85997979654937,-19.478777437338415,0
1497.3333333333314,286.455383,200.106293,197.933441,43.192653,-56.509567,146.219803,47.35129387401597,51.16277848750404,47.312399361787335,37.21068618312188,-115.85997979654937,-19.478777437338415,0
1500.6666666666647,286.455383,200.106293,197.933441,43.192653,-56.509567,146.219803,47.35129387401597,51.16277848750404,47.312399361787335,37.21068618312188,-115.85997979654937,-19.478777437338415,0
1503.999999999998,286.455383,200.106293,197.933441,43.192653,-56.509567,146.219803,47.35129387401597,51.16277848750404,47.312399361787335,37.21068618312188,-115.85997979654937,-19.478777437338415,0
1507.3333333333314,286.455383,200.106293,197.933441,43.192653,-56.509567,146.219803,47.35129387401597,51.16277848750404,47.312399361787335,37.21068618312188,-115.85997979654937,-19.478777437338415,0
1510.6666666666647,286.455383,200.106293,197.933441,43.192653,-56.509567,146.219803,47.35129387401597,51.16277848750404,47.312399361787335,37.21068618312188,-115.85997979654937,-19.478777437338415,0
1513.999999999998,286.455383,200.106293,197.933441,43.192653,-56.509567,146.219803,47.35129387401597,51.16277848750404,47.312399361787335,37.21068618312188,-115.85997979654937,-19.478777437338415,0
1517.3333333333314,286.455383,200.106293,197.933441,43.192653,-56.509567,146.219803,47.35129387401597,51.16277848750404,47.312399361787335,37.21068618312188,-115.85997979654937,-19.478777437338415,0
1520.6666666666647,286.455383,200.106293,197.933441,43.192653,-56.509567,146.219803,47.35129387401597,51.16277848750404,47.312399361787335,37.21068618312188,-115.85997979654937,-19.478777437338415,0
1523.999999999998,286.455383,200.106293,197.933441,43.192653,-56.509567,146.219803,47.35129387401597,51.16277848750404,47.312399361787335,37.21068618312188,-115.85997979654937,-19.478777437338415,0
1527.3333333333312,286.455383,200.106293,197.933441,43.192653,-56.509567,146.219803,47.35129387401597,51.16277848750404,47.312399361787335,37.21068618312188,-115.85997979654937,-19.478777437338415,0
1530.6666666666647,286.455383,200.106293,197.933441,43.192653,-56.509567,146.219803,47.35129387401597,51.16277848750404,47.312399361787335,37.21068618312188,-115.85997979654937,-19.478777437338415,0
1533.999999999998,286.455383,200.106293,197.933441,43.192653,-56.509567,146.219803,47.35129387401597,51.16277848750404,47.312399361787335,37.21068618312188,-115.85997979654937,-19.478777437338415,0
1537.3333333333312,286.455383,200.106293,197.933441,43.192653,-56.509567,146.219803,47.35129387401597,51.16277848750404,47.312399361787335,37.21068618312188,-115.85997979654937,-19.478777437338415,0
1540.6666666666647,286.455383,200.106293,197.933441,43.192653,-56.509567,146.219803,47.35129387401597,51.16277848750404,47.312399361787335,37.21068618312188,-115.85997979654937,-19.478777437338415,0
1543.999999999998,286.455383,200.106293,197.933441,43.192653,-56.509567,146.219803,47.35129387401597,51.16277848750404,47.312399361787335,37.21068618312188,-115.85997979654937,-19.478777437338415,0
1547.3333333333312,286.455383,200.106293,197.933441,43.192653,-56.509567,146.219803,47.35129387401597,51.16277848750404,47.312399361787335,37.21068618312188,-115.85997979654937,-19.478777437338415,0
1550.6666666666647,286.455383,200.106293,197.933441,43.192653,-56.509567,146.219803,47.35129387401597,51.16277848750404,47.312399361787335,37.21068618312188,-115.85997979654937,-19.478777437338415,0
1553.999999999998,286.455383,200.106293,197.933441,43.192653,-56.509567,146.219803,47.35129387401597,51.16277848750404,47.312399361787335,37.21068618312188,-115.85997979654937,-19.478777437338415,0
1557.3333333333312,286.455383,200.106293,197.933441,43.192653,-56.509567,146.219803,47.35129387401597,51.16277848750404,47.312399361787335,37.21068618312188,-115.85997979654937,-19.478777437338415,0
1560.6666666666647,286.455383,200.106293,197.933441,43.192653,-56.509567,146.219803,47.35129387401597,51.16277848750404,47.312399361787335,37.21068618312188,-115.85997979654937,-19.478777437338415,0
1563.999999999998,286.455383,200.106293,197.933441,43.192653,-56.509567,146.219803,47.35129387401597,51.16277848750404,47.312399361787335,37.21068618312188,-115.85997979654937,-19.478777437338415,0
1567.3333333333312,286.455383,200.106293,197.933441,43.192653,-56.509567,146.219803,47.35129387401597,51.16277848750404,47.312399361787335,37.21068618312188,-115.85997979654937,-19.478777437338415,0
1570.6666666666647,286.455383,200.106293,197.933441,43.192653,-56.509567,146.219803,47.35129387401597,51.16277848750404,47.312399361787335,37.21068618312188,-115.85997979654937,-19.478777437338415,0
1573.999999999998,286.455383,200.106293,197.933441,43.192653,-56.509567,146.219803,47.35129387401597,51.16277848750404,47.312399361787335,37.21068618312188,-115.85997979654937,-19.478777437338415,0
1577.3333333333312,286.455383,200.106293,197.933441,43.192653,-56.509567,146.219803,47.35129387401597,51.16277848750404,47.312399361787335,37.21068618312188,-115.85997979654937,-19.478777437338415,0
1580.6666666666647,286.455383,200.106293,197.933441,43.192653,-56.509567,146.219803,47.35129387401597,51.16277848750404,47.312399361787335,37.21068618312188,-115.85997979654937,-19.478777437338415,0
1583.999999999998,286.455383,200.106293,197.933441,43.192653,-56.509567,146.219803,47.35129387401597,51.16277848750404,47.312399361787335,37.21068618312188,-115.85997979654937,-19.478777437338415,0
1587.3333333333312,286.455383,200.106293,197.933441,43.192653,-56.509567,146.219803,47.35129387401597,51.16277848750404,47.312399361787335,37.21068618312188,-115.85997979654937,-19.478777437338415,0
1590.6666666666645,286.455383,200.106293,197.933441,43.192653,-56.509567,146.219803,47.35129387401597,51.16277848750404,47.312399361787335,37.21068618312188,-115.85997979654937,-19.478777437338415,0
1593.999999999998,286.455383,200.106293,197.933441,43.192653,-56.509567,146.219803,47.35129387401597,51.16277848750404,47.312399361787335,37.21068618312188,-115.85997979654937,-19.478777437338415,0
1597.3333333333312,286.455383,200.106293,197.933441,43.192653,-56.509567,146.219803,47.35129387401597,51.16277848750404,47.312399361787335,37.21068618312188,-115.85997979654937,-19.478777437338415,0
1600.6666666666645,286.455383,200.106293,197.933441,43.192653,-56.509567,146.219803,47.35129387401597,51.16277848750404,47.312399361787335,37.21068618312188,-115.85997979654937,-19.478777437338415,0
1603.999999999998,286.455383,200.106293,197.933441,43.192653,-56.509567,146.219803,47.35129387401597,51.16277848750404,47.312399361787335,37.21068618312188,-115.85997979654937,-19.478777437338415,0
1607.3333333333312,286.455383,200.106293,197.933441,43.192653,-56.509567,146.219803,47.35129387401597,51.16277848750404,47.312399361787335,37.21068618312188,-115.85997979654937,-19.478777437338415,0
1610.6666666666645,286.455383,200.106293,197.933441,43.192653,-56.509567,146.219803,47.35129387401597,51.16277848750404,47.312399361787335,37.21068618312188,-115.85997979654937,-19.478777437338415,0
1613.999999999998,286.455383,200.106293,197.933441,43.192653,-56.509567,146.219803,47.35129387401597,51.16277848750404,47.312399361787335,37.21068618312188,-115.85997979654937,-19.478777437338415,0
1617.3333333333312,286.455383,200.106293,197.933441,43.192653,-56.509567,146.219803,47.35129387401597,51.16277848750404,47.312399361787335,37.21068618312188,-115.85997979654937,-19.478777437338415,0
1620.6666666666645,286.455383,200.106293,197.933441,43.192653,-56.509567,146.219803,47.35129387401597,51.16277848750404,47.312399361787335,37.21068618312188,-115.85997979654937,-19.478777437338415,0
1623.999999999998,286.455383,200.106293,197.933441,43.192653,-56.509567,146.219803,47.35129387401597,51.16277848750404,47.312399361787335,37.21068618312188,-115.85997979654937,-19.478777437338415,0
1627.3333333333312,286.455383,200.106293,197.933441,43.192653,-56.509567,146.219803,47.35129387401597,51.16277848750404,47.312399361787335,37.21068618312188,-115.85997979654937,-19.478777437338415,0
1630.6666666666645,286.455383,200.106293,197.933441,43.192653,-56.509567,146.219803,47.35129387401597,51.16277848750404,47.312399361787335,37.21068618312188,-115.85997979654937,-19.478777437338415,0
1633.9999999999977,286.455383,200.106293,197.933441,43.192653,-56.509567,146.219803,47.35129387401597,51.16277848750404,47.312399361787335,37.21068618312188,-115.85997979654937,-19.478777437338415,0
1637.3333333333312,286.455383,200.106293,197.933441,43.192653,-56.509567,146.219803,47.35129387401597,51.16277848750404,47.312399361787335,37.21068618312188,-115.85997979654937,-19.478777437338415,0
1640.6666666666645,286.455383,200.106293,197.933441,43.192653,-56.509567,146.219803,47.35129387401597,51.16277848750404,47.312399361787335,37.21068618312188,-115.85997979654937,-19.478777437338415,0
1643.9999999999977,286.455383,200.106293,197.933441,43.192653,-56.509567,146.219803,47.35129387401597,51.16277848750404,47.312399361787335,37.21068618312188,-115.85997979654937,-19.478777437338415,0
1647.3333333333312,286.455383,200.106293,197.933441,43.192653,-56.509567,146.219803,47.35129387401597,51.16277848750404,47.312399361787335,37.21068618312188,-115.85997979654937,-19.478777437338415,0
1650.6666666666645,286.455383,200.106293,197.933441,43.192653,-56.509567,146.219803,47.35129387401597,51.16277848750404,47.312399361787335,37.21068618312188,-115.85997979654937,-19.478777437338415,0
1653.9999999999977,286.455383,200.106293,197.933441,43.192653,-56.509567,146.219803,47.35129387401597,51.16277848750404,47.312399361787335,37.21068618312188,-115.85997979654937,-19.478777437338415,0
1657.3333333333312,286.455383,200.106293,197.933441,43.192653,-56.509567,146.219803,47.35129387401597,51.16277848750404,47.312399361787335,37.21068618312188,-115.85997979654937,-19.478777437338415,0
1660.6666666666645,286.455383,200.106293,197.933441,43.192653,-56.509567,146.219803,47.35129387401597,51.16277848750404,47.312399361787335,37.21068618312188,-115.85997979654937,-19.478777437338415,0
1663.9999999999977,286.455383,200.106293,197.933441,43.192653,-56.509567,146.219803,47.35129387401597,51.16277848750404,47.312399361787335,37.21068618312188,-115.85997979654937,-19.478777437338415,0
1667.3333333333312,286.455383,200.106293,197.933441,43.192653,-56.509567,146.219803,47.35129387401597,51.16277848750404,47.312399361787335,37.21068618312188,-115.85997979654937,-19.478777437338415,0
1670.6666666666645,286.455383,200.106293,197.933441,43.192653,-56.509567,146.219803,47.35129387401597,51.16277848750404,47.312399361787335,37.21068618312188,-115.85997979654937,-19.478777437338415,0
1673.9999999999977,286.455383,200.106293,197.933441,43.192653,-56.509567,146.219803,47.35129387401597,51.16277848750404,47.312399361787335,37.21068618312188,-115.85997979654937,-19.478777437338415,0
1677.3333333333312,286.455383,200.106293,197.933441,43.192653,-56.509567,146.219803,47.35129387401597,51.16277848750404,47.312399361787335,37.21068618312188,-115.85997979654937,-19.478777437338415,0
1680.6666666666645,286.455383,200.106293,197.933441,43.192653,-56.509567,146.219803,47.35129387401597,51.16277848750404,47.312399361787335,37.21068618312188,-115.85997979654937,-19.478777437338415,0
1683.9999999999977,286.455383,200.106293,197.933441,43.192653,-56.509567,146.219803,47.35129387401597,51.16277848750404,47.312399361787335,37.21068618312188,-115.85997979654937,-19.478777437338415,0
1687.3333333333312,286.455383,200.106293,197.933441,43.192653,-56.509567,146.219803,47.35129387401597,51.16277848750404,47.312399361787335,37.21068618312188,-115.85997979654937,-19.478777437338415,0
1690.6666666666645,286.455383,200.106293,197.933441,43.192653,-56.509567,146.219803,47.35129387401597,51.16277848750404,47.312399361787335,37.21068618312188,-115.85997979654937,-19.478777437338415,0
1693.9999999999977,286.455383,200.106293,197.933441,43.192653,-56.509567,146.219803,47.35129387401597,51.16277848750404,47.312399361787335,37.21068618312188,-115.85997979654937,-19.478777437338415,0
1697.333333333331,286.455383,200.106293,197.933441,43.192653,-56.509567,146.219803,47.35129387401597,51.16277848750404,47.312399361787335,37.21068618312188,-115.85997979654937,-19.478777437338415,0
1700.6666666666645,286.455383,200.106293,197.933441,43.192653,-56.509567,146.219803,47.35129387401597,51.16277848750404,47.312399361787335,37.21068618312188,-115.85997979654937,-19.478777437338415,0
1703.9999999999977,286.455383,200.106293,197.933441,43.192653,-56.509567,146.219803,47.35129387401597,51.16277848750404,47.312399361787335,37.21068618312188,-115.85997979654937,-19.478777437338415,0
1707.333333333331,286.455383,200.106293,197.933441,43.192653,-56.509567,146.219803,47.35129387401597,51.16277848750404,47.312399361787335,37.21068618312188,-115.85997979654937,-19.478777437338415,0
1710.6666666666645,286.455383,200.106293,197.933441,43.192653,-56.509567,146.219803,47.35129387401597,51.16277848750404,47.312399361787335,37.21068618312188,-115.85997979654937,-19.478777437338415,0
1713.9999999999977,286.455383,200.106293,197.933441,43.192653,-56.509567,146.219803,47.35129387401597,51.16277848750404,47.312399361787335,37.21068618312188,-115.85997979654937,-19.478777437338415,0
1717.333333333331,286.455383,200.106293,197.933441,43.192653,-56.509567,146.219803,47.35129387401597,51.16277848750404,47.312399361787335,37.21068618312188,-115.85997979654937,-19.478777437338415,0
1720.6666666666645,286.455383,200.106293,197.933441,43.192653,-56.509567,146.219803,47.35129387401597,51.16277848750404,47.312399361787335,37.21068618312188,-115.85997979654937,-19.478777437338415,0
1723.9999999999977,286.455383,200.106293,197.933441,43.192653,-56.509567,146.219803,47.35129387401597,51.16277848750404,47.312399361787335,37.21068618312188,-115.85997979654937,-19.478777437338415,0
1727.333333333331,286.455383,200.106293,197.933441,43.192653,-56.509567,146.219803,47.35129387401597,51.16277848750404,47.312399361787335,37.21068618312188,-115.85997979654937,-19.478777437338415,0
1730.6666666666645,286.455383,200.106293,197.933441,43.192653,-56.509567,146.219803,47.35129387401597,51.16277848750404,47.312399361787335,37.21068618312188,-115.85997979654937,-19.478777437338415,0
1733.9999999999977,286.455383,200.106293,197.933441,43.192653,-56.509567,146.219803,47.35129387401597,51.16277848750404,47.312399361787335,37.21068618312188,-115.85997979654937,-19.478777437338415,0
1737.333333333331,286.455383,200.106293,197.933441,43.192653,-56.509567,146.219803,47.35129387401597,51.16277848750404,47.312399361787335,37.21068618312188,-115.85997979654937,-19.478777437338415,0
1740.6666666666642,286.455383,200.106293,197.933441,43.192653,-56.509567,146.219803,47.35129387401597,51.16277848750404,47.312399361787335,37.21068618312188,-115.85997979654937,-19.478777437338415,0
1743.9999999999977,286.455383,200.106293,197.933441,43.192653,-56.509567,146.219803,47.35129387401597,51.16277848750404,47.312399361787335,37.21068618312188,-115.85997979654937,-19.478777437338415,0
1747.333333333331,286.455383,200.106293,197.933441,43.192653,-56.509567,146.219803,47.35129387401597,51.16277848750404,47.312399361787335,37.21068618312188,-115.85997979654937,-19.478777437338415,0
1750.6666666666642,286.455383,200.106293,197.933441,43.192653,-56.509567,146.219803,47.35129387401597,51.16277848750404,47.312399361787335,37.21068618312188,-115.85997979654937,-19.478777437338415,0
1753.9999999999977,286.455383,200.106293,197.933441,43.192653,-56.509567,146.219803,47.35129387401597,51.16277848750404,47.312399361787335,37.21068618312188,-115.85997979654937,-19.478777437338415,0
1757.333333333331,286.455383,200.106293,197.933441,43.192653,-56.509567,146.219803,47.35129387401597,51.16277848750404,47.312399361787335,37.21068618312188,-115.85997979654937,-19.478777437338415,0
1760.6666666666642,286.455383,200.106293,197.933441,43.192653,-56.509567,146.219803,47.35129387401597,51.16277848750404,47.312399361787335,37.21068618312188,-115.85997979654937,-19.478777437338415,0
1763.9999999999977,286.455383,200.106293,197.933441,43.192653,-56.509567,146.219803,47.35129387401597,51.16277848750404,47.312399361787335,37.21068618312188,-115.85997979654937,-19.478777437338415,0
1767.333333333331,286.455383,200.106293,197.933441,43.192653,-56.509567,146.219803,47.35129387401597,51.16277848750404,47.312399361787335,37.21068618312188,-115.85997979654937,-19.478777437338415,0
1770.6666666666642,286.455383,200.106293,197.933441,43.192653,-56.509567,146.219803,47.35129387401597,51.16277848750404,47.312399361787335,37.21068618312188,-115.85997979654937,-19.478777437338415,0
1773.9999999999977,286.455383,200.106293,197.933441,43.192653,-56.509567,146.219803,47.35129387401597,51.16277848750404,47.312399361787335,37.21068618312188,-115.85997979654937,-19.478777437338415,0
1777.333333333331,286.455383,200.106293,197.933441,43.192653,-56.509567,146.219803,47.35129387401597,51.16277848750404,47.312399361787335,37.21068618312188,-115.85997979654937,-19.478777437338415,0
