BaekYang/LfD_Ufactory_obs_kin/RhinoTransfer/test1212.csv
timestamp,x,y,z,roll,pitch,yaw,joint1,joint2,joint3,joint4,joint5,joint6
0,6.337983,10.886084,6.724567,-0.93685305,-12.584324,23.781496,23.55098,-10.648992,8.913922,8.903485,-1.6957058,-13.252111
1,10.430189,5.513509,14.9515915,-2.401548,-15.461635,35.882996,20.32265,-4.7428412,-8.80628,13.688068,4.551232,-14.186845
2,12.798033,7.135669,10.4821005,-4.3779154,-19.976372,37.040203,19.855322,-0.24089722,-10.28565,1.1954755,4.171676,-10.839296
3,12.798033,7.135669,10.4821005,-4.3779154,-19.976372,37.040203,19.855322,-0.24089722,-10.28565,1.1954755,4.171676,-10.839296
4,12.798033,7.135669,10.4821005,-4.3779154,-19.976372,37.040203,19.855322,-0.24089722,-10.28565,1.1954755,4.171676,-10.839296
5,12.798033,7.135669,10.4821005,-4.3779154,-19.976372,37.040203,19.855322,-0.24089722,-10.28565,1.1954755,4.171676,-10.839296
6,12.798033,7.135669,10.4821005,-4.3779154,-19.976372,37.040203,19.855322,-0.24089722,-10.28565,1.1954755,4.171676,-10.839296
7,12.798033,7.135669,10.4821005,-4.3779154,-19.976372,37.040203,19.855322,-0.24089722,-10.28565,1.1954755,4.171676,-10.839296
8,12.798033,7.135669,10.4821005,-4.3779154,-19.976372,37.040203,19.855322,-0.24089722,-10.28565,1.1954755,4.171676,-10.839296
9,12.798033,7.135669,10.4821005,-4.3779154,-19.976372,37.040203,19.855322,-0.24089722,-10.28565,1.1954755,4.171676,-10.839296
10,12.798033,7.135669,10.4821005,-4.3779154,-19.976372,37.040203,19.855322,-0.24089722,-10.28565,1.1954755,4.171676,-10.839296
11,12.798033,7.135669,10.4821005,-4.3779154,-19.976372,37.040203,19.855322,-0.24089722,-10.28565,1.1954755,4.171676,-10.839296
12,12.798033,7.135669,10.4821005,-4.3779154,-19.976372,37.040203,19.855322,-0.24089722,-10.28565,1.1954755,4.171676,-10.839296
13,12.798033,7.135669,10.4821005,-4.3779154,-19.976372,37.040203,19.855322,-0.24089722,-10.28565,1.1954755,4.171676,-10.839296
14,12.798033,7.135669,10.4821005,-4.3779154,-19.976372,37.040203,19.855322,-0.24089722,-10.28565,1.1954755,4.171676,-10.839296
15,12.798033,7.135669,10.4821005,-4.3779154,-19.976372,37.040203,19.855322,-0.24089722,-10.28565,1.1954755,4.171676,-10.839296
16,12.798033,7.135669,10.4821005,-4.3779154,-19.976372,37.040203,19.855322,-0.24089722,-10.28565,1.1954755,4.171676,-10.839296
17,12.798033,7.135669,10.4821005,-4.3779154,-19.976372,37.040203,19.855322,-0.24089722,-10.28565,1.1954755,4.171676,-10.839296
18,12.798033,7.135669,10.4821005,-4.3779154,-19.976372,37.040203,19.855322,-0.24089722,-10.28565,1.1954755,4.171676,-10.839296
19,12.798033,7.135669,10.4821005,-4.3779154,-19.976372,37.040203,19.855322,-0.24089722,-10.28565,1.1954755,4.171676,-10.839296
20,12.798033,7.135669,10.4821005,-4.3779154,-19.976372,37.040203,19.855322,-0.24089722,-10.28565,1.1954755,4.171676,-10.839296
21,12.798033,7.135669,10.4821005,-4.3779154,-19.976372,37.040203,19.855322,-0.24089722,-10.28565,1.1954755,4.171676,-10.839296
22,12.798033,7.135669,10.4821005,-4.3779154,-19.976372,37.040203,19.855322,-0.24089722,-10.28565,1.1954755,4.171676,-10.839296
23,12.798033,7.135669,10.4821005,-4.3779154,-19.976372,37.040203,19.855322,-0.24089722,-10.28565,1.1954755,4.171676,-10.839296
24,12.798033,7.135669,10.4821005,-4.3779154,-19.976372,37.040203,19.855322,-0.24089722,-10.28565,1.1954755,4.171676,-10.839296
25,12.798033,7.135669,10.4821005,-4.3779154,-19.976372,37.040203,19.855322,-0.24089722,-10.28565,1.1954755,4.171676,-10.839296
26,12.798033,7.135669,10.4821005,-4.3779154,-19.976372,37.040203,19.855322,-0.24089722,-10.28565,1.1954755,4.171676,-10.839296
27,12.798033,7.135669,10.4821005,-4.3779154,-19.976372,37.040203,19.855322,-0.24089722,-10.28565,1.1954755,4.171676,-10.839296
28,12.798033,7.135669,10.4821005,-4.3779154,-19.976372,37.040203,19.855322,-0.24089722,-10.28565,1.1954755,4.171676,-10.839296
29,12.798033,7.135669,10.4821005,-4.3779154,-19.976372,37.040203,19.855322,-0.24089722,-10.28565,1.1954755,4.171676,-10.839296
30,12.798033,7.135669,10.4821005,-4.3779154,-19.976372,37.040203,19.855322,-0.24089722,-10.28565,1.1954755,4.171676,-10.839296
31,12.798033,7.135669,10.4821005,-4.3779154,-19.976372,37.040203,19.855322,-0.24089722,-10.28565,1.1954755,4.171676,-10.839296
32,12.798033,7.135669,10.4821005,-4.3779154,-19.976372,37.040203,19.855322,-0.24089722,-10.28565,1.1954755,4.171676,-10.839296
33,12.798033,7.135669,10.4821005,-4.3779154,-19.976372,37.040203,19.855322,-0.24089722,-10.28565,1.1954755,4.171676,-10.839296
34,12.798033,7.135669,10.4821005,-4.3779154,-19.976372,37.040203,19.855322,-0.24089722,-10.28565,1.1954755,4.171676,-10.839296
35,12.798033,7.135669,10.4821005,-4.3779154,-19.976372,37.040203,19.855322,-0.24089722,-10.28565,1.1954755,4.171676,-10.839296
36,12.798033,7.135669,10.4821005,-4.3779154,-19.976372,37.040203,19.855322,-0.24089722,-10.28565,1.1954755,4.171676,-10.839296
37,12.798033,7.135669,10.4821005,-4.3779154,-19.976372,37.040203,19.855322,-0.24089722,-10.28565,1.1954755,4.171676,-10.839296
38,12.798033,7.135669,10.4821005,-4.3779154,-19.976372,37.040203,19.855322,-0.24089722,-10.28565,1.1954755,4.171676,-10.839296
39,12.798033,7.135669,10.4821005,-4.3779154,-19.976372,37.040203,19.855322,-0.24089722,-10.28565,1.1954755,4.171676,-10.839296
40,12.798033,7.135669,10.4821005,-4.3779154,-19.976372,37.040203,19.855322,-0.24089722,-10.28565,1.1954755,4.171676,-10.839296
41,12.798033,7.135669,10.4821005,-4.3779154,-19.976372,37.040203,19.855322,-0.24089722,-10.28565,1.1954755,4.171676,-10.839296
42,12.798033,7.135669,10.4821005,-4.3779154,-19.976372,37.040203,19.855322,-0.24089722,-10.28565,1.1954755,4.171676,-10.839296
43,12.798033,7.135669,10.4821005,-4.3779154,-19.976372,37.040203,19.855322,-0.24089722,-10.28565,1.1954755,4.171676,-10.839296
44,12.798033,7.135669,10.4821005,-4.3779154,-19.976372,37.040203,19.855322,-0.24089722,-10.28565,1.1954755,4.171676,-10.839296
45,12.798033,7.135669,10.4821005,-4.3779154,-19.976372,37.040203,19.855322,-0.24089722,-10.28565,1.1954755,4.171676,-10.839296
46,12.798033,7.135669,10.4821005,-4.3779154,-19.976372,37.040203,19.855322,-0.24089722,-10.28565,1.1954755,4.171676,-10.839296
47,12.798033,7.135669,10.4821005,-4.3779154,-19.976372,37.040203,19.855322,-0.24089722,-10.28565,1.1954755,4.171676,-10.839296
48,12.798033,7.135669,10.4821005,-4.3779154,-19.976372,37.040203,19.855322,-0.24089722,-10.28565,1.1954755,4.171676,-10.839296
49,12.798033,7.135669,10.4821005,-4.3779154,-19.976372,37.040203,19.855322,-0.24089722,-10.28565,1.1954755,4.171676,-10.839296
50,12.798033,7.135669,10.4821005,-4.3779154,-19.976372,37.040203,19.855322,-0.24089722,-10.28565,1.1954755,4.171676,-10.839296
51,12.798033,7.135669,10.4821005,-4.3779154,-19.976372,37.040203,19.855322,-0.24089722,-10.28565,1.1954755,4.171676,-10.839296
52,12.798033,7.135669,10.4821005,-4.3779154,-19.976372,37.040203,19.855322,-0.24089722,-10.28565,1.1954755,4.171676,-10.839296
53,12.798033,7.135669,10.4821005,-4.3779154,-19.976372,37.040203,19.855322,-0.24089722,-10.28565,1.1954755,4.171676,-10.839296
54,12.798033,7.135669,10.4821005,-4.3779154,-19.976372,37.040203,19.855322,-0.24089722,-10.28565,1.1954755,4.171676,-10.839296
55,12.798033,7.135669,10.4821005,-4.3779154,-19.976372,37.040203,19.855322,-0.24089722,-10.28565,1.1954755,4.171676,-10.839296
56,12.798033,7.135669,10.4821005,-4.3779154,-19.976372,37.040203,19.855322,-0.24089722,-10.28565,1.1954755,4.171676,-10.839296
57,12.798033,7.135669,10.4821005,-4.3779154,-19.976372,37.040203,19.855322,-0.24089722,-10.28565,1.1954755,4.171676,-10.839296
58,12.798033,7.135669,10.4821005,-4.3779154,-19.976372,37.040203,19.855322,-0.24089722,-10.28565,1.1954755,4.171676,-10.839296
59,12.798033,7.135669,10.4821005,-4.3779154,-19.976372,37.040203,19.855322,-0.24089722,-10.28565,1.1954755,4.171676,-10.839296
60,12.798033,7.135669,10.4821005,-4.3779154,-19.976372,37.040203,19.855322,-0.24089722,-10.28565,1.1954755,4.171676,-10.839296
61,12.798033,7.135669,10.4821005,-4.3779154,-19.976372,37.040203,19.855322,-0.24089722,-10.28565,1.1954755,4.171676,-10.839296
62,12.798033,7.135669,10.4821005,-4.3779154,-19.976372,37.040203,19.855322,-0.24089722,-10.28565,1.1954755,4.171676,-10.839296
63,12.798033,7.135669,10.4821005,-4.3779154,-19.976372,37.040203,19.855322,-0.24089722,-10.28565,1.1954755,4.171676,-10.839296
64,12.798033,7.135669,10.4821005,-4.3779154,-19.976372,37.040203,19.855322,-0.24089722,-10.28565,1.1954755,4.171676,-10.839296
65,12.798033,7.135669,10.4821005,-4.3779154,-19.976372,37.040203,19.855322,-0.24089722,-10.28565,1.1954755,4.171676,-10.839296
66,12.798033,7.135669,10.4821005,-4.3779154,-19.976372,37.040203,19.855322,-0.24089722,-10.28565,1.1954755,4.171676,-10.839296
67,12.798033,7.135669,10.4821005,-4.3779154,-19.976372,37.040203,19.855322,-0.24089722,-10.28565,1.1954755,4.171676,-10.839296
68,12.798033,7.135669,10.4821005,-4.3779154,-19.976372,37.040203,19.855322,-0.24089722,-10.28565,1.1954755,4.171676,-10.839296
69,12.798033,7.135669,10.4821005,-4.3779154,-19.976372,37.040203,19.855322,-0.24089722,-10.28565,1.1954755,4.171676,-10.839296
70,12.798033,7.135669,10.4821005,-4.3779154,-19.976372,37.040203,19.855322,-0.24089722,-10.28565,1.1954755,4.171676,-10.839296
71,12.798033,7.135669,10.4821005,-4.3779154,-19.976372,37.040203,19.855322,-0.24089722,-10.28565,1.1954755,4.171676,-10.839296
72,12.798033,7.135669,10.4821005,-4.3779154,-19.976372,37.040203,19.855322,-0.24089722,-10.28565,1.1954755,4.171676,-10.839296
73,12.798033,7.135669,10.4821005,-4.3779154,-19.976372,37.040203,19.855322,-0.24089722,-10.28565,1.1954755,4.171676,-10.839296
74,12.798033,7.135669,10.4821005,-4.3779154,-19.976372,37.040203,19.855322,-0.24089722,-10.28565,1.1954755,4.171676,-10.839296
75,12.798033,7.135669,10.4821005,-4.3779154,-19.976372,37.040203,19.855322,-0.24089722,-10.28565,1.1954755,4.171676,-10.839296
76,12.798033,7.135669,10.4821005,-4.3779154,-19.976372,37.040203,19.855322,-0.24089722,-10.28565,1.1954755,4.171676,-10.839296
77,12.798033,7.135669,10.4821005,-4.3779154,-19.976372,37.040203,19.855322,-0.24089722,-10.28565,1.1954755,4.171676,-10.839296
78,12.798033,7.135669,10.4821005,-4.3779154,-19.976372,37.040203,19.855322,-0.24089722,-10.28565,1.1954755,4.171676,-10.839296
79,12.798033,7.135669,10.4821005,-4.3779154,-19.976372,37.040203,19.855322,-0.24089722,-10.28565,1.1954755,4.171676,-10.839296
80,12.798033,7.135669,10.4821005,-4.3779154,-19.976372,37.040203,19.855322,-0.24089722,-10.28565,1.1954755,4.171676,-10.839296
81,12.798033,7.135669,10.4821005,-4.3779154,-19.976372,37.040203,19.855322,-0.24089722,-10.28565,1.1954755,4.171676,-10.839296
82,12.798033,7.135669,10.4821005,-4.3779154,-19.976372,37.040203,19.855322,-0.24089722,-10.28565,1.1954755,4.171676,-10.839296
83,12.798033,7.135669,10.4821005,-4.3779154,-19.976372,37.040203,19.855322,-0.24089722,-10.28565,1.1954755,4.171676,-10.839296
84,12.798033,7.135669,10.4821005,-4.3779154,-19.976372,37.040203,19.855322,-0.24089722,-10.28565,1.1954755,4.171676,-10.839296
85,12.798033,7.135669,10.4821005,-4.3779154,-19.976372,37.040203,19.855322,-0.24089722,-10.28565,1.1954755,4.171676,-10.839296
86,12.798033,7.135669,10.4821005,-4.3779154,-19.976372,37.040203,19.855322,-0.24089722,-10.28565,1.1954755,4.171676,-10.839296
87,12.798033,7.135669,10.4821005,-4.3779154,-19.976372,37.040203,19.855322,-0.24089722,-10.28565,1.1954755,4.171676,-10.839296
88,12.798033,7.135669,10.4821005,-4.3779154,-19.976372,37.040203,19.855322,-0.24089722,-10.28565,1.1954755,4.171676,-10.839296
89,12.798033,7.135669,10.4821005,-4.3779154,-19.976372,37.040203,19.855322,-0.24089722,-10.28565,1.1954755,4.171676,-10.839296
90,12.798033,7.135669,10.4821005,-4.3779154,-19.976372,37.040203,19.855322,-0.24089722,-10.28565,1.1954755,4.171676,-10.839296
91,12.798033,7.135669,10.4821005,-4.3779154,-19.976372,37.040203,19.855322,-0.24089722,-10.28565,1.1954755,4.171676,-10.839296
92,12.798033,7.135669,10.4821005,-4.3779154,-19.976372,37.040203,19.855322,-0.24089722,-10.28565,1.1954755,4.171676,-10.839296
93,12.798033,7.135669,10.4821005,-4.3779154,-19.976372,37.040203,19.855322,-0.24089722,-10.28565,1.1954755,4.171676,-10.839296
94,12.798033,7.135669,10.4821005,-4.3779154,-19.976372,37.040203,19.855322,-0.24089722,-10.28565,1.1954755,4.171676,-10.839296
95,12.798033,7.135669,10.4821005,-4.3779154,-19.976372,37.040203,19.855322,-0.24089722,-10.28565,1.1954755,4.171676,-10.839296
96,12.798033,7.135669,10.4821005,-4.3779154,-19.976372,37.040203,19.855322,-0.24089722,-10.28565,1.1954755,4.171676,-10.839296
97,12.798033,7.135669,10.4821005,-4.3779154,-19.976372,37.040203,19.855322,-0.24089722,-10.28565,1.1954755,4.171676,-10.839296
98,12.798033,7.135669,10.4821005,-4.3779154,-19.976372,37.040203,19.855322,-0.24089722,-10.28565,1.1954755,4.171676,-10.839296
99,12.798033,7.135669,10.4821005,-4.3779154,-19.976372,37.040203,19.855322,-0.24089722,-10.28565,1.1954755,4.171676,-10.839296
100,12.798033,7.135669,10.4821005,-4.3779154,-19.976372,37.040203,19.855322,-0.24089722,-10.28565,1.1954755,4.171676,-10.839296
101,12.798033,7.135669,10.4821005,-4.3779154,-19.976372,37.040203,19.855322,-0.24089722,-10.28565,1.1954755,4.171676,-10.839296
102,12.798033,7.135669,10.4821005,-4.3779154,-19.976372,37.040203,19.855322,-0.24089722,-10.28565,1.1954755,4.171676,-10.839296
103,12.798033,7.135669,10.4821005,-4.3779154,-19.976372,37.040203,19.855322,-0.24089722,-10.28565,1.1954755,4.171676,-10.839296
104,12.798033,7.135669,10.4821005,-4.3779154,-19.976372,37.040203,19.855322,-0.24089722,-10.28565,1.1954755,4.171676,-10.839296
105,12.798033,7.135669,10.4821005,-4.3779154,-19.976372,37.040203,19.855322,-0.24089722,-10.28565,1.1954755,4.171676,-10.839296
106,12.798033,7.135669,10.4821005,-4.3779154,-19.976372,37.040203,19.855322,-0.24089722,-10.28565,1.1954755,4.171676,-10.839296
107,12.798033,7.135669,10.4821005,-4.3779154,-19.976372,37.040203,19.855322,-0.24089722,-10.28565,1.1954755,4.171676,-10.839296
108,12.798033,7.135669,10.4821005,-4.3779154,-19.976372,37.040203,19.855322,-0.24089722,-10.28565,1.1954755,4.171676,-10.839296
109,12.798033,7.135669,10.4821005,-4.3779154,-19.976372,37.040203,19.855322,-0.24089722,-10.28565,1.1954755,4.171676,-10.839296
110,12.798033,7.135669,10.4821005,-4.3779154,-19.976372,37.040203,19.855322,-0.24089722,-10.28565,1.1954755,4.171676,-10.839296
111,12.798033,7.135669,10.4821005,-4.3779154,-19.976372,37.040203,19.855322,-0.24089722,-10.28565,1.1954755,4.171676,-10.839296
112,12.798033,7.135669,10.4821005,-4.3779154,-19.976372,37.040203,19.855322,-0.24089722,-10.28565,1.1954755,4.171676,-10.839296
113,12.798033,7.135669,10.4821005,-4.3779154,-19.976372,37.040203,19.855322,-0.24089722,-10.28565,1.1954755,4.171676,-10.839296
114,12.798033,7.135669,10.4821005,-4.3779154,-19.976372,37.040203,19.855322,-0.24089722,-10.28565,1.1954755,4.171676,-10.839296
115,12.798033,7.135669,10.4821005,-4.3779154,-19.976372,37.040203,19.855322,-0.24089722,-10.28565,1.1954755,4.171676,-10.839296
116,12.798033,7.135669,10.4821005,-4.3779154,-19.976372,37.040203,19.855322,-0.24089722,-10.28565,1.1954755,4.171676,-10.839296
117,12.798033,7.135669,10.4821005,-4.3779154,-19.976372,37.040203,19.855322,-0.24089722,-10.28565,1.1954755,4.171676,-10.839296
118,12.798033,7.135669,10.4821005,-4.3779154,-19.976372,37.040203,19.855322,-0.24089722,-10.28565,1.1954755,4.171676,-10.839296
119,12.798033,7.135669,10.4821005,-4.3779154,-19.976372,37.040203,19.855322,-0.24089722,-10.28565,1.1954755,4.171676,-10.839296
120,12.798033,7.135669,10.4821005,-4.3779154,-19.976372,37.040203,19.855322,-0.24089722,-10.28565,1.1954755,4.171676,-10.839296
121,12.798033,7.135669,10.4821005,-4.3779154,-19.976372,37.040203,19.855322,-0.24089722,-10.28565,1.1954755,4.171676,-10.839296
122,12.798033,7.135669,10.4821005,-4.3779154,-19.976372,37.040203,19.855322,-0.24089722,-10.28565,1.1954755,4.171676,-10.839296
123,12.798033,7.135669,10.4821005,-4.3779154,-19.976372,37.040203,19.855322,-0.24089722,-10.28565,1.1954755,4.171676,-10.839296
124,12.798033,7.135669,10.4821005,-4.3779154,-19.976372,37.040203,19.855322,-0.24089722,-10.28565,1.1954755,4.171676,-10.839296
125,12.798033,7.135669,10.4821005,-4.3779154,-19.976372,37.040203,19.855322,-0.24089722,-10.28565,1.1954755,4.171676,-10.839296
126,12.798033,7.135669,10.4821005,-4.3779154,-19.976372,37.040203,19.855322,-0.24089722,-10.28565,1.1954755,4.171676,-10.839296
127,12.798033,7.135669,10.4821005,-4.3779154,-19.976372,37.040203,19.855322,-0.24089722,-10.28565,1.1954755,4.171676,-10.839296
128,12.798033,7.135669,10.4821005,-4.3779154,-19.976372,37.040203,19.855322,-0.24089722,-10.28565,1.1954755,4.171676,-10.839296
129,12.798033,7.135669,10.4821005,-4.3779154,-19.976372,37.040203,19.855322,-0.24089722,-10.28565,1.1954755,4.171676,-10.839296
130,12.798033,7.135669,10.4821005,-4.3779154,-19.976372,37.040203,19.855322,-0.24089722,-10.28565,1.1954755,4.171676,-10.839296
131,12.798033,7.135669,10.4821005,-4.3779154,-19.976372,37.040203,19.855322,-0.24089722,-10.28565,1.1954755,4.171676,-10.839296
132,12.798033,7.135669,10.4821005,-4.3779154,-19.976372,37.040203,19.855322,-0.24089722,-10.28565,1.1954755,4.171676,-10.839296
133,12.798033,7.135669,10.4821005,-4.3779154,-19.976372,37.040203,19.855322,-0.24089722,-10.28565,1.1954755,4.171676,-10.839296
134,12.798033,7.135669,10.4821005,-4.3779154,-19.976372,37.040203,19.855322,-0.24089722,-10.28565,1.1954755,4.171676,-10.839296
135,12.798033,7.135669,10.4821005,-4.3779154,-19.976372,37.040203,19.855322,-0.24089722,-10.28565,1.1954755,4.171676,-10.839296
136,12.798033,7.135669,10.4821005,-4.3779154,-19.976372,37.040203,19.855322,-0.24089722,-10.28565,1.1954755,4.171676,-10.839296
137,12.798033,7.135669,10.4821005,-4.3779154,-19.976372,37.040203,19.855322,-0.24089722,-10.28565,1.1954755,4.171676,-10.839296
138,12.798033,7.135669,10.4821005,-4.3779154,-19.976372,37.040203,19.855322,-0.24089722,-10.28565,1.1954755,4.171676,-10.839296
139,12.798033,7.135669,10.4821005,-4.3779154,-19.976372,37.040203,19.855322,-0.24089722,-10.28565,1.1954755,4.171676,-10.839296
140,12.798033,7.135669,10.4821005,-4.3779154,-19.976372,37.040203,19.855322,-0.24089722,-10.28565,1.1954755,4.171676,-10.839296
141,12.798033,7.135669,10.4821005,-4.3779154,-19.976372,37.040203,19.855322,-0.24089722,-10.28565,1.1954755,4.171676,-10.839296
142,12.798033,7.135669,10.4821005,-4.3779154,-19.976372,37.040203,19.855322,-0.24089722,-10.28565,1.1954755,4.171676,-10.839296
143,12.798033,7.135669,10.4821005,-4.3779154,-19.976372,37.040203,19.855322,-0.24089722,-10.28565,1.1954755,4.171676,-10.839296
144,12.798033,7.135669,10.4821005,-4.3779154,-19.976372,37.040203,19.855322,-0.24089722,-10.28565,1.1954755,4.171676,-10.839296
145,12.798033,7.135669,10.4821005,-4.3779154,-19.976372,37.040203,19.855322,-0.24089722,-10.28565,1.1954755,4.171676,-10.839296
146,12.798033,7.135669,10.4821005,-4.3779154,-19.976372,37.040203,19.855322,-0.24089722,-10.28565,1.1954755,4.171676,-10.839296
147,12.798033,7.135669,10.4821005,-4.3779154,-19.976372,37.040203,19.855322,-0.24089722,-10.28565,1.1954755,4.171676,-10.839296
148,12.798033,7.135669,10.4821005,-4.3779154,-19.976372,37.040203,19.855322,-0.24089722,-10.28565,1.1954755,4.171676,-10.839296
149,12.798033,7.135669,10.4821005,-4.3779154,-19.976372,37.040203,19.855322,-0.24089722,-10.28565,1.1954755,4.171676,-10.839296
150,12.798033,7.135669,10.4821005,-4.3779154,-19.976372,37.040203,19.855322,-0.24089722,-10.28565,1.1954755,4.171676,-10.839296
151,12.798033,7.135669,10.4821005,-4.3779154,-19.976372,37.040203,19.855322,-0.24089722,-10.28565,1.1954755,4.171676,-10.839296
152,12.798033,7.135669,10.4821005,-4.3779154,-19.976372,37.040203,19.855322,-0.24089722,-10.28565,1.1954755,4.171676,-10.839296
153,12.798033,7.135669,10.4821005,-4.3779154,-19.976372,37.040203,19.855322,-0.24089722,-10.28565,1.1954755,4.171676,-10.839296
154,12.798033,7.135669,10.4821005,-4.3779154,-19.976372,37.040203,19.855322,-0.24089722,-10.28565,1.1954755,4.171676,-10.839296
155,12.798033,7.135669,10.4821005,-4.3779154,-19.976372,37.040203,19.855322,-0.24089722,-10.28565,1.1954755,4.171676,-10.839296
156,12.798033,7.135669,10.4821005,-4.3779154,-19.976372,37.040203,19.855322,-0.24089722,-10.28565,1.1954755,4.171676,-10.839296
157,12.798033,7.135669,10.4821005,-4.3779154,-19.976372,37.040203,19.855322,-0.24089722,-10.28565,1.1954755,4.171676,-10.839296
158,12.798033,7.135669,10.4821005,-4.3779154,-19.976372,37.040203,19.855322,-0.24089722,-10.28565,1.1954755,4.171676,-10.839296
159,12.798033,7.135669,10.4821005,-4.3779154,-19.976372,37.040203,19.855322,-0.24089722,-10.28565,1.1954755,4.171676,-10.839296
160,12.798033,7.135669,10.4821005,-4.3779154,-19.976372,37.040203,19.855322,-0.24089722,-10.28565,1.1954755,4.171676,-10.839296
161,12.798033,7.135669,10.4821005,-4.3779154,-19.976372,37.040203,19.855322,-0.24089722,-10.28565,1.1954755,4.171676,-10.839296
162,12.798033,7.135669,10.4821005,-4.3779154,-19.976372,37.040203,19.855322,-0.24089722,-10.28565,1.1954755,4.171676,-10.839296
163,12.798033,7.135669,10.4821005,-4.3779154,-19.976372,37.040203,19.855322,-0.24089722,-10.28565,1.1954755,4.171676,-10.839296
164,12.798033,7.135669,10.4821005,-4.3779154,-19.976372,37.040203,19.855322,-0.24089722,-10.28565,1.1954755,4.171676,-10.839296
165,12.798033,7.135669,10.4821005,-4.3779154,-19.976372,37.040203,19.855322,-0.24089722,-10.28565,1.1954755,4.171676,-10.839296
166,12.798033,7.135669,10.4821005,-4.3779154,-19.976372,37.040203,19.855322,-0.24089722,-10.28565,1.1954755,4.171676,-10.839296
167,12.798033,7.135669,10.4821005,-4.3779154,-19.976372,37.040203,19.855322,-0.24089722,-10.28565,1.1954755,4.171676,-10.839296
168,12.798033,7.135669,10.4821005,-4.3779154,-19.976372,37.040203,19.855322,-0.24089722,-10.28565,1.1954755,4.171676,-10.839296
169,12.798033,7.135669,10.4821005,-4.3779154,-19.976372,37.040203,19.855322,-0.24089722,-10.28565,1.1954755,4.171676,-10.839296
170,12.798033,7.135669,10.4821005,-4.3779154,-19.976372,37.040203,19.855322,-0.24089722,-10.28565,1.1954755,4.171676,-10.839296
171,12.798033,7.135669,10.4821005,-4.3779154,-19.976372,37.040203,19.855322,-0.24089722,-10.28565,1.1954755,4.171676,-10.839296
172,12.798033,7.135669,10.4821005,-4.3779154,-19.976372,37.040203,19.855322,-0.24089722,-10.28565,1.1954755,4.171676,-10.839296
173,12.798033,7.135669,10.4821005,-4.3779154,-19.976372,37.040203,19.855322,-0.24089722,-10.28565,1.1954755,4.171676,-10.839296
174,12.798033,7.135669,10.4821005,-4.3779154,-19.976372,37.040203,19.855322,-0.24089722,-10.28565,1.1954755,4.171676,-10.839296
175,12.798033,7.135669,10.4821005,-4.3779154,-19.976372,37.040203,19.855322,-0.24089722,-10.28565,1.1954755,4.171676,-10.839296
176,12.798033,7.135669,10.4821005,-4.3779154,-19.976372,37.040203,19.855322,-0.24089722,-10.28565,1.1954755,4.171676,-10.839296
177,12.798033,7.135669,10.4821005,-4.3779154,-19.976372,37.040203,19.855322,-0.24089722,-10.28565,1.1954755,4.171676,-10.839296
178,12.798033,7.135669,10.4821005,-4.3779154,-19.976372,37.040203,19.855322,-0.24089722,-10.28565,1.1954755,4.171676,-10.839296
179,12.798033,7.135669,10.4821005,-4.3779154,-19.976372,37.040203,19.855322,-0.24089722,-10.28565,1.1954755,4.171676,-10.839296
180,12.798033,7.135669,10.4821005,-4.3779154,-19.976372,37.040203,19.855322,-0.24089722,-10.28565,1.1954755,4.171676,-10.839296
181,12.798033,7.135669,10.4821005,-4.3779154,-19.976372,37.040203,19.855322,-0.24089722,-10.28565,1.1954755,4.171676,-10.839296
182,12.798033,7.135669,10.4821005,-4.3779154,-19.976372,37.040203,19.855322,-0.24089722,-10.28565,1.1954755,4.171676,-10.839296
183,12.798033,7.135669,10.4821005,-4.3779154,-19.976372,37.040203,19.855322,-0.24089722,-10.28565,1.1954755,4.171676,-10.839296
184,12.798033,7.135669,10.4821005,-4.3779154,-19.976372,37.040203,19.855322,-0.24089722,-10.28565,1.1954755,4.171676,-10.839296
185,12.798033,7.135669,10.4821005,-4.3779154,-19.976372,37.040203,19.855322,-0.24089722,-10.28565,1.1954755,4.171676,-10.839296
186,12.798033,7.135669,10.4821005,-4.3779154,-19.976372,37.040203,19.855322,-0.24089722,-10.28565,1.1954755,4.171676,-10.839296
187,12.798033,7.135669,10.4821005,-4.3779154,-19.976372,37.040203,19.855322,-0.24089722,-10.28565,1.1954755,4.171676,-10.839296
188,12.798033,7.135669,10.4821005,-4.3779154,-19.976372,37.040203,19.855322,-0.24089722,-10.28565,1.1954755,4.171676,-10.839296
189,12.798033,7.135669,10.4821005,-4.3779154,-19.976372,37.040203,19.855322,-0.24089722,-10.28565,1.1954755,4.171676,-10.839296
190,12.798033,7.135669,10.4821005,-4.3779154,-19.976372,37.040203,19.855322,-0.24089722,-10.28565,1.1954755,4.171676,-10.839296
191,12.798033,7.135669,10.4821005,-4.3779154,-19.976372,37.040203,19.855322,-0.24089722,-10.28565,1.1954755,4.171676,-10.839296
192,12.798033,7.135669,10.4821005,-4.3779154,-19.976372,37.040203,19.855322,-0.24089722,-10.28565,1.1954755,4.171676,-10.839296
193,12.798033,7.135669,10.4821005,-4.3779154,-19.976372,37.040203,19.855322,-0.24089722,-10.28565,1.1954755,4.171676,-10.839296
194,12.798033,7.135669,10.4821005,-4.3779154,-19.976372,37.040203,19.855322,-0.24089722,-10.28565,1.1954755,4.171676,-10.839296
195,12.798033,7.135669,10.4821005,-4.3779154,-19.976372,37.040203,19.855322,-0.24089722,-10.28565,1.1954755,4.171676,-10.839296
196,12.798033,7.135669,10.4821005,-4.3779154,-19.976372,37.040203,19.855322,-0.24089722,-10.28565,1.1954755,4.171676,-10.839296
197,12.798033,7.135669,10.4821005,-4.3779154,-19.976372,37.040203,19.855322,-0.24089722,-10.28565,1.1954755,4.171676,-10.839296
198,12.798033,7.135669,10.4821005,-4.3779154,-19.976372,37.040203,19.855322,-0.24089722,-10.28565,1.1954755,4.171676,-10.839296
199,12.798033,7.135669,10.4821005,-4.3779154,-19.976372,37.040203,19.855322,-0.24089722,-10.28565,1.1954755,4.171676,-10.839296
200,12.798033,7.135669,10.4821005,-4.3779154,-19.976372,37.040203,19.855322,-0.24089722,-10.28565,1.1954755,4.171676,-10.839296
201,12.798033,7.135669,10.4821005,-4.3779154,-19.976372,37.040203,19.855322,-0.24089722,-10.28565,1.1954755,4.171676,-10.839296
202,12.798033,7.135669,10.4821005,-4.3779154,-19.976372,37.040203,19.855322,-0.24089722,-10.28565,1.1954755,4.171676,-10.839296
203,12.798033,7.135669,10.4821005,-4.3779154,-19.976372,37.040203,19.855322,-0.24089722,-10.28565,1.1954755,4.171676,-10.839296
204,12.798033,7.135669,10.4821005,-4.3779154,-19.976372,37.040203,19.855322,-0.24089722,-10.28565,1.1954755,4.171676,-10.839296
205,12.798033,7.135669,10.4821005,-4.3779154,-19.976372,37.040203,19.855322,-0.24089722,-10.28565,1.1954755,4.171676,-10.839296
206,12.798033,7.135669,10.4821005,-4.3779154,-19.976372,37.040203,19.855322,-0.24089722,-10.28565,1.1954755,4.171676,-10.839296
207,12.798033,7.135669,10.4821005,-4.3779154,-19.976372,37.040203,19.855322,-0.24089722,-10.28565,1.1954755,4.171676,-10.839296
208,12.798033,7.135669,10.4821005,-4.3779154,-19.976372,37.040203,19.855322,-0.24089722,-10.28565,1.1954755,4.171676,-10.839296
209,12.798033,7.135669,10.4821005,-4.3779154,-19.976372,37.040203,19.855322,-0.24089722,-10.28565,1.1954755,4.171676,-10.839296
210,12.798033,7.135669,10.4821005,-4.3779154,-19.976372,37.040203,19.855322,-0.24089722,-10.28565,1.1954755,4.171676,-10.839296
211,12.798033,7.135669,10.4821005,-4.3779154,-19.976372,37.040203,19.855322,-0.24089722,-10.28565,1.1954755,4.171676,-10.839296
212,12.798033,7.135669,10.4821005,-4.3779154,-19.976372,37.040203,19.855322,-0.24089722,-10.28565,1.1954755,4.171676,-10.839296
213,12.798033,7.135669,10.4821005,-4.3779154,-19.976372,37.040203,19.855322,-0.24089722,-10.28565,1.1954755,4.171676,-10.839296
214,12.798033,7.135669,10.4821005,-4.3779154,-19.976372,37.040203,19.855322,-0.24089722,-10.28565,1.1954755,4.171676,-10.839296
215,12.798033,7.135669,10.4821005,-4.3779154,-19.976372,37.040203,19.855322,-0.24089722,-10.28565,1.1954755,4.171676,-10.839296
216,12.798033,7.135669,10.4821005,-4.3779154,-19.976372,37.040203,19.855322,-0.24089722,-10.28565,1.1954755,4.171676,-10.839296
217,12.798033,7.135669,10.4821005,-4.3779154,-19.976372,37.040203,19.855322,-0.24089722,-10.28565,1.1954755,4.171676,-10.839296
218,12.798033,7.135669,10.4821005,-4.3779154,-19.976372,37.040203,19.855322,-0.24089722,-10.28565,1.1954755,4.171676,-10.839296
219,12.798033,7.135669,10.4821005,-4.3779154,-19.976372,37.040203,19.855322,-0.24089722,-10.28565,1.1954755,4.171676,-10.839296
220,12.798033,7.135669,10.4821005,-4.3779154,-19.976372,37.040203,19.855322,-0.24089722,-10.28565,1.1954755,4.171676,-10.839296
221,12.798033,7.135669,10.4821005,-4.3779154,-19.976372,37.040203,19.855322,-0.24089722,-10.28565,1.1954755,4.171676,-10.839296
222,12.798033,7.135669,10.4821005,-4.3779154,-19.976372,37.040203,19.855322,-0.24089722,-10.28565,1.1954755,4.171676,-10.839296
223,12.798033,7.135669,10.4821005,-4.3779154,-19.976372,37.040203,19.855322,-0.24089722,-10.28565,1.1954755,4.171676,-10.839296
224,12.798033,7.135669,10.4821005,-4.3779154,-19.976372,37.040203,19.855322,-0.24089722,-10.28565,1.1954755,4.171676,-10.839296
225,12.798033,7.135669,10.4821005,-4.3779154,-19.976372,37.040203,19.855322,-0.24089722,-10.28565,1.1954755,4.171676,-10.839296
226,12.798033,7.135669,10.4821005,-4.3779154,-19.976372,37.040203,19.855322,-0.24089722,-10.28565,1.1954755,4.171676,-10.839296
227,12.798033,7.135669,10.4821005,-4.3779154,-19.976372,37.040203,19.855322,-0.24089722,-10.28565,1.1954755,4.171676,-10.839296
228,12.798033,7.135669,10.4821005,-4.3779154,-19.976372,37.040203,19.855322,-0.24089722,-10.28565,1.1954755,4.171676,-10.839296
229,12.798033,7.135669,10.4821005,-4.3779154,-19.976372,37.040203,19.855322,-0.24089722,-10.28565,1.1954755,4.171676,-10.839296
230,12.798033,7.135669,10.4821005,-4.3779154,-19.976372,37.040203,19.855322,-0.24089722,-10.28565,1.1954755,4.171676,-10.839296
231,12.798033,7.135669,10.4821005,-4.3779154,-19.976372,37.040203,19.855322,-0.24089722,-10.28565,1.1954755,4.171676,-10.839296
232,12.798033,7.135669,10.4821005,-4.3779154,-19.976372,37.040203,19.855322,-0.24089722,-10.28565,1.1954755,4.171676,-10.839296
233,12.798033,7.135669,10.4821005,-4.3779154,-19.976372,37.040203,19.855322,-0.24089722,-10.28565,1.1954755,4.171676,-10.839296
234,12.798033,7.135669,10.4821005,-4.3779154,-19.976372,37.040203,19.855322,-0.24089722,-10.28565,1.1954755,4.171676,-10.839296
235,12.798033,7.135669,10.4821005,-4.3779154,-19.976372,37.040203,19.855322,-0.24089722,-10.28565,1.1954755,4.171676,-10.839296
236,12.798033,7.135669,10.4821005,-4.3779154,-19.976372,37.040203,19.855322,-0.24089722,-10.28565,1.1954755,4.171676,-10.839296
237,12.798033,7.135669,10.4821005,-4.3779154,-19.976372,37.040203,19.855322,-0.24089722,-10.28565,1.1954755,4.171676,-10.839296
238,12.798033,7.135669,10.4821005,-4.3779154,-19.976372,37.040203,19.855322,-0.24089722,-10.28565,1.1954755,4.171676,-10.839296
239,12.798033,7.135669,10.4821005,-4.3779154,-19.976372,37.040203,19.855322,-0.24089722,-10.28565,1.1954755,4.171676,-10.839296
240,12.798033,7.135669,10.4821005,-4.3779154,-19.976372,37.040203,19.855322,-0.24089722,-10.28565,1.1954755,4.171676,-10.839296
241,12.798033,7.135669,10.4821005,-4.3779154,-19.976372,37.040203,19.855322,-0.24089722,-10.28565,1.1954755,4.171676,-10.839296
242,12.798033,7.135669,10.4821005,-4.3779154,-19.976372,37.040203,19.855322,-0.24089722,-10.28565,1.1954755,4.171676,-10.839296
243,12.798033,7.135669,10.4821005,-4.3779154,-19.976372,37.040203,19.855322,-0.24089722,-10.28565,1.1954755,4.171676,-10.839296
244,12.798033,7.135669,10.4821005,-4.3779154,-19.976372,37.040203,19.855322,-0.24089722,-10.28565,1.1954755,4.171676,-10.839296
245,12.798033,7.135669,10.4821005,-4.3779154,-19.976372,37.040203,19.855322,-0.24089722,-10.28565,1.1954755,4.171676,-10.839296
246,12.798033,7.135669,10.4821005,-4.3779154,-19.976372,37.040203,19.855322,-0.24089722,-10.28565,1.1954755,4.171676,-10.839296
247,12.798033,7.135669,10.4821005,-4.3779154,-19.976372,37.040203,19.855322,-0.24089722,-10.28565,1.1954755,4.171676,-10.839296
248,12.798033,7.135669,10.4821005,-4.3779154,-19.976372,37.040203,19.855322,-0.24089722,-10.28565,1.1954755,4.171676,-10.839296
249,12.798033,7.135669,10.4821005,-4.3779154,-19.976372,37.040203,19.855322,-0.24089722,-10.28565,1.1954755,4.171676,-10.839296
250,12.798033,7.135669,10.4821005,-4.3779154,-19.976372,37.040203,19.855322,-0.24089722,-10.28565,1.1954755,4.171676,-10.839296
251,12.798033,7.135669,10.4821005,-4.3779154,-19.976372,37.040203,19.855322,-0.24089722,-10.28565,1.1954755,4.171676,-10.839296
252,12.798033,7.135669,10.4821005,-4.3779154,-19.976372,37.040203,19.855322,-0.24089722,-10.28565,1.1954755,4.171676,-10.839296
253,12.798033,7.135669,10.4821005,-4.3779154,-19.976372,37.040203,19.855322,-0.24089722,-10.28565,1.1954755,4.171676,-10.839296
254,12.798033,7.135669,10.4821005,-4.3779154,-19.976372,37.040203,19.855322,-0.24089722,-10.28565,1.1954755,4.171676,-10.839296
255,12.798033,7.135669,10.4821005,-4.3779154,-19.976372,37.040203,19.855322,-0.24089722,-10.28565,1.1954755,4.171676,-10.839296
256,12.798033,7.135669,10.4821005,-4.3779154,-19.976372,37.040203,19.855322,-0.24089722,-10.28565,1.1954755,4.171676,-10.839296
257,12.798033,7.135669,10.4821005,-4.3779154,-19.976372,37.040203,19.855322,-0.24089722,-10.28565,1.1954755,4.171676,-10.839296
258,12.798033,7.135669,10.4821005,-4.3779154,-19.976372,37.040203,19.855322,-0.24089722,-10.28565,1.1954755,4.171676,-10.839296
259,12.798033,7.135669,10.4821005,-4.3779154,-19.976372,37.040203,19.855322,-0.24089722,-10.28565,1.1954755,4.171676,-10.839296
260,12.798033,7.135669,10.4821005,-4.3779154,-19.976372,37.040203,19.855322,-0.24089722,-10.28565,1.1954755,4.171676,-10.839296
261,12.798033,7.135669,10.4821005,-4.3779154,-19.976372,37.040203,19.855322,-0.24089722,-10.28565,1.1954755,4.171676,-10.839296
262,12.798033,7.135669,10.4821005,-4.3779154,-19.976372,37.040203,19.855322,-0.24089722,-10.28565,1.1954755,4.171676,-10.839296
263,12.798033,7.135669,10.4821005,-4.3779154,-19.976372,37.040203,19.855322,-0.24089722,-10.28565,1.1954755,4.171676,-10.839296
264,12.798033,7.135669,10.4821005,-4.3779154,-19.976372,37.040203,19.855322,-0.24089722,-10.28565,1.1954755,4.171676,-10.839296
265,12.798033,7.135669,10.4821005,-4.3779154,-19.976372,37.040203,19.855322,-0.24089722,-10.28565,1.1954755,4.171676,-10.839296
266,12.798033,7.135669,10.4821005,-4.3779154,-19.976372,37.040203,19.855322,-0.24089722,-10.28565,1.1954755,4.171676,-10.839296
267,12.798033,7.135669,10.4821005,-4.3779154,-19.976372,37.040203,19.855322,-0.24089722,-10.28565,1.1954755,4.171676,-10.839296
268,12.798033,7.135669,10.4821005,-4.3779154,-19.976372,37.040203,19.855322,-0.24089722,-10.28565,1.1954755,4.171676,-10.839296
269,12.798033,7.135669,10.4821005,-4.3779154,-19.976372,37.040203,19.855322,-0.24089722,-10.28565,1.1954755,4.171676,-10.839296
270,12.798033,7.135669,10.4821005,-4.3779154,-19.976372,37.040203,19.855322,-0.24089722,-10.28565,1.1954755,4.171676,-10.839296
271,12.798033,7.135669,10.4821005,-4.3779154,-19.976372,37.040203,19.855322,-0.24089722,-10.28565,1.1954755,4.171676,-10.839296
272,12.798033,7.135669,10.4821005,-4.3779154,-19.976372,37.040203,19.855322,-0.24089722,-10.28565,1.1954755,4.171676,-10.839296
273,12.798033,7.135669,10.4821005,-4.3779154,-19.976372,37.040203,19.855322,-0.24089722,-10.28565,1.1954755,4.171676,-10.839296
274,12.798033,7.135669,10.4821005,-4.3779154,-19.976372,37.040203,19.855322,-0.24089722,-10.28565,1.1954755,4.171676,-10.839296
275,12.798033,7.135669,10.4821005,-4.3779154,-19.976372,37.040203,19.855322,-0.24089722,-10.28565,1.1954755,4.171676,-10.839296
276,12.798033,7.135669,10.4821005,-4.3779154,-19.976372,37.040203,19.855322,-0.24089722,-10.28565,1.1954755,4.171676,-10.839296
277,12.798033,7.135669,10.4821005,-4.3779154,-19.976372,37.040203,19.855322,-0.24089722,-10.28565,1.1954755,4.171676,-10.839296
278,12.798033,7.135669,10.4821005,-4.3779154,-19.976372,37.040203,19.855322,-0.24089722,-10.28565,1.1954755,4.171676,-10.839296
279,12.798033,7.135669,10.4821005,-4.3779154,-19.976372,37.040203,19.855322,-0.24089722,-10.28565,1.1954755,4.171676,-10.839296
280,12.798033,7.135669,10.4821005,-4.3779154,-19.976372,37.040203,19.855322,-0.24089722,-10.28565,1.1954755,4.171676,-10.839296
281,12.798033,7.135669,10.4821005,-4.3779154,-19.976372,37.040203,19.855322,-0.24089722,-10.28565,1.1954755,4.171676,-10.839296
282,12.798033,7.135669,10.4821005,-4.3779154,-19.976372,37.040203,19.855322,-0.24089722,-10.28565,1.1954755,4.171676,-10.839296
283,12.798033,7.135669,10.4821005,-4.3779154,-19.976372,37.040203,19.855322,-0.24089722,-10.28565,1.1954755,4.171676,-10.839296
284,12.798033,7.135669,10.4821005,-4.3779154,-19.976372,37.040203,19.855322,-0.24089722,-10.28565,1.1954755,4.171676,-10.839296
285,12.798033,7.135669,10.4821005,-4.3779154,-19.976372,37.040203,19.855322,-0.24089722,-10.28565,1.1954755,4.171676,-10.839296
286,12.798033,7.135669,10.4821005,-4.3779154,-19.976372,37.040203,19.855322,-0.24089722,-10.28565,1.1954755,4.171676,-10.839296
287,12.798033,7.135669,10.4821005,-4.3779154,-19.976372,37.040203,19.855322,-0.24089722,-10.28565,1.1954755,4.171676,-10.839296
288,12.798033,7.135669,10.4821005,-4.3779154,-19.976372,37.040203,19.855322,-0.24089722,-10.28565,1.1954755,4.171676,-10.839296
289,12.798033,7.135669,10.4821005,-4.3779154,-19.976372,37.040203,19.855322,-0.24089722,-10.28565,1.1954755,4.171676,-10.839296
290,12.798033,7.135669,10.4821005,-4.3779154,-19.976372,37.040203,19.855322,-0.24089722,-10.28565,1.1954755,4.171676,-10.839296
291,12.798033,7.135669,10.4821005,-4.3779154,-19.976372,37.040203,19.855322,-0.24089722,-10.28565,1.1954755,4.171676,-10.839296
292,12.798033,7.135669,10.4821005,-4.3779154,-19.976372,37.040203,19.855322,-0.24089722,-10.28565,1.1954755,4.171676,-10.839296
293,12.798033,7.135669,10.4821005,-4.3779154,-19.976372,37.040203,19.855322,-0.24089722,-10.28565,1.1954755,4.171676,-10.839296
294,12.798033,7.135669,10.4821005,-4.3779154,-19.976372,37.040203,19.855322,-0.24089722,-10.28565,1.1954755,4.171676,-10.839296
295,12.798033,7.135669,10.4821005,-4.3779154,-19.976372,37.040203,19.855322,-0.24089722,-10.28565,1.1954755,4.171676,-10.839296
296,12.798033,7.135669,10.4821005,-4.3779154,-19.976372,37.040203,19.855322,-0.24089722,-10.28565,1.1954755,4.171676,-10.839296
297,12.798033,7.135669,10.4821005,-4.3779154,-19.976372,37.040203,19.855322,-0.24089722,-10.28565,1.1954755,4.171676,-10.839296
298,12.798033,7.135669,10.4821005,-4.3779154,-19.976372,37.040203,19.855322,-0.24089722,-10.28565,1.1954755,4.171676,-10.839296
299,12.798033,7.135669,10.4821005,-4.3779154,-19.976372,37.040203,19.855322,-0.24089722,-10.28565,1.1954755,4.171676,-10.839296
300,12.798033,7.135669,10.4821005,-4.3779154,-19.976372,37.040203,19.855322,-0.24089722,-10.28565,1.1954755,4.171676,-10.839296
301,12.798033,7.135669,10.4821005,-4.3779154,-19.976372,37.040203,19.855322,-0.24089722,-10.28565,1.1954755,4.171676,-10.839296
302,12.798033,7.135669,10.4821005,-4.3779154,-19.976372,37.040203,19.855322,-0.24089722,-10.28565,1.1954755,4.171676,-10.839296
303,12.798033,7.135669,10.4821005,-4.3779154,-19.976372,37.040203,19.855322,-0.24089722,-10.28565,1.1954755,4.171676,-10.839296
304,12.798033,7.135669,10.4821005,-4.3779154,-19.976372,37.040203,19.855322,-0.24089722,-10.28565,1.1954755,4.171676,-10.839296
305,12.798033,7.135669,10.4821005,-4.3779154,-19.976372,37.040203,19.855322,-0.24089722,-10.28565,1.1954755,4.171676,-10.839296
306,12.798033,7.135669,10.4821005,-4.3779154,-19.976372,37.040203,19.855322,-0.24089722,-10.28565,1.1954755,4.171676,-10.839296
307,12.798033,7.135669,10.4821005,-4.3779154,-19.976372,37.040203,19.855322,-0.24089722,-10.28565,1.1954755,4.171676,-10.839296
308,12.798033,7.135669,10.4821005,-4.3779154,-19.976372,37.040203,19.855322,-0.24089722,-10.28565,1.1954755,4.171676,-10.839296
309,12.798033,7.135669,10.4821005,-4.3779154,-19.976372,37.040203,19.855322,-0.24089722,-10.28565,1.1954755,4.171676,-10.839296
310,12.798033,7.135669,10.4821005,-4.3779154,-19.976372,37.040203,19.855322,-0.24089722,-10.28565,1.1954755,4.171676,-10.839296
311,12.798033,7.135669,10.4821005,-4.3779154,-19.976372,37.040203,19.855322,-0.24089722,-10.28565,1.1954755,4.171676,-10.839296
312,12.798033,7.135669,10.4821005,-4.3779154,-19.976372,37.040203,19.855322,-0.24089722,-10.28565,1.1954755,4.171676,-10.839296
313,12.798033,7.135669,10.4821005,-4.3779154,-19.976372,37.040203,19.855322,-0.24089722,-10.28565,1.1954755,4.171676,-10.839296
314,12.798033,7.135669,10.4821005,-4.3779154,-19.976372,37.040203,19.855322,-0.24089722,-10.28565,1.1954755,4.171676,-10.839296
315,12.798033,7.135669,10.4821005,-4.3779154,-19.976372,37.040203,19.855322,-0.24089722,-10.28565,1.1954755,4.171676,-10.839296
316,12.798033,7.135669,10.4821005,-4.3779154,-19.976372,37.040203,19.855322,-0.24089722,-10.28565,1.1954755,4.171676,-10.839296
317,12.798033,7.135669,10.4821005,-4.3779154,-19.976372,37.040203,19.855322,-0.24089722,-10.28565,1.1954755,4.171676,-10.839296
318,12.798033,7.135669,10.4821005,-4.3779154,-19.976372,37.040203,19.855322,-0.24089722,-10.28565,1.1954755,4.171676,-10.839296
319,12.798033,7.135669,10.4821005,-4.3779154,-19.976372,37.040203,19.855322,-0.24089722,-10.28565,1.1954755,4.171676,-10.839296
320,12.798033,7.135669,10.4821005,-4.3779154,-19.976372,37.040203,19.855322,-0.24089722,-10.28565,1.1954755,4.171676,-10.839296
321,12.798033,7.135669,10.4821005,-4.3779154,-19.976372,37.040203,19.855322,-0.24089722,-10.28565,1.1954755,4.171676,-10.839296
322,12.798033,7.135669,10.4821005,-4.3779154,-19.976372,37.040203,19.855322,-0.24089722,-10.28565,1.1954755,4.171676,-10.839296
323,12.798033,7.135669,10.4821005,-4.3779154,-19.976372,37.040203,19.855322,-0.24089722,-10.28565,1.1954755,4.171676,-10.839296
324,12.798033,7.135669,10.4821005,-4.3779154,-19.976372,37.040203,19.855322,-0.24089722,-10.28565,1.1954755,4.171676,-10.839296
325,12.798033,7.135669,10.4821005,-4.3779154,-19.976372,37.040203,19.855322,-0.24089722,-10.28565,1.1954755,4.171676,-10.839296
326,12.798033,7.135669,10.4821005,-4.3779154,-19.976372,37.040203,19.855322,-0.24089722,-10.28565,1.1954755,4.171676,-10.839296
327,12.798033,7.135669,10.4821005,-4.3779154,-19.976372,37.040203,19.855322,-0.24089722,-10.28565,1.1954755,4.171676,-10.839296
328,12.798033,7.135669,10.4821005,-4.3779154,-19.976372,37.040203,19.855322,-0.24089722,-10.28565,1.1954755,4.171676,-10.839296
329,12.798033,7.135669,10.4821005,-4.3779154,-19.976372,37.040203,19.855322,-0.24089722,-10.28565,1.1954755,4.171676,-10.839296
330,12.798033,7.135669,10.4821005,-4.3779154,-19.976372,37.040203,19.855322,-0.24089722,-10.28565,1.1954755,4.171676,-10.839296
331,12.798033,7.135669,10.4821005,-4.3779154,-19.976372,37.040203,19.855322,-0.24089722,-10.28565,1.1954755,4.171676,-10.839296
332,12.798033,7.135669,10.4821005,-4.3779154,-19.976372,37.040203,19.855322,-0.24089722,-10.28565,1.1954755,4.171676,-10.839296
333,12.798033,7.135669,10.4821005,-4.3779154,-19.976372,37.040203,19.855322,-0.24089722,-10.28565,1.1954755,4.171676,-10.839296
334,12.798033,7.135669,10.4821005,-4.3779154,-19.976372,37.040203,19.855322,-0.24089722,-10.28565,1.1954755,4.171676,-10.839296
335,12.798033,7.135669,10.4821005,-4.3779154,-19.976372,37.040203,19.855322,-0.24089722,-10.28565,1.1954755,4.171676,-10.839296
336,12.798033,7.135669,10.4821005,-4.3779154,-19.976372,37.040203,19.855322,-0.24089722,-10.28565,1.1954755,4.171676,-10.839296
337,12.798033,7.135669,10.4821005,-4.3779154,-19.976372,37.040203,19.855322,-0.24089722,-10.28565,1.1954755,4.171676,-10.839296
338,12.798033,7.135669,10.4821005,-4.3779154,-19.976372,37.040203,19.855322,-0.24089722,-10.28565,1.1954755,4.171676,-10.839296
339,12.798033,7.135669,10.4821005,-4.3779154,-19.976372,37.040203,19.855322,-0.24089722,-10.28565,1.1954755,4.171676,-10.839296
340,12.798033,7.135669,10.4821005,-4.3779154,-19.976372,37.040203,19.855322,-0.24089722,-10.28565,1.1954755,4.171676,-10.839296
341,12.798033,7.135669,10.4821005,-4.3779154,-19.976372,37.040203,19.855322,-0.24089722,-10.28565,1.1954755,4.171676,-10.839296
342,12.798033,7.135669,10.4821005,-4.3779154,-19.976372,37.040203,19.855322,-0.24089722,-10.28565,1.1954755,4.171676,-10.839296
343,12.798033,7.135669,10.4821005,-4.3779154,-19.976372,37.040203,19.855322,-0.24089722,-10.28565,1.1954755,4.171676,-10.839296
344,12.798033,7.135669,10.4821005,-4.3779154,-19.976372,37.040203,19.855322,-0.24089722,-10.28565,1.1954755,4.171676,-10.839296
345,12.798033,7.135669,10.4821005,-4.3779154,-19.976372,37.040203,19.855322,-0.24089722,-10.28565,1.1954755,4.171676,-10.839296
346,12.798033,7.135669,10.4821005,-4.3779154,-19.976372,37.040203,19.855322,-0.24089722,-10.28565,1.1954755,4.171676,-10.839296
347,12.798033,7.135669,10.4821005,-4.3779154,-19.976372,37.040203,19.855322,-0.24089722,-10.28565,1.1954755,4.171676,-10.839296
348,12.798033,7.135669,10.4821005,-4.3779154,-19.976372,37.040203,19.855322,-0.24089722,-10.28565,1.1954755,4.171676,-10.839296
349,12.798033,7.135669,10.4821005,-4.3779154,-19.976372,37.040203,19.855322,-0.24089722,-10.28565,1.1954755,4.171676,-10.839296
350,12.798033,7.135669,10.4821005,-4.3779154,-19.976372,37.040203,19.855322,-0.24089722,-10.28565,1.1954755,4.171676,-10.839296
351,12.798033,7.135669,10.4821005,-4.3779154,-19.976372,37.040203,19.855322,-0.24089722,-10.28565,1.1954755,4.171676,-10.839296
352,12.798033,7.135669,10.4821005,-4.3779154,-19.976372,37.040203,19.855322,-0.24089722,-10.28565,1.1954755,4.171676,-10.839296
353,12.798033,7.135669,10.4821005,-4.3779154,-19.976372,37.040203,19.855322,-0.24089722,-10.28565,1.1954755,4.171676,-10.839296
354,12.798033,7.135669,10.4821005,-4.3779154,-19.976372,37.040203,19.855322,-0.24089722,-10.28565,1.1954755,4.171676,-10.839296
355,12.798033,7.135669,10.4821005,-4.3779154,-19.976372,37.040203,19.855322,-0.24089722,-10.28565,1.1954755,4.171676,-10.839296
356,12.798033,7.135669,10.4821005,-4.3779154,-19.976372,37.040203,19.855322,-0.24089722,-10.28565,1.1954755,4.171676,-10.839296
357,12.798033,7.135669,10.4821005,-4.3779154,-19.976372,37.040203,19.855322,-0.24089722,-10.28565,1.1954755,4.171676,-10.839296
358,12.798033,7.135669,10.4821005,-4.3779154,-19.976372,37.040203,19.855322,-0.24089722,-10.28565,1.1954755,4.171676,-10.839296
359,12.798033,7.135669,10.4821005,-4.3779154,-19.976372,37.040203,19.855322,-0.24089722,-10.28565,1.1954755,4.171676,-10.839296
360,12.798033,7.135669,10.4821005,-4.3779154,-19.976372,37.040203,19.855322,-0.24089722,-10.28565,1.1954755,4.171676,-10.839296
361,12.798033,7.135669,10.4821005,-4.3779154,-19.976372,37.040203,19.855322,-0.24089722,-10.28565,1.1954755,4.171676,-10.839296
362,12.798033,7.135669,10.4821005,-4.3779154,-19.976372,37.040203,19.855322,-0.24089722,-10.28565,1.1954755,4.171676,-10.839296
363,12.798033,7.135669,10.4821005,-4.3779154,-19.976372,37.040203,19.855322,-0.24089722,-10.28565,1.1954755,4.171676,-10.839296
364,12.798033,7.135669,10.4821005,-4.3779154,-19.976372,37.040203,19.855322,-0.24089722,-10.28565,1.1954755,4.171676,-10.839296
365,12.798033,7.135669,10.4821005,-4.3779154,-19.976372,37.040203,19.855322,-0.24089722,-10.28565,1.1954755,4.171676,-10.839296
366,12.798033,7.135669,10.4821005,-4.3779154,-19.976372,37.040203,19.855322,-0.24089722,-10.28565,1.1954755,4.171676,-10.839296
367,12.798033,7.135669,10.4821005,-4.3779154,-19.976372,37.040203,19.855322,-0.24089722,-10.28565,1.1954755,4.171676,-10.839296
368,12.798033,7.135669,10.4821005,-4.3779154,-19.976372,37.040203,19.855322,-0.24089722,-10.28565,1.1954755,4.171676,-10.839296
369,12.798033,7.135669,10.4821005,-4.3779154,-19.976372,37.040203,19.855322,-0.24089722,-10.28565,1.1954755,4.171676,-10.839296
370,12.798033,7.135669,10.4821005,-4.3779154,-19.976372,37.040203,19.855322,-0.24089722,-10.28565,1.1954755,4.171676,-10.839296
371,12.798033,7.135669,10.4821005,-4.3779154,-19.976372,37.040203,19.855322,-0.24089722,-10.28565,1.1954755,4.171676,-10.839296
372,12.798033,7.135669,10.4821005,-4.3779154,-19.976372,37.040203,19.855322,-0.24089722,-10.28565,1.1954755,4.171676,-10.839296
373,12.798033,7.135669,10.4821005,-4.3779154,-19.976372,37.040203,19.855322,-0.24089722,-10.28565,1.1954755,4.171676,-10.839296
374,12.798033,7.135669,10.4821005,-4.3779154,-19.976372,37.040203,19.855322,-0.24089722,-10.28565,1.1954755,4.171676,-10.839296
375,12.798033,7.135669,10.4821005,-4.3779154,-19.976372,37.040203,19.855322,-0.24089722,-10.28565,1.1954755,4.171676,-10.839296
376,12.798033,7.135669,10.4821005,-4.3779154,-19.976372,37.040203,19.855322,-0.24089722,-10.28565,1.1954755,4.171676,-10.839296
377,12.798033,7.135669,10.4821005,-4.3779154,-19.976372,37.040203,19.855322,-0.24089722,-10.28565,1.1954755,4.171676,-10.839296
378,12.798033,7.135669,10.4821005,-4.3779154,-19.976372,37.040203,19.855322,-0.24089722,-10.28565,1.1954755,4.171676,-10.839296
379,12.798033,7.135669,10.4821005,-4.3779154,-19.976372,37.040203,19.855322,-0.24089722,-10.28565,1.1954755,4.171676,-10.839296
380,12.798033,7.135669,10.4821005,-4.3779154,-19.976372,37.040203,19.855322,-0.24089722,-10.28565,1.1954755,4.171676,-10.839296
381,12.798033,7.135669,10.4821005,-4.3779154,-19.976372,37.040203,19.855322,-0.24089722,-10.28565,1.1954755,4.171676,-10.839296
382,12.798033,7.135669,10.4821005,-4.3779154,-19.976372,37.040203,19.855322,-0.24089722,-10.28565,1.1954755,4.171676,-10.839296
383,12.798033,7.135669,10.4821005,-4.3779154,-19.976372,37.040203,19.855322,-0.24089722,-10.28565,1.1954755,4.171676,-10.839296
384,12.798033,7.135669,10.4821005,-4.3779154,-19.976372,37.040203,19.855322,-0.24089722,-10.28565,1.1954755,4.171676,-10.839296
385,12.798033,7.135669,10.4821005,-4.3779154,-19.976372,37.040203,19.855322,-0.24089722,-10.28565,1.1954755,4.171676,-10.839296
386,12.798033,7.135669,10.4821005,-4.3779154,-19.976372,37.040203,19.855322,-0.24089722,-10.28565,1.1954755,4.171676,-10.839296
387,12.798033,7.135669,10.4821005,-4.3779154,-19.976372,37.040203,19.855322,-0.24089722,-10.28565,1.1954755,4.171676,-10.839296
388,12.798033,7.135669,10.4821005,-4.3779154,-19.976372,37.040203,19.855322,-0.24089722,-10.28565,1.1954755,4.171676,-10.839296
389,12.798033,7.135669,10.4821005,-4.3779154,-19.976372,37.040203,19.855322,-0.24089722,-10.28565,1.1954755,4.171676,-10.839296
390,12.798033,7.135669,10.4821005,-4.3779154,-19.976372,37.040203,19.855322,-0.24089722,-10.28565,1.1954755,4.171676,-10.839296
391,12.798033,7.135669,10.4821005,-4.3779154,-19.976372,37.040203,19.855322,-0.24089722,-10.28565,1.1954755,4.171676,-10.839296
392,12.798033,7.135669,10.4821005,-4.3779154,-19.976372,37.040203,19.855322,-0.24089722,-10.28565,1.1954755,4.171676,-10.839296
393,12.798033,7.135669,10.4821005,-4.3779154,-19.976372,37.040203,19.855322,-0.24089722,-10.28565,1.1954755,4.171676,-10.839296
394,12.798033,7.135669,10.4821005,-4.3779154,-19.976372,37.040203,19.855322,-0.24089722,-10.28565,1.1954755,4.171676,-10.839296
395,12.798033,7.135669,10.4821005,-4.3779154,-19.976372,37.040203,19.855322,-0.24089722,-10.28565,1.1954755,4.171676,-10.839296
396,12.798033,7.135669,10.4821005,-4.3779154,-19.976372,37.040203,19.855322,-0.24089722,-10.28565,1.1954755,4.171676,-10.839296
397,12.798033,7.135669,10.4821005,-4.3779154,-19.976372,37.040203,19.855322,-0.24089722,-10.28565,1.1954755,4.171676,-10.839296
398,12.798033,7.135669,10.4821005,-4.3779154,-19.976372,37.040203,19.855322,-0.24089722,-10.28565,1.1954755,4.171676,-10.839296
399,12.798033,7.135669,10.4821005,-4.3779154,-19.976372,37.040203,19.855322,-0.24089722,-10.28565,1.1954755,4.171676,-10.839296
400,12.798033,7.135669,10.4821005,-4.3779154,-19.976372,37.040203,19.855322,-0.24089722,-10.28565,1.1954755,4.171676,-10.839296
401,12.798033,7.135669,10.4821005,-4.3779154,-19.976372,37.040203,19.855322,-0.24089722,-10.28565,1.1954755,4.171676,-10.839296
402,12.798033,7.135669,10.4821005,-4.3779154,-19.976372,37.040203,19.855322,-0.24089722,-10.28565,1.1954755,4.171676,-10.839296
403,12.798033,7.135669,10.4821005,-4.3779154,-19.976372,37.040203,19.855322,-0.24089722,-10.28565,1.1954755,4.171676,-10.839296
404,12.798033,7.135669,10.4821005,-4.3779154,-19.976372,37.040203,19.855322,-0.24089722,-10.28565,1.1954755,4.171676,-10.839296
405,12.798033,7.135669,10.4821005,-4.3779154,-19.976372,37.040203,19.855322,-0.24089722,-10.28565,1.1954755,4.171676,-10.839296
406,12.798033,7.135669,10.4821005,-4.3779154,-19.976372,37.040203,19.855322,-0.24089722,-10.28565,1.1954755,4.171676,-10.839296
407,12.798033,7.135669,10.4821005,-4.3779154,-19.976372,37.040203,19.855322,-0.24089722,-10.28565,1.1954755,4.171676,-10.839296
408,12.798033,7.135669,10.4821005,-4.3779154,-19.976372,37.040203,19.855322,-0.24089722,-10.28565,1.1954755,4.171676,-10.839296
409,12.798033,7.135669,10.4821005,-4.3779154,-19.976372,37.040203,19.855322,-0.24089722,-10.28565,1.1954755,4.171676,-10.839296
410,12.798033,7.135669,10.4821005,-4.3779154,-19.976372,37.040203,19.855322,-0.24089722,-10.28565,1.1954755,4.171676,-10.839296
411,12.798033,7.135669,10.4821005,-4.3779154,-19.976372,37.040203,19.855322,-0.24089722,-10.28565,1.1954755,4.171676,-10.839296
412,12.798033,7.135669,10.4821005,-4.3779154,-19.976372,37.040203,19.855322,-0.24089722,-10.28565,1.1954755,4.171676,-10.839296
413,12.798033,7.135669,10.4821005,-4.3779154,-19.976372,37.040203,19.855322,-0.24089722,-10.28565,1.1954755,4.171676,-10.839296
414,12.798033,7.135669,10.4821005,-4.3779154,-19.976372,37.040203,19.855322,-0.24089722,-10.28565,1.1954755,4.171676,-10.839296
415,12.798033,7.135669,10.4821005,-4.3779154,-19.976372,37.040203,19.855322,-0.24089722,-10.28565,1.1954755,4.171676,-10.839296
416,12.798033,7.135669,10.4821005,-4.3779154,-19.976372,37.040203,19.855322,-0.24089722,-10.28565,1.1954755,4.171676,-10.839296
417,12.798033,7.135669,10.4821005,-4.3779154,-19.976372,37.040203,19.855322,-0.24089722,-10.28565,1.1954755,4.171676,-10.839296
418,12.798033,7.135669,10.4821005,-4.3779154,-19.976372,37.040203,19.855322,-0.24089722,-10.28565,1.1954755,4.171676,-10.839296
419,12.798033,7.135669,10.4821005,-4.3779154,-19.976372,37.040203,19.855322,-0.24089722,-10.28565,1.1954755,4.171676,-10.839296
420,12.798033,7.135669,10.4821005,-4.3779154,-19.976372,37.040203,19.855322,-0.24089722,-10.28565,1.1954755,4.171676,-10.839296
421,12.798033,7.135669,10.4821005,-4.3779154,-19.976372,37.040203,19.855322,-0.24089722,-10.28565,1.1954755,4.171676,-10.839296
422,12.798033,7.135669,10.4821005,-4.3779154,-19.976372,37.040203,19.855322,-0.24089722,-10.28565,1.1954755,4.171676,-10.839296
423,12.798033,7.135669,10.4821005,-4.3779154,-19.976372,37.040203,19.855322,-0.24089722,-10.28565,1.1954755,4.171676,-10.839296
424,12.798033,7.135669,10.4821005,-4.3779154,-19.976372,37.040203,19.855322,-0.24089722,-10.28565,1.1954755,4.171676,-10.839296
425,12.798033,7.135669,10.4821005,-4.3779154,-19.976372,37.040203,19.855322,-0.24089722,-10.28565,1.1954755,4.171676,-10.839296
426,12.798033,7.135669,10.4821005,-4.3779154,-19.976372,37.040203,19.855322,-0.24089722,-10.28565,1.1954755,4.171676,-10.839296
427,12.798033,7.135669,10.4821005,-4.3779154,-19.976372,37.040203,19.855322,-0.24089722,-10.28565,1.1954755,4.171676,-10.839296
428,12.798033,7.135669,10.4821005,-4.3779154,-19.976372,37.040203,19.855322,-0.24089722,-10.28565,1.1954755,4.171676,-10.839296
429,12.798033,7.135669,10.4821005,-4.3779154,-19.976372,37.040203,19.855322,-0.24089722,-10.28565,1.1954755,4.171676,-10.839296
430,12.798033,7.135669,10.4821005,-4.3779154,-19.976372,37.040203,19.855322,-0.24089722,-10.28565,1.1954755,4.171676,-10.839296
431,12.798033,7.135669,10.4821005,-4.3779154,-19.976372,37.040203,19.855322,-0.24089722,-10.28565,1.1954755,4.171676,-10.839296
432,12.798033,7.135669,10.4821005,-4.3779154,-19.976372,37.040203,19.855322,-0.24089722,-10.28565,1.1954755,4.171676,-10.839296
433,12.798033,7.135669,10.4821005,-4.3779154,-19.976372,37.040203,19.855322,-0.24089722,-10.28565,1.1954755,4.171676,-10.839296
434,12.798033,7.135669,10.4821005,-4.3779154,-19.976372,37.040203,19.855322,-0.24089722,-10.28565,1.1954755,4.171676,-10.839296
435,12.798033,7.135669,10.4821005,-4.3779154,-19.976372,37.040203,19.855322,-0.24089722,-10.28565,1.1954755,4.171676,-10.839296
436,12.798033,7.135669,10.4821005,-4.3779154,-19.976372,37.040203,19.855322,-0.24089722,-10.28565,1.1954755,4.171676,-10.839296
437,12.798033,7.135669,10.4821005,-4.3779154,-19.976372,37.040203,19.855322,-0.24089722,-10.28565,1.1954755,4.171676,-10.839296
438,12.798033,7.135669,10.4821005,-4.3779154,-19.976372,37.040203,19.855322,-0.24089722,-10.28565,1.1954755,4.171676,-10.839296
439,12.798033,7.135669,10.4821005,-4.3779154,-19.976372,37.040203,19.855322,-0.24089722,-10.28565,1.1954755,4.171676,-10.839296
440,12.798033,7.135669,10.4821005,-4.3779154,-19.976372,37.040203,19.855322,-0.24089722,-10.28565,1.1954755,4.171676,-10.839296
441,12.798033,7.135669,10.4821005,-4.3779154,-19.976372,37.040203,19.855322,-0.24089722,-10.28565,1.1954755,4.171676,-10.839296
442,12.798033,7.135669,10.4821005,-4.3779154,-19.976372,37.040203,19.855322,-0.24089722,-10.28565,1.1954755,4.171676,-10.839296
443,12.798033,7.135669,10.4821005,-4.3779154,-19.976372,37.040203,19.855322,-0.24089722,-10.28565,1.1954755,4.171676,-10.839296
444,12.798033,7.135669,10.4821005,-4.3779154,-19.976372,37.040203,19.855322,-0.24089722,-10.28565,1.1954755,4.171676,-10.839296
445,12.798033,7.135669,10.4821005,-4.3779154,-19.976372,37.040203,19.855322,-0.24089722,-10.28565,1.1954755,4.171676,-10.839296
446,12.798033,7.135669,10.4821005,-4.3779154,-19.976372,37.040203,19.855322,-0.24089722,-10.28565,1.1954755,4.171676,-10.839296
447,12.798033,7.135669,10.4821005,-4.3779154,-19.976372,37.040203,19.855322,-0.24089722,-10.28565,1.1954755,4.171676,-10.839296
448,12.798033,7.135669,10.4821005,-4.3779154,-19.976372,37.040203,19.855322,-0.24089722,-10.28565,1.1954755,4.171676,-10.839296
449,12.798033,7.135669,10.4821005,-4.3779154,-19.976372,37.040203,19.855322,-0.24089722,-10.28565,1.1954755,4.171676,-10.839296
450,12.798033,7.135669,10.4821005,-4.3779154,-19.976372,37.040203,19.855322,-0.24089722,-10.28565,1.1954755,4.171676,-10.839296
451,12.798033,7.135669,10.4821005,-4.3779154,-19.976372,37.040203,19.855322,-0.24089722,-10.28565,1.1954755,4.171676,-10.839296
452,12.798033,7.135669,10.4821005,-4.3779154,-19.976372,37.040203,19.855322,-0.24089722,-10.28565,1.1954755,4.171676,-10.839296
453,12.798033,7.135669,10.4821005,-4.3779154,-19.976372,37.040203,19.855322,-0.24089722,-10.28565,1.1954755,4.171676,-10.839296
454,12.798033,7.135669,10.4821005,-4.3779154,-19.976372,37.040203,19.855322,-0.24089722,-10.28565,1.1954755,4.171676,-10.839296
455,12.798033,7.135669,10.4821005,-4.3779154,-19.976372,37.040203,19.855322,-0.24089722,-10.28565,1.1954755,4.171676,-10.839296
456,12.798033,7.135669,10.4821005,-4.3779154,-19.976372,37.040203,19.855322,-0.24089722,-10.28565,1.1954755,4.171676,-10.839296
457,12.798033,7.135669,10.4821005,-4.3779154,-19.976372,37.040203,19.855322,-0.24089722,-10.28565,1.1954755,4.171676,-10.839296
458,12.798033,7.135669,10.4821005,-4.3779154,-19.976372,37.040203,19.855322,-0.24089722,-10.28565,1.1954755,4.171676,-10.839296
459,12.798033,7.135669,10.4821005,-4.3779154,-19.976372,37.040203,19.855322,-0.24089722,-10.28565,1.1954755,4.171676,-10.839296
460,12.798033,7.135669,10.4821005,-4.3779154,-19.976372,37.040203,19.855322,-0.24089722,-10.28565,1.1954755,4.171676,-10.839296
461,12.798033,7.135669,10.4821005,-4.3779154,-19.976372,37.040203,19.855322,-0.24089722,-10.28565,1.1954755,4.171676,-10.839296
462,12.798033,7.135669,10.4821005,-4.3779154,-19.976372,37.040203,19.855322,-0.24089722,-10.28565,1.1954755,4.171676,-10.839296
463,12.798033,7.135669,10.4821005,-4.3779154,-19.976372,37.040203,19.855322,-0.24089722,-10.28565,1.1954755,4.171676,-10.839296
464,12.798033,7.135669,10.4821005,-4.3779154,-19.976372,37.040203,19.855322,-0.24089722,-10.28565,1.1954755,4.171676,-10.839296
465,12.798033,7.135669,10.4821005,-4.3779154,-19.976372,37.040203,19.855322,-0.24089722,-10.28565,1.1954755,4.171676,-10.839296
466,12.798033,7.135669,10.4821005,-4.3779154,-19.976372,37.040203,19.855322,-0.24089722,-10.28565,1.1954755,4.171676,-10.839296
467,12.798033,7.135669,10.4821005,-4.3779154,-19.976372,37.040203,19.855322,-0.24089722,-10.28565,1.1954755,4.171676,-10.839296
468,12.798033,7.135669,10.4821005,-4.3779154,-19.976372,37.040203,19.855322,-0.24089722,-10.28565,1.1954755,4.171676,-10.839296
469,12.798033,7.135669,10.4821005,-4.3779154,-19.976372,37.040203,19.855322,-0.24089722,-10.28565,1.1954755,4.171676,-10.839296
470,12.798033,7.135669,10.4821005,-4.3779154,-19.976372,37.040203,19.855322,-0.24089722,-10.28565,1.1954755,4.171676,-10.839296
471,12.798033,7.135669,10.4821005,-4.3779154,-19.976372,37.040203,19.855322,-0.24089722,-10.28565,1.1954755,4.171676,-10.839296
472,12.798033,7.135669,10.4821005,-4.3779154,-19.976372,37.040203,19.855322,-0.24089722,-10.28565,1.1954755,4.171676,-10.839296
473,12.798033,7.135669,10.4821005,-4.3779154,-19.976372,37.040203,19.855322,-0.24089722,-10.28565,1.1954755,4.171676,-10.839296
474,12.798033,7.135669,10.4821005,-4.3779154,-19.976372,37.040203,19.855322,-0.24089722,-10.28565,1.1954755,4.171676,-10.839296
475,12.798033,7.135669,10.4821005,-4.3779154,-19.976372,37.040203,19.855322,-0.24089722,-10.28565,1.1954755,4.171676,-10.839296
476,12.798033,7.135669,10.4821005,-4.3779154,-19.976372,37.040203,19.855322,-0.24089722,-10.28565,1.1954755,4.171676,-10.839296
477,12.798033,7.135669,10.4821005,-4.3779154,-19.976372,37.040203,19.855322,-0.24089722,-10.28565,1.1954755,4.171676,-10.839296
478,12.798033,7.135669,10.4821005,-4.3779154,-19.976372,37.040203,19.855322,-0.24089722,-10.28565,1.1954755,4.171676,-10.839296
479,12.798033,7.135669,10.4821005,-4.3779154,-19.976372,37.040203,19.855322,-0.24089722,-10.28565,1.1954755,4.171676,-10.839296
480,12.798033,7.135669,10.4821005,-4.3779154,-19.976372,37.040203,19.855322,-0.24089722,-10.28565,1.1954755,4.171676,-10.839296
481,12.798033,7.135669,10.4821005,-4.3779154,-19.976372,37.040203,19.855322,-0.24089722,-10.28565,1.1954755,4.171676,-10.839296
482,12.798033,7.135669,10.4821005,-4.3779154,-19.976372,37.040203,19.855322,-0.24089722,-10.28565,1.1954755,4.171676,-10.839296
483,12.798033,7.135669,10.4821005,-4.3779154,-19.976372,37.040203,19.855322,-0.24089722,-10.28565,1.1954755,4.171676,-10.839296
484,12.798033,7.135669,10.4821005,-4.3779154,-19.976372,37.040203,19.855322,-0.24089722,-10.28565,1.1954755,4.171676,-10.839296
485,12.798033,7.135669,10.4821005,-4.3779154,-19.976372,37.040203,19.855322,-0.24089722,-10.28565,1.1954755,4.171676,-10.839296
486,12.798033,7.135669,10.4821005,-4.3779154,-19.976372,37.040203,19.855322,-0.24089722,-10.28565,1.1954755,4.171676,-10.839296
487,12.798033,7.135669,10.4821005,-4.3779154,-19.976372,37.040203,19.855322,-0.24089722,-10.28565,1.1954755,4.171676,-10.839296
488,12.798033,7.135669,10.4821005,-4.3779154,-19.976372,37.040203,19.855322,-0.24089722,-10.28565,1.1954755,4.171676,-10.839296
489,12.798033,7.135669,10.4821005,-4.3779154,-19.976372,37.040203,19.855322,-0.24089722,-10.28565,1.1954755,4.171676,-10.839296
490,12.798033,7.135669,10.4821005,-4.3779154,-19.976372,37.040203,19.855322,-0.24089722,-10.28565,1.1954755,4.171676,-10.839296
491,12.798033,7.135669,10.4821005,-4.3779154,-19.976372,37.040203,19.855322,-0.24089722,-10.28565,1.1954755,4.171676,-10.839296
492,12.798033,7.135669,10.4821005,-4.3779154,-19.976372,37.040203,19.855322,-0.24089722,-10.28565,1.1954755,4.171676,-10.839296
493,12.798033,7.135669,10.4821005,-4.3779154,-19.976372,37.040203,19.855322,-0.24089722,-10.28565,1.1954755,4.171676,-10.839296
494,12.798033,7.135669,10.4821005,-4.3779154,-19.976372,37.040203,19.855322,-0.24089722,-10.28565,1.1954755,4.171676,-10.839296
495,12.798033,7.135669,10.4821005,-4.3779154,-19.976372,37.040203,19.855322,-0.24089722,-10.28565,1.1954755,4.171676,-10.839296
496,12.798033,7.135669,10.4821005,-4.3779154,-19.976372,37.040203,19.855322,-0.24089722,-10.28565,1.1954755,4.171676,-10.839296
497,12.798033,7.135669,10.4821005,-4.3779154,-19.976372,37.040203,19.855322,-0.24089722,-10.28565,1.1954755,4.171676,-10.839296
498,12.798033,7.135669,10.4821005,-4.3779154,-19.976372,37.040203,19.855322,-0.24089722,-10.28565,1.1954755,4.171676,-10.839296
499,12.798033,7.135669,10.4821005,-4.3779154,-19.976372,37.040203,19.855322,-0.24089722,-10.28565,1.1954755,4.171676,-10.839296
500,12.798033,7.135669,10.4821005,-4.3779154,-19.976372,37.040203,19.855322,-0.24089722,-10.28565,1.1954755,4.171676,-10.839296
501,12.798033,7.135669,10.4821005,-4.3779154,-19.976372,37.040203,19.855322,-0.24089722,-10.28565,1.1954755,4.171676,-10.839296
502,12.798033,7.135669,10.4821005,-4.3779154,-19.976372,37.040203,19.855322,-0.24089722,-10.28565,1.1954755,4.171676,-10.839296
503,12.798033,7.135669,10.4821005,-4.3779154,-19.976372,37.040203,19.855322,-0.24089722,-10.28565,1.1954755,4.171676,-10.839296
504,12.798033,7.135669,10.4821005,-4.3779154,-19.976372,37.040203,19.855322,-0.24089722,-10.28565,1.1954755,4.171676,-10.839296
505,12.798033,7.135669,10.4821005,-4.3779154,-19.976372,37.040203,19.855322,-0.24089722,-10.28565,1.1954755,4.171676,-10.839296
506,12.798033,7.135669,10.4821005,-4.3779154,-19.976372,37.040203,19.855322,-0.24089722,-10.28565,1.1954755,4.171676,-10.839296
507,12.798033,7.135669,10.4821005,-4.3779154,-19.976372,37.040203,19.855322,-0.24089722,-10.28565,1.1954755,4.171676,-10.839296
508,12.798033,7.135669,10.4821005,-4.3779154,-19.976372,37.040203,19.855322,-0.24089722,-10.28565,1.1954755,4.171676,-10.839296
509,12.798033,7.135669,10.4821005,-4.3779154,-19.976372,37.040203,19.855322,-0.24089722,-10.28565,1.1954755,4.171676,-10.839296
510,12.798033,7.135669,10.4821005,-4.3779154,-19.976372,37.040203,19.855322,-0.24089722,-10.28565,1.1954755,4.171676,-10.839296
511,12.798033,7.135669,10.4821005,-4.3779154,-19.976372,37.040203,19.855322,-0.24089722,-10.28565,1.1954755,4.171676,-10.839296
512,12.798033,7.135669,10.4821005,-4.3779154,-19.976372,37.040203,19.855322,-0.24089722,-10.28565,1.1954755,4.171676,-10.839296
513,12.798033,7.135669,10.4821005,-4.3779154,-19.976372,37.040203,19.855322,-0.24089722,-10.28565,1.1954755,4.171676,-10.839296
514,12.798033,7.135669,10.4821005,-4.3779154,-19.976372,37.040203,19.855322,-0.24089722,-10.28565,1.1954755,4.171676,-10.839296
515,12.798033,7.135669,10.4821005,-4.3779154,-19.976372,37.040203,19.855322,-0.24089722,-10.28565,1.1954755,4.171676,-10.839296
516,12.798033,7.135669,10.4821005,-4.3779154,-19.976372,37.040203,19.855322,-0.24089722,-10.28565,1.1954755,4.171676,-10.839296
517,12.798033,7.135669,10.4821005,-4.3779154,-19.976372,37.040203,19.855322,-0.24089722,-10.28565,1.1954755,4.171676,-10.839296
518,12.798033,7.135669,10.4821005,-4.3779154,-19.976372,37.040203,19.855322,-0.24089722,-10.28565,1.1954755,4.171676,-10.839296
519,12.798033,7.135669,10.4821005,-4.3779154,-19.976372,37.040203,19.855322,-0.24089722,-10.28565,1.1954755,4.171676,-10.839296
520,12.798033,7.135669,10.4821005,-4.3779154,-19.976372,37.040203,19.855322,-0.24089722,-10.28565,1.1954755,4.171676,-10.839296
521,12.798033,7.135669,10.4821005,-4.3779154,-19.976372,37.040203,19.855322,-0.24089722,-10.28565,1.1954755,4.171676,-10.839296
522,12.798033,7.135669,10.4821005,-4.3779154,-19.976372,37.040203,19.855322,-0.24089722,-10.28565,1.1954755,4.171676,-10.839296
523,12.798033,7.135669,10.4821005,-4.3779154,-19.976372,37.040203,19.855322,-0.24089722,-10.28565,1.1954755,4.171676,-10.839296
524,12.798033,7.135669,10.4821005,-4.3779154,-19.976372,37.040203,19.855322,-0.24089722,-10.28565,1.1954755,4.171676,-10.839296
525,12.798033,7.135669,10.4821005,-4.3779154,-19.976372,37.040203,19.855322,-0.24089722,-10.28565,1.1954755,4.171676,-10.839296
526,12.798033,7.135669,10.4821005,-4.3779154,-19.976372,37.040203,19.855322,-0.24089722,-10.28565,1.1954755,4.171676,-10.839296
527,12.798033,7.135669,10.4821005,-4.3779154,-19.976372,37.040203,19.855322,-0.24089722,-10.28565,1.1954755,4.171676,-10.839296
528,12.798033,7.135669,10.4821005,-4.3779154,-19.976372,37.040203,19.855322,-0.24089722,-10.28565,1.1954755,4.171676,-10.839296
529,12.798033,7.135669,10.4821005,-4.3779154,-19.976372,37.040203,19.855322,-0.24089722,-10.28565,1.1954755,4.171676,-10.839296
530,12.798033,7.135669,10.4821005,-4.3779154,-19.976372,37.040203,19.855322,-0.24089722,-10.28565,1.1954755,4.171676,-10.839296
531,12.798033,7.135669,10.4821005,-4.3779154,-19.976372,37.040203,19.855322,-0.24089722,-10.28565,1.1954755,4.171676,-10.839296
532,12.798033,7.135669,10.4821005,-4.3779154,-19.976372,37.040203,19.855322,-0.24089722,-10.28565,1.1954755,4.171676,-10.839296
533,12.798033,7.135669,10.4821005,-4.3779154,-19.976372,37.040203,19.855322,-0.24089722,-10.28565,1.1954755,4.171676,-10.839296
534,12.798033,7.135669,10.4821005,-4.3779154,-19.976372,37.040203,19.855322,-0.24089722,-10.28565,1.1954755,4.171676,-10.839296
535,12.798033,7.135669,10.4821005,-4.3779154,-19.976372,37.040203,19.855322,-0.24089722,-10.28565,1.1954755,4.171676,-10.839296
536,12.798033,7.135669,10.4821005,-4.3779154,-19.976372,37.040203,19.855322,-0.24089722,-10.28565,1.1954755,4.171676,-10.839296
537,12.798033,7.135669,10.4821005,-4.3779154,-19.976372,37.040203,19.855322,-0.24089722,-10.28565,1.1954755,4.171676,-10.839296
538,12.798033,7.135669,10.4821005,-4.3779154,-19.976372,37.040203,19.855322,-0.24089722,-10.28565,1.1954755,4.171676,-10.839296
539,12.798033,7.135669,10.4821005,-4.3779154,-19.976372,37.040203,19.855322,-0.24089722,-10.28565,1.1954755,4.171676,-10.839296
540,12.798033,7.135669,10.4821005,-4.3779154,-19.976372,37.040203,19.855322,-0.24089722,-10.28565,1.1954755,4.171676,-10.839296
541,12.798033,7.135669,10.4821005,-4.3779154,-19.976372,37.040203,19.855322,-0.24089722,-10.28565,1.1954755,4.171676,-10.839296
542,12.798033,7.135669,10.4821005,-4.3779154,-19.976372,37.040203,19.855322,-0.24089722,-10.28565,1.1954755,4.171676,-10.839296
543,12.798033,7.135669,10.4821005,-4.3779154,-19.976372,37.040203,19.855322,-0.24089722,-10.28565,1.1954755,4.171676,-10.839296
544,12.798033,7.135669,10.4821005,-4.3779154,-19.976372,37.040203,19.855322,-0.24089722,-10.28565,1.1954755,4.171676,-10.839296
545,12.798033,7.135669,10.4821005,-4.3779154,-19.976372,37.040203,19.855322,-0.24089722,-10.28565,1.1954755,4.171676,-10.839296
546,12.798033,7.135669,10.4821005,-4.3779154,-19.976372,37.040203,19.855322,-0.24089722,-10.28565,1.1954755,4.171676,-10.839296
547,12.798033,7.135669,10.4821005,-4.3779154,-19.976372,37.040203,19.855322,-0.24089722,-10.28565,1.1954755,4.171676,-10.839296
548,12.798033,7.135669,10.4821005,-4.3779154,-19.976372,37.040203,19.855322,-0.24089722,-10.28565,1.1954755,4.171676,-10.839296
549,12.798033,7.135669,10.4821005,-4.3779154,-19.976372,37.040203,19.855322,-0.24089722,-10.28565,1.1954755,4.171676,-10.839296
550,12.798033,7.135669,10.4821005,-4.3779154,-19.976372,37.040203,19.855322,-0.24089722,-10.28565,1.1954755,4.171676,-10.839296
551,12.798033,7.135669,10.4821005,-4.3779154,-19.976372,37.040203,19.855322,-0.24089722,-10.28565,1.1954755,4.171676,-10.839296
552,12.798033,7.135669,10.4821005,-4.3779154,-19.976372,37.040203,19.855322,-0.24089722,-10.28565,1.1954755,4.171676,-10.839296
553,12.798033,7.135669,10.4821005,-4.3779154,-19.976372,37.040203,19.855322,-0.24089722,-10.28565,1.1954755,4.171676,-10.839296
554,12.798033,7.135669,10.4821005,-4.3779154,-19.976372,37.040203,19.855322,-0.24089722,-10.28565,1.1954755,4.171676,-10.839296
555,12.798033,7.135669,10.4821005,-4.3779154,-19.976372,37.040203,19.855322,-0.24089722,-10.28565,1.1954755,4.171676,-10.839296
556,12.798033,7.135669,10.4821005,-4.3779154,-19.976372,37.040203,19.855322,-0.24089722,-10.28565,1.1954755,4.171676,-10.839296
557,12.798033,7.135669,10.4821005,-4.3779154,-19.976372,37.040203,19.855322,-0.24089722,-10.28565,1.1954755,4.171676,-10.839296
558,12.798033,7.135669,10.4821005,-4.3779154,-19.976372,37.040203,19.855322,-0.24089722,-10.28565,1.1954755,4.171676,-10.839296
559,12.798033,7.135669,10.4821005,-4.3779154,-19.976372,37.040203,19.855322,-0.24089722,-10.28565,1.1954755,4.171676,-10.839296
560,12.798033,7.135669,10.4821005,-4.3779154,-19.976372,37.040203,19.855322,-0.24089722,-10.28565,1.1954755,4.171676,-10.839296
561,12.798033,7.135669,10.4821005,-4.3779154,-19.976372,37.040203,19.855322,-0.24089722,-10.28565,1.1954755,4.171676,-10.839296
562,12.798033,7.135669,10.4821005,-4.3779154,-19.976372,37.040203,19.855322,-0.24089722,-10.28565,1.1954755,4.171676,-10.839296
563,12.798033,7.135669,10.4821005,-4.3779154,-19.976372,37.040203,19.855322,-0.24089722,-10.28565,1.1954755,4.171676,-10.839296
564,12.798033,7.135669,10.4821005,-4.3779154,-19.976372,37.040203,19.855322,-0.24089722,-10.28565,1.1954755,4.171676,-10.839296
565,12.798033,7.135669,10.4821005,-4.3779154,-19.976372,37.040203,19.855322,-0.24089722,-10.28565,1.1954755,4.171676,-10.839296
566,12.798033,7.135669,10.4821005,-4.3779154,-19.976372,37.040203,19.855322,-0.24089722,-10.28565,1.1954755,4.171676,-10.839296
567,12.798033,7.135669,10.4821005,-4.3779154,-19.976372,37.040203,19.855322,-0.24089722,-10.28565,1.1954755,4.171676,-10.839296
568,12.798033,7.135669,10.4821005,-4.3779154,-19.976372,37.040203,19.855322,-0.24089722,-10.28565,1.1954755,4.171676,-10.839296
569,12.798033,7.135669,10.4821005,-4.3779154,-19.976372,37.040203,19.855322,-0.24089722,-10.28565,1.1954755,4.171676,-10.839296
570,12.798033,7.135669,10.4821005,-4.3779154,-19.976372,37.040203,19.855322,-0.24089722,-10.28565,1.1954755,4.171676,-10.839296
571,12.798033,7.135669,10.4821005,-4.3779154,-19.976372,37.040203,19.855322,-0.24089722,-10.28565,1.1954755,4.171676,-10.839296
572,12.798033,7.135669,10.4821005,-4.3779154,-19.976372,37.040203,19.855322,-0.24089722,-10.28565,1.1954755,4.171676,-10.839296
573,12.798033,7.135669,10.4821005,-4.3779154,-19.976372,37.040203,19.855322,-0.24089722,-10.28565,1.1954755,4.171676,-10.839296
574,12.798033,7.135669,10.4821005,-4.3779154,-19.976372,37.040203,19.855322,-0.24089722,-10.28565,1.1954755,4.171676,-10.839296
575,12.798033,7.135669,10.4821005,-4.3779154,-19.976372,37.040203,19.855322,-0.24089722,-10.28565,1.1954755,4.171676,-10.839296
576,12.798033,7.135669,10.4821005,-4.3779154,-19.976372,37.040203,19.855322,-0.24089722,-10.28565,1.1954755,4.171676,-10.839296
577,12.798033,7.135669,10.4821005,-4.3779154,-19.976372,37.040203,19.855322,-0.24089722,-10.28565,1.1954755,4.171676,-10.839296
578,12.798033,7.135669,10.4821005,-4.3779154,-19.976372,37.040203,19.855322,-0.24089722,-10.28565,1.1954755,4.171676,-10.839296
579,12.798033,7.135669,10.4821005,-4.3779154,-19.976372,37.040203,19.855322,-0.24089722,-10.28565,1.1954755,4.171676,-10.839296
580,12.798033,7.135669,10.4821005,-4.3779154,-19.976372,37.040203,19.855322,-0.24089722,-10.28565,1.1954755,4.171676,-10.839296
581,12.798033,7.135669,10.4821005,-4.3779154,-19.976372,37.040203,19.855322,-0.24089722,-10.28565,1.1954755,4.171676,-10.839296
582,12.798033,7.135669,10.4821005,-4.3779154,-19.976372,37.040203,19.855322,-0.24089722,-10.28565,1.1954755,4.171676,-10.839296
583,12.798033,7.135669,10.4821005,-4.3779154,-19.976372,37.040203,19.855322,-0.24089722,-10.28565,1.1954755,4.171676,-10.839296
584,12.798033,7.135669,10.4821005,-4.3779154,-19.976372,37.040203,19.855322,-0.24089722,-10.28565,1.1954755,4.171676,-10.839296
585,12.798033,7.135669,10.4821005,-4.3779154,-19.976372,37.040203,19.855322,-0.24089722,-10.28565,1.1954755,4.171676,-10.839296
586,12.798033,7.135669,10.4821005,-4.3779154,-19.976372,37.040203,19.855322,-0.24089722,-10.28565,1.1954755,4.171676,-10.839296
587,12.798033,7.135669,10.4821005,-4.3779154,-19.976372,37.040203,19.855322,-0.24089722,-10.28565,1.1954755,4.171676,-10.839296
588,12.798033,7.135669,10.4821005,-4.3779154,-19.976372,37.040203,19.855322,-0.24089722,-10.28565,1.1954755,4.171676,-10.839296
589,12.798033,7.135669,10.4821005,-4.3779154,-19.976372,37.040203,19.855322,-0.24089722,-10.28565,1.1954755,4.171676,-10.839296
590,12.798033,7.135669,10.4821005,-4.3779154,-19.976372,37.040203,19.855322,-0.24089722,-10.28565,1.1954755,4.171676,-10.839296
591,12.798033,7.135669,10.4821005,-4.3779154,-19.976372,37.040203,19.855322,-0.24089722,-10.28565,1.1954755,4.171676,-10.839296
592,12.798033,7.135669,10.4821005,-4.3779154,-19.976372,37.040203,19.855322,-0.24089722,-10.28565,1.1954755,4.171676,-10.839296
593,12.798033,7.135669,10.4821005,-4.3779154,-19.976372,37.040203,19.855322,-0.24089722,-10.28565,1.1954755,4.171676,-10.839296
594,12.798033,7.135669,10.4821005,-4.3779154,-19.976372,37.040203,19.855322,-0.24089722,-10.28565,1.1954755,4.171676,-10.839296
595,12.798033,7.135669,10.4821005,-4.3779154,-19.976372,37.040203,19.855322,-0.24089722,-10.28565,1.1954755,4.171676,-10.839296
596,12.798033,7.135669,10.4821005,-4.3779154,-19.976372,37.040203,19.855322,-0.24089722,-10.28565,1.1954755,4.171676,-10.839296
597,12.798033,7.135669,10.4821005,-4.3779154,-19.976372,37.040203,19.855322,-0.24089722,-10.28565,1.1954755,4.171676,-10.839296
598,12.798033,7.135669,10.4821005,-4.3779154,-19.976372,37.040203,19.855322,-0.24089722,-10.28565,1.1954755,4.171676,-10.839296
599,12.798033,7.135669,10.4821005,-4.3779154,-19.976372,37.040203,19.855322,-0.24089722,-10.28565,1.1954755,4.171676,-10.839296
600,12.798033,7.135669,10.4821005,-4.3779154,-19.976372,37.040203,19.855322,-0.24089722,-10.28565,1.1954755,4.171676,-10.839296
601,12.798033,7.135669,10.4821005,-4.3779154,-19.976372,37.040203,19.855322,-0.24089722,-10.28565,1.1954755,4.171676,-10.839296
602,12.798033,7.135669,10.4821005,-4.3779154,-19.976372,37.040203,19.855322,-0.24089722,-10.28565,1.1954755,4.171676,-10.839296
603,12.798033,7.135669,10.4821005,-4.3779154,-19.976372,37.040203,19.855322,-0.24089722,-10.28565,1.1954755,4.171676,-10.839296
604,12.798033,7.135669,10.4821005,-4.3779154,-19.976372,37.040203,19.855322,-0.24089722,-10.28565,1.1954755,4.171676,-10.839296
605,12.798033,7.135669,10.4821005,-4.3779154,-19.976372,37.040203,19.855322,-0.24089722,-10.28565,1.1954755,4.171676,-10.839296
606,12.798033,7.135669,10.4821005,-4.3779154,-19.976372,37.040203,19.855322,-0.24089722,-10.28565,1.1954755,4.171676,-10.839296
607,12.798033,7.135669,10.4821005,-4.3779154,-19.976372,37.040203,19.855322,-0.24089722,-10.28565,1.1954755,4.171676,-10.839296
608,12.798033,7.135669,10.4821005,-4.3779154,-19.976372,37.040203,19.855322,-0.24089722,-10.28565,1.1954755,4.171676,-10.839296
609,12.798033,7.135669,10.4821005,-4.3779154,-19.976372,37.040203,19.855322,-0.24089722,-10.28565,1.1954755,4.171676,-10.839296
610,12.798033,7.135669,10.4821005,-4.3779154,-19.976372,37.040203,19.855322,-0.24089722,-10.28565,1.1954755,4.171676,-10.839296
611,12.798033,7.135669,10.4821005,-4.3779154,-19.976372,37.040203,19.855322,-0.24089722,-10.28565,1.1954755,4.171676,-10.839296
612,12.798033,7.135669,10.4821005,-4.3779154,-19.976372,37.040203,19.855322,-0.24089722,-10.28565,1.1954755,4.171676,-10.839296
613,12.798033,7.135669,10.4821005,-4.3779154,-19.976372,37.040203,19.855322,-0.24089722,-10.28565,1.1954755,4.171676,-10.839296
614,12.798033,7.135669,10.4821005,-4.3779154,-19.976372,37.040203,19.855322,-0.24089722,-10.28565,1.1954755,4.171676,-10.839296
615,12.798033,7.135669,10.4821005,-4.3779154,-19.976372,37.040203,19.855322,-0.24089722,-10.28565,1.1954755,4.171676,-10.839296
616,12.798033,7.135669,10.4821005,-4.3779154,-19.976372,37.040203,19.855322,-0.24089722,-10.28565,1.1954755,4.171676,-10.839296
617,12.798033,7.135669,10.4821005,-4.3779154,-19.976372,37.040203,19.855322,-0.24089722,-10.28565,1.1954755,4.171676,-10.839296
618,12.798033,7.135669,10.4821005,-4.3779154,-19.976372,37.040203,19.855322,-0.24089722,-10.28565,1.1954755,4.171676,-10.839296
619,12.798033,7.135669,10.4821005,-4.3779154,-19.976372,37.040203,19.855322,-0.24089722,-10.28565,1.1954755,4.171676,-10.839296
620,12.798033,7.135669,10.4821005,-4.3779154,-19.976372,37.040203,19.855322,-0.24089722,-10.28565,1.1954755,4.171676,-10.839296
621,12.798033,7.135669,10.4821005,-4.3779154,-19.976372,37.040203,19.855322,-0.24089722,-10.28565,1.1954755,4.171676,-10.839296
622,12.798033,7.135669,10.4821005,-4.3779154,-19.976372,37.040203,19.855322,-0.24089722,-10.28565,1.1954755,4.171676,-10.839296
623,12.798033,7.135669,10.4821005,-4.3779154,-19.976372,37.040203,19.855322,-0.24089722,-10.28565,1.1954755,4.171676,-10.839296
624,12.798033,7.135669,10.4821005,-4.3779154,-19.976372,37.040203,19.855322,-0.24089722,-10.28565,1.1954755,4.171676,-10.839296
625,12.798033,7.135669,10.4821005,-4.3779154,-19.976372,37.040203,19.855322,-0.24089722,-10.28565,1.1954755,4.171676,-10.839296
626,12.798033,7.135669,10.4821005,-4.3779154,-19.976372,37.040203,19.855322,-0.24089722,-10.28565,1.1954755,4.171676,-10.839296
627,12.798033,7.135669,10.4821005,-4.3779154,-19.976372,37.040203,19.855322,-0.24089722,-10.28565,1.1954755,4.171676,-10.839296
628,12.798033,7.135669,10.4821005,-4.3779154,-19.976372,37.040203,19.855322,-0.24089722,-10.28565,1.1954755,4.171676,-10.839296
629,12.798033,7.135669,10.4821005,-4.3779154,-19.976372,37.040203,19.855322,-0.24089722,-10.28565,1.1954755,4.171676,-10.839296
630,12.798033,7.135669,10.4821005,-4.3779154,-19.976372,37.040203,19.855322,-0.24089722,-10.28565,1.1954755,4.171676,-10.839296
631,12.798033,7.135669,10.4821005,-4.3779154,-19.976372,37.040203,19.855322,-0.24089722,-10.28565,1.1954755,4.171676,-10.839296
632,12.798033,7.135669,10.4821005,-4.3779154,-19.976372,37.040203,19.855322,-0.24089722,-10.28565,1.1954755,4.171676,-10.839296
633,12.798033,7.135669,10.4821005,-4.3779154,-19.976372,37.040203,19.855322,-0.24089722,-10.28565,1.1954755,4.171676,-10.839296
634,12.798033,7.135669,10.4821005,-4.3779154,-19.976372,37.040203,19.855322,-0.24089722,-10.28565,1.1954755,4.171676,-10.839296
635,12.798033,7.135669,10.4821005,-4.3779154,-19.976372,37.040203,19.855322,-0.24089722,-10.28565,1.1954755,4.171676,-10.839296
636,12.798033,7.135669,10.4821005,-4.3779154,-19.976372,37.040203,19.855322,-0.24089722,-10.28565,1.1954755,4.171676,-10.839296
637,12.798033,7.135669,10.4821005,-4.3779154,-19.976372,37.040203,19.855322,-0.24089722,-10.28565,1.1954755,4.171676,-10.839296
638,12.798033,7.135669,10.4821005,-4.3779154,-19.976372,37.040203,19.855322,-0.24089722,-10.28565,1.1954755,4.171676,-10.839296
639,12.798033,7.135669,10.4821005,-4.3779154,-19.976372,37.040203,19.855322,-0.24089722,-10.28565,1.1954755,4.171676,-10.839296
640,12.798033,7.135669,10.4821005,-4.3779154,-19.976372,37.040203,19.855322,-0.24089722,-10.28565,1.1954755,4.171676,-10.839296
641,12.798033,7.135669,10.4821005,-4.3779154,-19.976372,37.040203,19.855322,-0.24089722,-10.28565,1.1954755,4.171676,-10.839296
642,12.798033,7.135669,10.4821005,-4.3779154,-19.976372,37.040203,19.855322,-0.24089722,-10.28565,1.1954755,4.171676,-10.839296
643,12.798033,7.135669,10.4821005,-4.3779154,-19.976372,37.040203,19.855322,-0.24089722,-10.28565,1.1954755,4.171676,-10.839296
644,12.798033,7.135669,10.4821005,-4.3779154,-19.976372,37.040203,19.855322,-0.24089722,-10.28565,1.1954755,4.171676,-10.839296
645,12.798033,7.135669,10.4821005,-4.3779154,-19.976372,37.040203,19.855322,-0.24089722,-10.28565,1.1954755,4.171676,-10.839296
646,12.798033,7.135669,10.4821005,-4.3779154,-19.976372,37.040203,19.855322,-0.24089722,-10.28565,1.1954755,4.171676,-10.839296
647,12.798033,7.135669,10.4821005,-4.3779154,-19.976372,37.040203,19.855322,-0.24089722,-10.28565,1.1954755,4.171676,-10.839296
648,12.798033,7.135669,10.4821005,-4.3779154,-19.976372,37.040203,19.855322,-0.24089722,-10.28565,1.1954755,4.171676,-10.839296
649,12.798033,7.135669,10.4821005,-4.3779154,-19.976372,37.040203,19.855322,-0.24089722,-10.28565,1.1954755,4.171676,-10.839296
650,12.798033,7.135669,10.4821005,-4.3779154,-19.976372,37.040203,19.855322,-0.24089722,-10.28565,1.1954755,4.171676,-10.839296
651,12.798033,7.135669,10.4821005,-4.3779154,-19.976372,37.040203,19.855322,-0.24089722,-10.28565,1.1954755,4.171676,-10.839296
652,12.798033,7.135669,10.4821005,-4.3779154,-19.976372,37.040203,19.855322,-0.24089722,-10.28565,1.1954755,4.171676,-10.839296
653,12.798033,7.135669,10.4821005,-4.3779154,-19.976372,37.040203,19.855322,-0.24089722,-10.28565,1.1954755,4.171676,-10.839296
654,12.798033,7.135669,10.4821005,-4.3779154,-19.976372,37.040203,19.855322,-0.24089722,-10.28565,1.1954755,4.171676,-10.839296
655,12.798033,7.135669,10.4821005,-4.3779154,-19.976372,37.040203,19.855322,-0.24089722,-10.28565,1.1954755,4.171676,-10.839296
656,12.798033,7.135669,10.4821005,-4.3779154,-19.976372,37.040203,19.855322,-0.24089722,-10.28565,1.1954755,4.171676,-10.839296
657,12.798033,7.135669,10.4821005,-4.3779154,-19.976372,37.040203,19.855322,-0.24089722,-10.28565,1.1954755,4.171676,-10.839296
658,12.798033,7.135669,10.4821005,-4.3779154,-19.976372,37.040203,19.855322,-0.24089722,-10.28565,1.1954755,4.171676,-10.839296
659,12.798033,7.135669,10.4821005,-4.3779154,-19.976372,37.040203,19.855322,-0.24089722,-10.28565,1.1954755,4.171676,-10.839296
660,12.798033,7.135669,10.4821005,-4.3779154,-19.976372,37.040203,19.855322,-0.24089722,-10.28565,1.1954755,4.171676,-10.839296
661,12.798033,7.135669,10.4821005,-4.3779154,-19.976372,37.040203,19.855322,-0.24089722,-10.28565,1.1954755,4.171676,-10.839296
662,12.798033,7.135669,10.4821005,-4.3779154,-19.976372,37.040203,19.855322,-0.24089722,-10.28565,1.1954755,4.171676,-10.839296
663,12.798033,7.135669,10.4821005,-4.3779154,-19.976372,37.040203,19.855322,-0.24089722,-10.28565,1.1954755,4.171676,-10.839296
664,12.798033,7.135669,10.4821005,-4.3779154,-19.976372,37.040203,19.855322,-0.24089722,-10.28565,1.1954755,4.171676,-10.839296
665,12.798033,7.135669,10.4821005,-4.3779154,-19.976372,37.040203,19.855322,-0.24089722,-10.28565,1.1954755,4.171676,-10.839296
666,12.798033,7.135669,10.4821005,-4.3779154,-19.976372,37.040203,19.855322,-0.24089722,-10.28565,1.1954755,4.171676,-10.839296
667,12.798033,7.135669,10.4821005,-4.3779154,-19.976372,37.040203,19.855322,-0.24089722,-10.28565,1.1954755,4.171676,-10.839296
668,12.798033,7.135669,10.4821005,-4.3779154,-19.976372,37.040203,19.855322,-0.24089722,-10.28565,1.1954755,4.171676,-10.839296
669,12.798033,7.135669,10.4821005,-4.3779154,-19.976372,37.040203,19.855322,-0.24089722,-10.28565,1.1954755,4.171676,-10.839296
670,12.798033,7.135669,10.4821005,-4.3779154,-19.976372,37.040203,19.855322,-0.24089722,-10.28565,1.1954755,4.171676,-10.839296
671,12.798033,7.135669,10.4821005,-4.3779154,-19.976372,37.040203,19.855322,-0.24089722,-10.28565,1.1954755,4.171676,-10.839296
672,12.798033,7.135669,10.4821005,-4.3779154,-19.976372,37.040203,19.855322,-0.24089722,-10.28565,1.1954755,4.171676,-10.839296
673,12.798033,7.135669,10.4821005,-4.3779154,-19.976372,37.040203,19.855322,-0.24089722,-10.28565,1.1954755,4.171676,-10.839296
674,12.798033,7.135669,10.4821005,-4.3779154,-19.976372,37.040203,19.855322,-0.24089722,-10.28565,1.1954755,4.171676,-10.839296
675,12.798033,7.135669,10.4821005,-4.3779154,-19.976372,37.040203,19.855322,-0.24089722,-10.28565,1.1954755,4.171676,-10.839296
676,12.798033,7.135669,10.4821005,-4.3779154,-19.976372,37.040203,19.855322,-0.24089722,-10.28565,1.1954755,4.171676,-10.839296
677,12.798033,7.135669,10.4821005,-4.3779154,-19.976372,37.040203,19.855322,-0.24089722,-10.28565,1.1954755,4.171676,-10.839296
678,12.798033,7.135669,10.4821005,-4.3779154,-19.976372,37.040203,19.855322,-0.24089722,-10.28565,1.1954755,4.171676,-10.839296
679,12.798033,7.135669,10.4821005,-4.3779154,-19.976372,37.040203,19.855322,-0.24089722,-10.28565,1.1954755,4.171676,-10.839296
680,12.798033,7.135669,10.4821005,-4.3779154,-19.976372,37.040203,19.855322,-0.24089722,-10.28565,1.1954755,4.171676,-10.839296
681,12.798033,7.135669,10.4821005,-4.3779154,-19.976372,37.040203,19.855322,-0.24089722,-10.28565,1.1954755,4.171676,-10.839296
682,12.798033,7.135669,10.4821005,-4.3779154,-19.976372,37.040203,19.855322,-0.24089722,-10.28565,1.1954755,4.171676,-10.839296
683,12.798033,7.135669,10.4821005,-4.3779154,-19.976372,37.040203,19.855322,-0.24089722,-10.28565,1.1954755,4.171676,-10.839296
684,12.798033,7.135669,10.4821005,-4.3779154,-19.976372,37.040203,19.855322,-0.24089722,-10.28565,1.1954755,4.171676,-10.839296
685,12.798033,7.135669,10.4821005,-4.3779154,-19.976372,37.040203,19.855322,-0.24089722,-10.28565,1.1954755,4.171676,-10.839296
686,12.798033,7.135669,10.4821005,-4.3779154,-19.976372,37.040203,19.855322,-0.24089722,-10.28565,1.1954755,4.171676,-10.839296
687,12.798033,7.135669,10.4821005,-4.3779154,-19.976372,37.040203,19.855322,-0.24089722,-10.28565,1.1954755,4.171676,-10.839296
688,12.798033,7.135669,10.4821005,-4.3779154,-19.976372,37.040203,19.855322,-0.24089722,-10.28565,1.1954755,4.171676,-10.839296
689,12.798033,7.135669,10.4821005,-4.3779154,-19.976372,37.040203,19.855322,-0.24089722,-10.28565,1.1954755,4.171676,-10.839296
690,12.798033,7.135669,10.4821005,-4.3779154,-19.976372,37.040203,19.855322,-0.24089722,-10.28565,1.1954755,4.171676,-10.839296
691,12.798033,7.135669,10.4821005,-4.3779154,-19.976372,37.040203,19.855322,-0.24089722,-10.28565,1.1954755,4.171676,-10.839296
692,12.798033,7.135669,10.4821005,-4.3779154,-19.976372,37.040203,19.855322,-0.24089722,-10.28565,1.1954755,4.171676,-10.839296
693,12.798033,7.135669,10.4821005,-4.3779154,-19.976372,37.040203,19.855322,-0.24089722,-10.28565,1.1954755,4.171676,-10.839296
694,12.798033,7.135669,10.4821005,-4.3779154,-19.976372,37.040203,19.855322,-0.24089722,-10.28565,1.1954755,4.171676,-10.839296
695,12.798033,7.135669,10.4821005,-4.3779154,-19.976372,37.040203,19.855322,-0.24089722,-10.28565,1.1954755,4.171676,-10.839296
696,12.798033,7.135669,10.4821005,-4.3779154,-19.976372,37.040203,19.855322,-0.24089722,-10.28565,1.1954755,4.171676,-10.839296
697,12.798033,7.135669,10.4821005,-4.3779154,-19.976372,37.040203,19.855322,-0.24089722,-10.28565,1.1954755,4.171676,-10.839296
698,12.798033,7.135669,10.4821005,-4.3779154,-19.976372,37.040203,19.855322,-0.24089722,-10.28565,1.1954755,4.171676,-10.839296
699,12.798033,7.135669,10.4821005,-4.3779154,-19.976372,37.040203,19.855322,-0.24089722,-10.28565,1.1954755,4.171676,-10.839296
700,12.798033,7.135669,10.4821005,-4.3779154,-19.976372,37.040203,19.855322,-0.24089722,-10.28565,1.1954755,4.171676,-10.839296
701,12.798033,7.135669,10.4821005,-4.3779154,-19.976372,37.040203,19.855322,-0.24089722,-10.28565,1.1954755,4.171676,-10.839296
702,12.798033,7.135669,10.4821005,-4.3779154,-19.976372,37.040203,19.855322,-0.24089722,-10.28565,1.1954755,4.171676,-10.839296
703,12.798033,7.135669,10.4821005,-4.3779154,-19.976372,37.040203,19.855322,-0.24089722,-10.28565,1.1954755,4.171676,-10.839296
704,12.798033,7.135669,10.4821005,-4.3779154,-19.976372,37.040203,19.855322,-0.24089722,-10.28565,1.1954755,4.171676,-10.839296
705,12.798033,7.135669,10.4821005,-4.3779154,-19.976372,37.040203,19.855322,-0.24089722,-10.28565,1.1954755,4.171676,-10.839296
706,12.798033,7.135669,10.4821005,-4.3779154,-19.976372,37.040203,19.855322,-0.24089722,-10.28565,1.1954755,4.171676,-10.839296
707,12.798033,7.135669,10.4821005,-4.3779154,-19.976372,37.040203,19.855322,-0.24089722,-10.28565,1.1954755,4.171676,-10.839296
708,12.798033,7.135669,10.4821005,-4.3779154,-19.976372,37.040203,19.855322,-0.24089722,-10.28565,1.1954755,4.171676,-10.839296
709,12.798033,7.135669,10.4821005,-4.3779154,-19.976372,37.040203,19.855322,-0.24089722,-10.28565,1.1954755,4.171676,-10.839296
710,12.798033,7.135669,10.4821005,-4.3779154,-19.976372,37.040203,19.855322,-0.24089722,-10.28565,1.1954755,4.171676,-10.839296
711,12.798033,7.135669,10.4821005,-4.3779154,-19.976372,37.040203,19.855322,-0.24089722,-10.28565,1.1954755,4.171676,-10.839296
712,12.798033,7.135669,10.4821005,-4.3779154,-19.976372,37.040203,19.855322,-0.24089722,-10.28565,1.1954755,4.171676,-10.839296
713,12.798033,7.135669,10.4821005,-4.3779154,-19.976372,37.040203,19.855322,-0.24089722,-10.28565,1.1954755,4.171676,-10.839296
714,12.798033,7.135669,10.4821005,-4.3779154,-19.976372,37.040203,19.855322,-0.24089722,-10.28565,1.1954755,4.171676,-10.839296
715,12.798033,7.135669,10.4821005,-4.3779154,-19.976372,37.040203,19.855322,-0.24089722,-10.28565,1.1954755,4.171676,-10.839296
716,12.798033,7.135669,10.4821005,-4.3779154,-19.976372,37.040203,19.855322,-0.24089722,-10.28565,1.1954755,4.171676,-10.839296
717,12.798033,7.135669,10.4821005,-4.3779154,-19.976372,37.040203,19.855322,-0.24089722,-10.28565,1.1954755,4.171676,-10.839296
718,12.798033,7.135669,10.4821005,-4.3779154,-19.976372,37.040203,19.855322,-0.24089722,-10.28565,1.1954755,4.171676,-10.839296
719,12.798033,7.135669,10.4821005,-4.3779154,-19.976372,37.040203,19.855322,-0.24089722,-10.28565,1.1954755,4.171676,-10.839296
720,12.798033,7.135669,10.4821005,-4.3779154,-19.976372,37.040203,19.855322,-0.24089722,-10.28565,1.1954755,4.171676,-10.839296
721,12.798033,7.135669,10.4821005,-4.3779154,-19.976372,37.040203,19.855322,-0.24089722,-10.28565,1.1954755,4.171676,-10.839296
722,12.798033,7.135669,10.4821005,-4.3779154,-19.976372,37.040203,19.855322,-0.24089722,-10.28565,1.1954755,4.171676,-10.839296
723,12.798033,7.135669,10.4821005,-4.3779154,-19.976372,37.040203,19.855322,-0.24089722,-10.28565,1.1954755,4.171676,-10.839296
724,12.798033,7.135669,10.4821005,-4.3779154,-19.976372,37.040203,19.855322,-0.24089722,-10.28565,1.1954755,4.171676,-10.839296
725,12.798033,7.135669,10.4821005,-4.3779154,-19.976372,37.040203,19.855322,-0.24089722,-10.28565,1.1954755,4.171676,-10.839296
726,12.798033,7.135669,10.4821005,-4.3779154,-19.976372,37.040203,19.855322,-0.24089722,-10.28565,1.1954755,4.171676,-10.839296
727,12.798033,7.135669,10.4821005,-4.3779154,-19.976372,37.040203,19.855322,-0.24089722,-10.28565,1.1954755,4.171676,-10.839296
728,12.798033,7.135669,10.4821005,-4.3779154,-19.976372,37.040203,19.855322,-0.24089722,-10.28565,1.1954755,4.171676,-10.839296
729,12.798033,7.135669,10.4821005,-4.3779154,-19.976372,37.040203,19.855322,-0.24089722,-10.28565,1.1954755,4.171676,-10.839296
730,12.798033,7.135669,10.4821005,-4.3779154,-19.976372,37.040203,19.855322,-0.24089722,-10.28565,1.1954755,4.171676,-10.839296
731,12.798033,7.135669,10.4821005,-4.3779154,-19.976372,37.040203,19.855322,-0.24089722,-10.28565,1.1954755,4.171676,-10.839296
732,12.798033,7.135669,10.4821005,-4.3779154,-19.976372,37.040203,19.855322,-0.24089722,-10.28565,1.1954755,4.171676,-10.839296
733,12.798033,7.135669,10.4821005,-4.3779154,-19.976372,37.040203,19.855322,-0.24089722,-10.28565,1.1954755,4.171676,-10.839296
734,12.798033,7.135669,10.4821005,-4.3779154,-19.976372,37.040203,19.855322,-0.24089722,-10.28565,1.1954755,4.171676,-10.839296
735,12.798033,7.135669,10.4821005,-4.3779154,-19.976372,37.040203,19.855322,-0.24089722,-10.28565,1.1954755,4.171676,-10.839296
736,12.798033,7.135669,10.4821005,-4.3779154,-19.976372,37.040203,19.855322,-0.24089722,-10.28565,1.1954755,4.171676,-10.839296
737,12.798033,7.135669,10.4821005,-4.3779154,-19.976372,37.040203,19.855322,-0.24089722,-10.28565,1.1954755,4.171676,-10.839296
738,12.798033,7.135669,10.4821005,-4.3779154,-19.976372,37.040203,19.855322,-0.24089722,-10.28565,1.1954755,4.171676,-10.839296
739,12.798033,7.135669,10.4821005,-4.3779154,-19.976372,37.040203,19.855322,-0.24089722,-10.28565,1.1954755,4.171676,-10.839296
740,12.798033,7.135669,10.4821005,-4.3779154,-19.976372,37.040203,19.855322,-0.24089722,-10.28565,1.1954755,4.171676,-10.839296
741,12.798033,7.135669,10.4821005,-4.3779154,-19.976372,37.040203,19.855322,-0.24089722,-10.28565,1.1954755,4.171676,-10.839296
742,12.798033,7.135669,10.4821005,-4.3779154,-19.976372,37.040203,19.855322,-0.24089722,-10.28565,1.1954755,4.171676,-10.839296
743,12.798033,7.135669,10.4821005,-4.3779154,-19.976372,37.040203,19.855322,-0.24089722,-10.28565,1.1954755,4.171676,-10.839296
744,12.798033,7.135669,10.4821005,-4.3779154,-19.976372,37.040203,19.855322,-0.24089722,-10.28565,1.1954755,4.171676,-10.839296
745,12.798033,7.135669,10.4821005,-4.3779154,-19.976372,37.040203,19.855322,-0.24089722,-10.28565,1.1954755,4.171676,-10.839296
746,12.798033,7.135669,10.4821005,-4.3779154,-19.976372,37.040203,19.855322,-0.24089722,-10.28565,1.1954755,4.171676,-10.839296
747,12.798033,7.135669,10.4821005,-4.3779154,-19.976372,37.040203,19.855322,-0.24089722,-10.28565,1.1954755,4.171676,-10.839296
748,12.798033,7.135669,10.4821005,-4.3779154,-19.976372,37.040203,19.855322,-0.24089722,-10.28565,1.1954755,4.171676,-10.839296
749,12.798033,7.135669,10.4821005,-4.3779154,-19.976372,37.040203,19.855322,-0.24089722,-10.28565,1.1954755,4.171676,-10.839296
750,12.798033,7.135669,10.4821005,-4.3779154,-19.976372,37.040203,19.855322,-0.24089722,-10.28565,1.1954755,4.171676,-10.839296
751,12.798033,7.135669,10.4821005,-4.3779154,-19.976372,37.040203,19.855322,-0.24089722,-10.28565,1.1954755,4.171676,-10.839296
752,12.798033,7.135669,10.4821005,-4.3779154,-19.976372,37.040203,19.855322,-0.24089722,-10.28565,1.1954755,4.171676,-10.839296
753,12.798033,7.135669,10.4821005,-4.3779154,-19.976372,37.040203,19.855322,-0.24089722,-10.28565,1.1954755,4.171676,-10.839296
754,12.798033,7.135669,10.4821005,-4.3779154,-19.976372,37.040203,19.855322,-0.24089722,-10.28565,1.1954755,4.171676,-10.839296
755,12.798033,7.135669,10.4821005,-4.3779154,-19.976372,37.040203,19.855322,-0.24089722,-10.28565,1.1954755,4.171676,-10.839296
756,12.798033,7.135669,10.4821005,-4.3779154,-19.976372,37.040203,19.855322,-0.24089722,-10.28565,1.1954755,4.171676,-10.839296
757,12.798033,7.135669,10.4821005,-4.3779154,-19.976372,37.040203,19.855322,-0.24089722,-10.28565,1.1954755,4.171676,-10.839296
758,12.798033,7.135669,10.4821005,-4.3779154,-19.976372,37.040203,19.855322,-0.24089722,-10.28565,1.1954755,4.171676,-10.839296
759,12.798033,7.135669,10.4821005,-4.3779154,-19.976372,37.040203,19.855322,-0.24089722,-10.28565,1.1954755,4.171676,-10.839296
760,12.798033,7.135669,10.4821005,-4.3779154,-19.976372,37.040203,19.855322,-0.24089722,-10.28565,1.1954755,4.171676,-10.839296
761,12.798033,7.135669,10.4821005,-4.3779154,-19.976372,37.040203,19.855322,-0.24089722,-10.28565,1.1954755,4.171676,-10.839296
762,12.798033,7.135669,10.4821005,-4.3779154,-19.976372,37.040203,19.855322,-0.24089722,-10.28565,1.1954755,4.171676,-10.839296
763,12.798033,7.135669,10.4821005,-4.3779154,-19.976372,37.040203,19.855322,-0.24089722,-10.28565,1.1954755,4.171676,-10.839296
764,12.798033,7.135669,10.4821005,-4.3779154,-19.976372,37.040203,19.855322,-0.24089722,-10.28565,1.1954755,4.171676,-10.839296
765,12.798033,7.135669,10.4821005,-4.3779154,-19.976372,37.040203,19.855322,-0.24089722,-10.28565,1.1954755,4.171676,-10.839296
766,12.798033,7.135669,10.4821005,-4.3779154,-19.976372,37.040203,19.855322,-0.24089722,-10.28565,1.1954755,4.171676,-10.839296
767,12.798033,7.135669,10.4821005,-4.3779154,-19.976372,37.040203,19.855322,-0.24089722,-10.28565,1.1954755,4.171676,-10.839296
768,12.798033,7.135669,10.4821005,-4.3779154,-19.976372,37.040203,19.855322,-0.24089722,-10.28565,1.1954755,4.171676,-10.839296
769,12.798033,7.135669,10.4821005,-4.3779154,-19.976372,37.040203,19.855322,-0.24089722,-10.28565,1.1954755,4.171676,-10.839296
770,12.798033,7.135669,10.4821005,-4.3779154,-19.976372,37.040203,19.855322,-0.24089722,-10.28565,1.1954755,4.171676,-10.839296
771,12.798033,7.135669,10.4821005,-4.3779154,-19.976372,37.040203,19.855322,-0.24089722,-10.28565,1.1954755,4.171676,-10.839296
772,12.798033,7.135669,10.4821005,-4.3779154,-19.976372,37.040203,19.855322,-0.24089722,-10.28565,1.1954755,4.171676,-10.839296
773,12.798033,7.135669,10.4821005,-4.3779154,-19.976372,37.040203,19.855322,-0.24089722,-10.28565,1.1954755,4.171676,-10.839296
774,12.798033,7.135669,10.4821005,-4.3779154,-19.976372,37.040203,19.855322,-0.24089722,-10.28565,1.1954755,4.171676,-10.839296
